connormayer/uci_phonotactic_calculator/.deprecated/media/uploads/engl_1747104957_595806/english_test_data_ilzyaCs_scores.csv
word,word_len,ngram_n1_pos_none_bound_none_smooth_none_weight_none_prob_joint_agg_prod,ngram_n1_pos_none_bound_none_smooth_none_weight_legacy_log_prob_joint_agg_prod,ngram_n1_pos_none_bound_none_smooth_laplace_weight_none_prob_joint_agg_prod,ngram_n1_pos_none_bound_none_smooth_laplace_weight_legacy_log_prob_joint_agg_prod,ngram_n2_pos_none_bound_both_smooth_none_weight_none_prob_conditional_agg_prod,ngram_n2_pos_none_bound_both_smooth_none_weight_legacy_log_prob_conditional_agg_prod,ngram_n2_pos_none_bound_both_smooth_laplace_weight_none_prob_conditional_agg_prod,ngram_n2_pos_none_bound_both_smooth_laplace_weight_legacy_log_prob_conditional_agg_prod,ngram_n1_pos_absolute_bound_none_smooth_none_weight_none_prob_joint_agg_sum_plus1,ngram_n1_pos_absolute_bound_none_smooth_none_weight_legacy_log_prob_joint_agg_sum_plus1,ngram_n1_pos_absolute_bound_none_smooth_laplace_weight_none_prob_joint_agg_sum_plus1,ngram_n1_pos_absolute_bound_none_smooth_laplace_weight_legacy_log_prob_joint_agg_sum_plus1,ngram_n2_pos_absolute_bound_none_smooth_none_weight_none_prob_joint_agg_sum_plus1,ngram_n2_pos_absolute_bound_none_smooth_none_weight_legacy_log_prob_joint_agg_sum_plus1,ngram_n2_pos_absolute_bound_none_smooth_laplace_weight_none_prob_joint_agg_sum_plus1,ngram_n2_pos_absolute_bound_none_smooth_laplace_weight_legacy_log_prob_joint_agg_sum_plus1,neighbourhood_full
B AE L,3,-10.362046730148755,nan,-10.36212113478198,-10.990684938388938,-9.709414945226865,nan,-9.72608748163445,-14.755517816455745,1.1847428623894263,nan,1.184583854156107,1.0769230769230769,1.0121795988572762,nan,1.0115867582558782,1.0013149243918475,25.0
B AE P,3,-11.033268779328981,nan,-11.033252184777549,-10.990684938388938,-11.479829398108048,nan,-11.495553294614842,-14.755517816455745,1.1544305771332608,nan,1.1543166334798596,1.0769230769230769,1.0089727575959186,nan,1.0085559085355102,1.0013149243918475,27.0
B IH S,3,-9.40070769016222,nan,-9.400923081873046,-10.990684938388938,-9.145510714493625,nan,-9.159839514959963,-14.755517816455745,1.236220388890724,nan,1.2359855550255128,1.0769230769230769,1.0267346698982924,nan,1.0253425467013495,1.0013149243918475,24.0
CH AE L,3,-11.720820025288898,nan,-11.720126548210672,-10.990684938388938,-12.007373092699444,nan,-12.02952666084531,-14.755517816455745,1.1399628081562234,nan,1.139869477111242,1.0769230769230769,1.007543862227419,nan,1.0072023567445074,1.0013149243918475,9.0
CH AE N,3,-11.517644275219581,nan,-11.516968289276718,-10.990684938388938,-11.029984214242468,nan,-11.05322470999305,-14.755517816455745,1.1644340611149162,nan,1.164304349218893,1.0769230769230769,1.0134994245699402,nan,1.0128310776537623,1.0013149243918475,20.0
CH EH N,3,-11.291310928537271,nan,-11.290681155793342,-10.990684938388938,-10.87173289652063,nan,-10.89779807996928,-14.755517816455745,1.1733663341334215,nan,1.1732235122476449,1.0769230769230769,1.0139918193038735,nan,1.0132966497011555,1.0013149243918475,20.0
CH IH S,3,-10.75948098530236,nan,-10.758928495301738,-10.990684938388938,-11.436548419121632,nan,-11.46260350002686,-14.755517816455745,1.191440334657521,nan,1.191271177980648,1.0769230769230769,1.022928089413613,nan,1.0217423470863214,1.0013149243918475,15.0
D AE L,3,-9.87799134744737,nan,-9.878167702264115,-10.990684938388938,-11.189717236086626,nan,-11.192708725441033,-14.755517816455745,1.1945349684454671,nan,1.194361598505699,1.0769230769230769,1.0081845737941473,nan,1.007808330937136,1.0013149243918475,18.0
D AE S,3,-9.868805241845081,nan,-9.868982466529236,-10.990684938388938,-11.279415535832442,nan,-11.282362600850902,-14.755517816455745,1.2088512240765277,nan,1.2086565704875538,1.0769230769230769,1.0077264536139534,nan,1.0073753524056548,1.0013149243918475,18.0
D EH M,3,-10.26256207581497,nan,-10.262704538968423,-10.990684938388938,-10.68421610362182,nan,-10.697919420092093,-14.755517816455745,1.1843025472591928,nan,1.184144559041408,1.0769230769230769,1.0112917798587124,nan,1.0107481626662613,1.0013149243918475,24.0
D EH P,3,-10.322880049945287,nan,-10.32301161877631,-10.990684938388938,-11.788000138909974,nan,-11.798842666381553,-14.755517816455745,1.173154956207807,nan,1.1730135408582036,1.0769230769230769,1.0093065924112055,nan,1.0088719223631764,1.0013149243918475,17.0
D EH S,3,-9.642471895162771,nan,-9.64269533304586,-10.990684938388938,-9.735690366360174,nan,-9.748328904254267,-14.755517816455745,1.217783497095033,nan,1.217575733516306,1.0769230769230769,1.0125897870359286,nan,1.0119749351721246,1.0013149243918475,26.0
D IH DH,3,-12.90281229114849,nan,-12.898160595119919,-10.990684938388938,-12.907148344888142,nan,-13.011565180624611,-14.755517816455745,1.1675975907702358,nan,1.1674649728398248,1.0769230769230769,1.0287649346932701,nan,1.027276686732133,1.0013149243918475,11.0
D IH JH,3,-10.815785378079395,nan,-10.815567459277737,-10.990684938388938,-9.819156107753692,nan,-9.847130174178941,-14.755517816455745,1.1751565737434357,nan,1.175012718046244,1.0769230769230769,1.029681175053658,nan,1.0281426437950953,1.0013149243918475,15.0
D IH T,3,-8.783981484869674,nan,-8.78431053827356,-10.990684938388938,-8.381970065695505,nan,-8.393769527515962,-14.755517816455745,1.2286039280993952,nan,1.2283806134451691,1.0769230769230769,1.0340333167655005,nan,1.0322559398441662,1.0013149243918475,35.0
D IH TH,3,-11.684726349346088,nan,-11.683637579898829,-10.990684938388938,-11.256139927241662,nan,-11.29975989607619,-14.755517816455745,1.1717206723919813,nan,1.171581924770599,1.0769230769230769,1.0290321714650499,nan,1.0275292575421637,1.0013149243918475,17.0
D IH V,3,-10.365978030427723,nan,-10.365988110552273,-10.990684938388938,-9.040150511340018,nan,-9.062370476133916,-14.755517816455745,1.18817482219728,nan,1.1880116125684108,1.0769230769230769,1.0318572459095792,nan,1.0301992918196308,1.0013149243918475,15.0
D IH Z,3,-10.527788493725126,nan,-10.527728067546153,-10.990684938388938,-8.567460113663367,nan,-8.59285878944288,-14.755517816455745,1.1845098607557287,nan,1.184352099741056,1.0769230769230769,1.0323153660897733,nan,1.030632270351112,1.0013149243918475,19.0
D IH ZH,3,-12.923325830981591,nan,-12.918569466751126,-10.990684938388938,-12.75838046953136,nan,-12.869946120979069,-14.755517816455745,1.1660705235029227,nan,1.165940175828427,1.0769230769230769,1.028344991194759,nan,1.026879789744942,1.0013149243918475,9.0
F AE L,3,-10.541131437123969,nan,-10.541153738422842,-10.990684938388938,-10.304392781280896,nan,-10.318755995658446,-14.755517816455745,1.1800351190932528,nan,1.1798830155264954,1.0769230769230769,1.0092398634334643,nan,1.0088064060779358,1.0013149243918475,23.0
F AE S,3,-10.53194533152168,nan,-10.531968502687963,-10.990684938388938,-10.394091081026712,nan,-10.408409871068315,-14.755517816455745,1.1943513747243133,nan,1.1941779875083505,1.0769230769230769,1.0087817432532704,nan,1.0083734275464546,1.0013149243918475,17.0
F EH K,3,-10.541491842651727,nan,-10.54153615218773,-10.990684938388938,-9.84655250686965,nan,-9.864518333478784,-14.755517816455745,1.1763690871564247,nan,1.1762226032112153,1.0769230769230769,1.0094689235235614,nan,1.0090228953436764,1.0013149243918475,18.0
F EH S,3,-10.30561198483937,nan,-10.305681369204587,-10.990684938388938,-9.733171438972198,nan,-9.7500555553423,-14.755517816455745,1.2032836477428184,nan,1.2030971505371024,1.0769230769230769,1.0088962732983189,nan,1.0084816721793248,1.0013149243918475,17.0
F IH K,3,-9.81567225494979,nan,-9.815810468497052,-10.990684938388938,-9.218679756687743,nan,-9.235909452170446,-14.755517816455745,1.2045980850081566,nan,1.204410169070014,1.0769230769230769,1.0130703444517974,nan,1.0124279698667789,1.0013149243918475,27.0
F IH S,3,-9.579792397137433,nan,-9.579955685513909,-10.990684938388938,-8.997785695498703,nan,-9.014291565346936,-14.755517816455745,1.2315126455945502,nan,1.2312847163959013,1.0769230769230769,1.026508536404153,nan,1.0251286734568925,1.0013149243918475,20.0
G AE N,3,-10.753162946796763,nan,-10.753039204894124,-10.990684938388938,-9.746453363515743,nan,-9.76538221687807,-14.755517816455745,1.1830390626213942,nan,1.1828820634831176,1.0769230769230769,1.0147054698720168,nan,1.0139717349575337,1.0013149243918475,28.0
G EH N,3,-10.526829600114453,nan,-10.526752071410748,-10.990684938388938,-10.602073106006923,nan,-10.605693965390685,-14.755517816455745,1.1919713356398993,nan,1.1918012265118696,1.0769230769230769,1.0132003520743857,nan,1.0125480933455557,1.0013149243918475,24.0
G IH N,3,-9.801010012412517,nan,-9.801026387720071,-10.990684938388938,-10.370102230927953,nan,-10.381671513452982,-14.755517816455745,1.2202003334916312,nan,1.2199887923706685,1.0769230769230769,1.0100219321748523,nan,1.0095446050985328,1.0013149243918475,29.0
G IH S,3,-9.994999656879543,nan,-9.994999410919146,-10.990684938388938,-10.706902681621344,nan,-10.718852550343815,-14.755517816455745,1.210045336163999,nan,1.2098488922448727,1.0769230769230769,1.0231165339920625,nan,1.0219205747900357,1.0013149243918475,16.0
HH AE N,3,-11.183982899240402,nan,-11.183600038593097,-10.990684938388938,-8.294551290979665,nan,-8.329218370871374,-14.755517816455745,1.1955804907624004,nan,1.1954050975924027,1.0769230769230769,1.0169291158977207,nan,1.016074821861362,1.0013149243918475,25.0
HH AE S,3,-11.377972543707427,nan,-11.37757306179217,-10.990684938388938,-9.361638469182457,nan,-9.395174197133505,-14.755517816455745,1.185425493434768,nan,1.1852651974666069,1.0769230769230769,1.0105154333750057,nan,1.010013122420626,1.0013149243918475,22.0
HH EH S,3,-11.151639197025117,nan,-11.151285928308795,-10.990684938388938,-9.163780221454026,nan,-9.196679061581452,-14.755517816455745,1.1943577664532734,nan,1.194184360495359,1.0769230769230769,1.0109691636612632,nan,1.010442176920182,1.0013149243918475,20.0
JH IH S,3,-10.263448838948575,nan,-10.263300416041602,-10.990684938388938,-10.122217481751445,nan,-10.146777590498873,-14.755517816455745,1.1978805274866864,nan,1.1977019252259564,1.0769230769230769,1.0230034672449928,nan,1.0218136381678071,1.0013149243918475,16.0
K AE DH,3,-13.538508544214272,nan,-13.533761152040977,-10.990684938388938,-14.142933318510895,nan,-14.183126404061309,-14.755517816455745,1.158193174374238,nan,1.1580743885124634,1.0769230769230769,1.0093125765373547,nan,1.0088792276733483,1.0013149243918475,9.0
K AE G,3,-11.183032449076148,nan,-11.18286701107634,-10.990684938388938,-11.830401713819835,nan,-11.846694555413404,-14.755517816455745,1.1727384900953954,nan,1.172598080046028,1.0769230769230769,1.0113359406665445,nan,1.0107915495207234,1.0013149243918475,23.0
K AE K,3,-9.788228418338974,nan,-9.788424989259383,-10.990684938388938,-9.705512462314886,nan,-9.719522813452357,-14.755517816455745,1.209693517964373,nan,1.2094981677218561,1.0769230769230769,1.0156117290150213,nan,1.0148326824812142,1.0013149243918475,35.0
K AE NG,3,-11.49393173453063,nan,-11.49359082984035,-10.990684938388938,-9.29732943412365,nan,-9.328860424987173,-14.755517816455745,1.16685928111624,nan,1.1667276115521463,1.0769230769230769,1.0127103012071264,nan,1.0120904851151669,1.0013149243918475,20.0
K AE TH,3,-12.32042260241187,nan,-12.319238136819887,-10.990684938388938,-11.848339787252485,nan,-11.885556699991534,-14.755517816455745,1.1623162559959834,nan,1.1621913404432376,1.0769230769230769,1.0099997568076458,nan,1.00952869547057,1.0013149243918475,14.0
K AE Z,3,-11.163484746790909,nan,-11.163328624467212,-10.990684938388938,-11.186284155685339,nan,-11.191161063580058,-14.755517816455745,1.1751054443597309,nan,1.1749615154136948,1.0769230769230769,1.009694343354183,nan,1.0092400431162494,1.0013149243918475,13.0
K AE ZH,3,-13.559022084047374,nan,-13.554170023672185,-10.990684938388938,-13.888804927496288,nan,-13.955033746411937,-14.755517816455745,1.1566661071069249,nan,1.1565495915010655,1.0769230769230769,1.009465283264086,nan,1.0090235538505088,1.0013149243918475,9.0
K EH K,3,-9.561895071656664,nan,-9.562137855776008,-10.990684938388938,-11.016762308629353,nan,-11.02067247365202,-14.755517816455745,1.2186257909828784,nan,1.2184173307506083,1.0769230769230769,1.0087151452097634,nan,1.0083099845288193,1.0013149243918475,21.0
K EH L,3,-9.335201319446597,nan,-9.335468308527744,-10.990684938388938,-11.029276718773062,nan,-11.031698723375092,-14.755517816455745,1.2312240959382117,nan,1.2309969060946404,1.0769230769230769,1.009898622341931,nan,1.0094285124018123,1.0013149243918475,32.0
K EH S,3,-9.326015213844308,nan,-9.326283072792865,-10.990684938388938,-10.903381240731902,nan,-10.906209695515539,-14.755517816455745,1.2455403515692722,nan,1.2452918780764954,1.0769230769230769,1.008142494984521,nan,1.007768761364468,1.0013149243918475,20.0
L AE L,3,-9.334840913918837,nan,-9.335085894762859,-10.990684938388938,-10.656549297906261,nan,-10.667966874525936,-14.755517816455745,1.163200229066136,nan,1.1630728165870046,1.0769230769230769,1.0103328419884714,nan,1.0098401267594785,1.0013149243918475,19.0
L AE N,3,-9.131665163849522,nan,-9.131927635828905,-10.990684938388938,-9.679160419449286,nan,-9.691664923673674,-14.755517816455745,1.1876714820248289,nan,1.1875076886946554,1.0769230769230769,1.0162884043309925,nan,1.0154688476687335,1.0013149243918475,38.0
L AE T,3,-9.19298398572539,nan,-9.193241547946357,-10.990684938388938,-10.501745334134792,nan,-10.512633236085833,-14.755517816455745,1.160107917849827,nan,1.1599851026389238,1.0769230769230769,1.0090348348112552,nan,1.0086133542536153,1.0013149243918475,38.0
L EH L,3,-9.108507567236527,nan,-9.108798761279482,-10.990684938388938,-10.849855263859723,nan,-10.859522992856723,-14.755517816455745,1.1721325020846414,nan,1.1719919796157567,1.0769230769230769,1.0116700013793563,nan,1.0111038528167264,1.0013149243918475,20.0
L IH S,3,-8.373501873932302,nan,-8.373887841853925,-10.990684938388938,-9.553637383822595,nan,-9.562792845187973,-14.755517816455745,1.2146777555674337,nan,1.2144745174564104,1.0769230769230769,1.026847736645362,nan,1.025449483323578,1.0013149243918475,25.0
M AE B,3,-10.972950805198664,nan,-10.972945104969662,-10.990684938388938,-12.375520158419942,nan,-12.385828893179088,-14.755517816455745,1.1431277056785762,nan,1.143030569514275,1.0769230769230769,1.0104284800940295,nan,1.0099334405216114,1.0013149243918475,20.0
M AE L,3,-9.945744988968746,nan,-9.945909864950542,-10.990684938388938,-9.536814119251268,nan,-9.551863627048576,-14.755517816455745,1.1849311721212732,nan,1.1847718877012914,1.0769230769230769,1.014742445124189,nan,1.0140106550263923,1.0013149243918475,25.0
M AE V,3,-11.385884606333349,nan,-11.385743090412753,-10.990684938388938,-11.230184520235802,nan,-11.246847407076675,-14.755517816455745,1.141409755002849,nan,1.1413151728764526,1.0769230769230769,1.0100467132772013,nan,1.0095726250787105,1.0013149243918475,14.0
M AE Z,3,-11.547695069630748,nan,-11.547483047406633,-10.990684938388938,-11.163504253454972,nan,-11.170780306354143,-14.755517816455745,1.1377447935612977,nan,1.1376556600490977,1.0769230769230769,1.0090159428717649,nan,1.008598423382878,1.0013149243918475,15.0
M EH K,3,-9.946105394496504,nan,-9.946292278715429,-10.990684938388938,-9.690470013826188,nan,-9.705324664761417,-14.755517816455745,1.1812651401844452,nan,1.1811114753860112,1.0769230769230769,1.0122202143689236,nan,1.0116250198179046,1.0013149243918475,21.0
M EH M,3,-10.330315717336346,nan,-10.330446701654848,-10.990684938388938,-10.525614683190383,nan,-10.54045240246276,-14.755517816455745,1.1746987509349986,nan,1.1745548482370003,1.0769230769230769,1.0103495569664651,nan,1.0098570241476899,1.0013149243918475,15.0
M IH M,3,-9.60449612963441,nan,-9.604721017964172,-10.990684938388938,-10.298629546745074,nan,-10.311987234076748,-14.755517816455745,1.2029277487867305,nan,1.2027424140957992,1.0769230769230769,1.014853560807287,nan,1.0141158476344319,1.0013149243918475,24.0
M IH P,3,-9.664814103764726,nan,-9.665028097772058,-10.990684938388938,-11.314889339531334,nan,-11.326535086198827,-14.755517816455745,1.1917801577353446,nan,1.1916113959125947,1.0769230769230769,1.014242733900362,nan,1.0135385429257904,1.0013149243918475,27.0
N AE L,3,-9.131665163849522,nan,-9.131927635828905,-10.990684938388938,-12.004538880938307,nan,-12.011865125292859,-14.755517816455745,1.1538600663665277,nan,1.1537463527458554,1.0769230769230769,1.008599151866736,nan,1.0082004318853073,1.0013149243918475,18.0
N EH N,3,-8.702156067097896,nan,-8.702482243411575,-10.990684938388938,-10.947610528793975,nan,-10.954973527173493,-14.755517816455745,1.1872635923437258,nan,1.1871003878822581,1.0769230769230769,1.0146702197862916,nan,1.013938269434527,1.0013149243918475,24.0
N IH N,3,-7.976336479395959,nan,-7.976756559720899,-10.990684938388938,-10.23479161145514,nan,-10.241778014055793,-14.755517816455745,1.2154925901954576,nan,1.2152879537410568,1.0769230769230769,1.010549576994511,nan,1.0100436426689328,1.0013149243918475,29.0
N IH S,3,-8.170326123862985,nan,-8.170729582919972,-10.990684938388938,-10.57159206214853,nan,-10.578959050946626,-14.755517816455745,1.2053375928678254,nan,1.205148053615261,1.0769230769230769,1.023644178811721,nan,1.0224196123604357,1.0013149243918475,19.0
P AE B,3,-11.033268779328981,nan,-11.033252184777549,-10.990684938388938,-12.502572066308066,nan,-12.511620859449133,-14.755517816455745,1.1681352380678502,nan,1.1680014243147714,1.0769230769230769,1.0074887446702177,nan,1.007153088343669,1.0013149243918475,21.0
P AE G,3,-11.627560746046306,nan,-11.627328513823647,-10.990684938388938,-11.93467371947759,nan,-11.952105764457535,-14.755517816455745,1.1603853716862362,nan,1.1602630794819273,1.0769230769230769,1.0077178047603146,nan,1.0073695776094096,1.0013149243918475,27.0
P AE JH,3,-11.896009928115337,nan,-11.895629518946103,-10.990684938388938,-11.695706457548768,nan,-11.711727994245193,-14.755517816455745,1.1533990389382787,nan,1.153287133154782,1.0769230769230769,1.0059998540845874,nan,1.0057459081163553,1.0013149243918475,15.0
P AE V,3,-11.446202580463666,nan,-11.446050170220639,-10.990684938388938,-11.357236428123922,nan,-11.37263937334672,-14.755517816455745,1.166417287392123,nan,1.1662860276769489,1.0769230769230769,1.0071069778533894,nan,1.006792272900768,1.0013149243918475,14.0
P AE Z,3,-11.608013043761066,nan,-11.607790127214521,-10.990684938388938,-11.290556161343094,nan,-11.29657227262419,-14.755517816455745,1.1627523259505714,nan,1.162626514849594,1.0769230769230769,1.006076207447953,nan,1.0058180712049354,1.0013149243918475,17.0
P EH L,3,-9.779729616416754,nan,-9.779929811275052,-10.990684938388938,-9.28904585957193,nan,-9.302979281684085,-14.755517816455745,1.2188709775290523,nan,1.2186619055305399,1.0769230769230769,1.0129891134285025,nan,1.0123514467427261,1.0013149243918475,31.0
P EH M,3,-10.390633691466663,nan,-10.390753781462735,-10.990684938388938,-10.111676118792417,nan,-10.127080769662358,-14.755517816455745,1.1997062833242726,nan,1.1995257030374968,1.0769230769230769,1.0099349788938763,nan,1.0094649231995185,1.0013149243918475,16.0
P EH S,3,-9.770543510814464,nan,-9.77074457554017,-10.990684938388938,-9.16315038153077,nan,-9.177490253824532,-14.755517816455745,1.2331872331601128,nan,1.232956877512395,1.0769230769230769,1.0112329860710925,nan,1.0106916957053818,1.0013149243918475,23.0
P IH M,3,-9.664814103764726,nan,-9.665028097772058,-10.990684938388938,-10.442365202196953,nan,-10.454946699909152,-14.755517816455745,1.2279352811760045,nan,1.2277132688962955,1.0769230769230769,1.0101047574303603,nan,1.0096245095008325,1.0013149243918475,25.0
R AE L,3,-9.428630036295193,nan,-9.428865663291344,-10.990684938388938,-9.510060161365027,nan,-9.523242952055572,-14.755517816455745,1.1908064357548978,nan,1.1906385343110466,1.0769230769230769,1.0106343533139905,nan,1.0101252910854213,1.0013149243918475,19.0
R EH L,3,-9.202296689612883,nan,-9.202578529807967,-10.990684938388938,-9.537462229389986,nan,-9.549258469776541,-14.755517816455745,1.199738708773403,nan,1.1995576973397988,1.0769230769230769,1.0166072493347325,nan,1.0157734186540401,1.0013149243918475,27.0
R EH M,3,-9.813200764662792,nan,-9.81340249999565,-10.990684938388938,-10.360092488610473,nan,-10.373359957754817,-14.755517816455745,1.1805740145686232,nan,1.1804214948467555,1.0769230769230769,1.0135531148001062,nan,1.0128868951108325,1.0013149243918475,22.0
R EH P,3,-9.87351873879311,nan,-9.873709579803537,-10.990684938388938,-11.463876523898627,nan,-11.474283204044276,-14.755517816455745,1.1694264235172374,nan,1.1692904766635512,1.0769230769230769,1.0115679273525993,nan,1.0110106548077475,1.0013149243918475,16.0
R EH S,3,-9.193110584010594,nan,-9.193393294073086,-10.990684938388938,-9.411566751348825,nan,-9.42376944191699,-14.755517816455745,1.2140549644044636,nan,1.2138526693216536,1.0769230769230769,1.0148511219773224,nan,1.0141136676166957,1.0013149243918475,25.0
R IH DH,3,-12.453450979996312,nan,-12.448858556147147,-10.990684938388938,-13.468401530513582,nan,-13.570376491405419,-14.755517816455745,1.1638690580796665,nan,1.1637419086451724,1.0769230769230769,1.012897901187824,nan,1.0122699140793918,1.0013149243918475,14.0
R IH N,3,-8.27330135184163,nan,-8.273694587183337,-10.990684938388938,-8.418498978793336,nan,-8.428284515875772,-14.755517816455745,1.2524389595838277,nan,1.252180135306248,1.0769230769230769,1.0208386509778524,nan,1.0197748752917317,1.0013149243918475,39.0
R IH S,3,-8.467290996308655,nan,-8.46766761038241,-10.990684938388938,-8.755299429486726,nan,-8.765465552766607,-14.755517816455745,1.2422839622561954,nan,1.2420402351804523,1.0769230769230769,1.0339332527950624,nan,1.0321508449832346,1.0013149243918475,28.0
R IH SH,3,-9.894768779749677,nan,-9.894846807724331,-10.990684938388938,-10.732393988724386,nan,-10.748872339179787,-14.755517816455745,1.1696337370137735,nan,1.1694980173631992,1.0769230769230769,1.0132414913229697,nan,1.0125946479780026,1.0013149243918475,20.0
R IH TH,3,-11.235365038193912,nan,-11.234335540926057,-10.990684938388938,-11.817393112867103,nan,-11.858571206856995,-14.755517816455745,1.167992139701412,nan,1.1678588605759466,1.0769230769230769,1.013165137959604,nan,1.0125224848894225,1.0013149243918475,19.0
R IH V,3,-9.916616719275547,nan,-9.916686071579502,-10.990684938388938,-9.601403696965459,nan,-9.621181786914722,-14.755517816455745,1.1844462895067107,nan,1.1842885483737584,1.0769230769230769,1.0159902124041331,nan,1.0151925191668896,1.0013149243918475,21.0
R IH Z,3,-10.078427182572948,nan,-10.078426028573382,-10.990684938388938,-9.128713299288808,nan,-9.151670100223686,-14.755517816455745,1.1807813280651593,nan,1.1806290355464035,1.0769230769230769,1.0164483325843272,nan,1.0156254976983707,1.0013149243918475,23.0
R IH ZH,3,-12.473964519829416,nan,-12.469267427778355,-10.990684938388938,-13.3196336551568,nan,-13.428757431759875,-14.755517816455745,1.1623419908123533,nan,1.1622171116337745,1.0769230769230769,1.012477957689313,nan,1.0118730170922008,1.0013149243918475,15.0
S AE N,3,-9.122479058247233,nan,-9.122742400094024,-10.990684938388938,-9.627970714486022,nan,-9.635993206694767,-14.755517816455745,1.261978502211632,nan,1.2617057256244437,1.0769230769230769,1.016476848909442,nan,1.0156470753724476,1.0013149243918475,28.0
S EH B,3,-10.126527277864156,nan,-10.126648765563724,-10.990684938388938,-14.030694153242742,nan,-14.005694864705214,-14.755517816455745,1.2046360558287479,nan,1.2044486983585285,1.0769230769230769,1.009317941963277,nan,1.008884023712368,1.0013149243918475,11.0
S EH CH,3,-11.485300573004299,nan,-11.484654178992416,-10.990684938388938,-12.245007206586951,nan,-12.256002862392466,-14.755517816455745,1.187723785843255,nan,1.1875615714572973,1.0769230769230769,1.00908888187318,nan,1.0086675344466274,1.0013149243918475,11.0
S EH DH,3,-13.076295339719604,nan,-13.07161923557446,-10.990684938388938,-13.071273789685602,nan,-13.172541825619515,-14.755517816455745,1.1823408737259762,nan,1.18218666199212,1.0769230769230769,1.0092415885999113,nan,1.008811860623788,1.0013149243918475,8.0
S EH G,3,-10.720819244581481,nan,-10.720725094609822,-10.990684938388938,-12.249459122044282,nan,-12.258771982262374,-14.755517816455745,1.1968861894471337,nan,1.1967103535256844,1.0769230769230769,1.010196005641982,nan,1.0097138992310402,1.0013149243918475,11.0
S EH M,3,-9.710225536684147,nan,-9.710437495732286,-10.990684938388938,-10.108834890188742,nan,-10.121586565183426,-14.755517816455745,1.227274828066665,nan,1.2270538140525018,1.0769230769230769,1.0133646702216568,nan,1.0127086674071182,1.0013149243918475,18.0
S EH NG,3,-11.031718530035961,nan,-11.031448913373833,-10.990684938388938,-11.633097836711148,nan,-11.607555312003552,-14.755517816455745,1.1910069804679781,nan,1.1908398850318027,1.0769230769230769,1.0090125285098144,nan,1.0085953713580473,1.0013149243918475,7.0
S EH P,3,-9.770543510814464,nan,-9.770744575540173,-10.990684938388938,-11.212618925476896,nan,-11.222509811472886,-14.755517816455745,1.2161272370152791,nan,1.2159227958692975,1.0769230769230769,1.0113794827741498,nan,1.0108324271040332,1.0013149243918475,16.0
S EH R,3,-9.193110584010594,nan,-9.193393294073086,-10.990684938388938,-10.162021664439397,nan,-10.173060345635317,-14.755517816455745,1.257014463097588,nan,1.2567492358494752,1.0769230769230769,1.0218017168735618,nan,1.0206826886952294,1.0013149243918475,29.0
S EH S,3,-9.090135356031949,nan,-9.090428289809722,-10.990684938388938,-9.160309152927095,nan,-9.171996049345601,-14.755517816455745,1.2607557779025051,nan,1.2604849885273999,1.0769230769230769,1.014662677398873,nan,1.0139354399129814,1.0013149243918475,20.0
S EH SH,3,-10.51761313947297,nan,-10.517607487151642,-10.990684938388938,-11.668031963226927,nan,-11.679539935775058,-14.755517816455745,1.1881055526600832,nan,1.1879427707101469,1.0769230769230769,1.0088216451014003,nan,1.0084149636365969,1.0013149243918475,7.0
S EH V,3,-10.53946107899884,nan,-10.539446751006814,-10.990684938388938,-10.658228965731183,nan,-10.67497520456221,-14.755517816455745,1.2029181051530204,nan,1.202733301720706,1.0769230769230769,1.0114558361375154,nan,1.0109045901926135,1.0013149243918475,11.0
S EH ZH,3,-13.096808879552707,nan,-13.092028107205666,-10.990684938388938,-13.349949929155759,nan,-13.44042828361914,-14.755517816455745,1.180813806458663,nan,1.1806618649807221,1.0769230769230769,1.008897998464766,nan,1.008487126725177,1.0013149243918475,5.0
S IH JH,3,-10.263448838948575,nan,-10.2633004160416,-10.990684938388938,-10.207659798285473,nan,-10.23273602891079,-14.755517816455745,1.218128854550908,nan,1.217921973057338,1.0769230769230769,1.0110628507028496,nan,1.010533746668126,1.0013149243918475,20.0
S IH M,3,-8.98440594898221,nan,-8.984711812041608,-10.990684938388938,-9.87193250659375,nan,-9.882956270150009,-14.755517816455745,1.2555038259183968,nan,1.2552413799113007,1.0769230769230769,1.0157204058681546,nan,1.0149356950715176,1.0013149243918475,29.0
S IH Z,3,-9.975451954594305,nan,-9.975461024310018,-10.990684938388938,-8.955963804195148,nan,-8.978464644174728,-14.755517816455745,1.227482141563201,nan,1.22726135475215,1.0769230769230769,1.0136970417389648,nan,1.0130233732241425,1.0013149243918475,20.0
SH AE N,3,-10.549956841688253,nan,-10.549921597435944,-10.990684938388938,-11.802031586560343,nan,-11.797523665493177,-14.755517816455745,1.167710650449053,nan,1.1675761329051024,1.0769230769230769,1.0134240467385605,nan,1.0127597865722766,1.0013149243918475,21.0
SH EH N,3,-10.323623495005943,nan,-10.323634463952569,-10.990684938388938,-11.762163724807134,nan,-11.758309875956279,-14.755517816455745,1.1766429234675584,nan,1.1764952959338546,1.0769230769230769,1.013464174484215,nan,1.0127976121307556,1.0013149243918475,23.0
SH IH S,3,-9.791793551771033,nan,-9.791881803460964,-10.990684938388938,-11.063094755568905,nan,-11.076359886968278,-14.755517816455745,1.194716923991658,nan,1.1945429616668575,1.0769230769230769,1.0230788450763726,nan,1.0218849292492929,1.0013149243918475,10.0
T AE L,3,-9.192983985725391,nan,-9.193241547946357,-10.990684938388938,-10.86166950628662,nan,-10.871882550893503,-14.755517816455745,1.1734066165322403,nan,1.1732642347360025,1.0769230769230769,1.0098805750001927,nan,1.0094123802705643,1.0013149243918475,24.0
T EH M,3,-9.57755471409299,nan,-9.577778384650664,-10.990684938388938,-11.338139831412319,nan,-11.34954532613007,-14.755517816455745,1.1631741953459658,nan,1.1630471952717114,1.0769230769230769,1.010010356725256,nan,1.0095362142810043,1.0013149243918475,21.0
T EH T,3,-8.824793710849633,nan,-8.825110067646479,-10.990684938388938,-10.550937234187712,nan,-10.559837770090546,-14.755517816455745,1.1792465783344366,nan,1.1790956838166737,1.0769230769230769,1.009819473316842,nan,1.0093558065595538,1.0013149243918475,30.0
T IH S,3,-8.231644945738854,nan,-8.232043495037423,-10.990684938388938,-9.048869308962976,nan,-9.058122598150554,-14.755517816455745,1.224884143033538,nan,1.2246659356054082,1.0769230769230769,1.0242848903784492,nan,1.0230255865530642,1.0013149243918475,19.0
TH AE N,3,-11.890553100132486,nan,-11.889410330637672,-10.990684938388938,-12.25177102002646,nan,-12.22104635381487,-14.755517816455745,1.1630029071528796,nan,1.162875294275491,1.0769230769230769,1.0126325795090727,nan,1.0120112302166766,1.0013149243918475,14.0
TH IH S,3,-11.132389810215267,nan,-11.131370536662693,-10.990684938388938,-11.420460868904005,nan,-11.460460161124141,-14.755517816455745,1.1900091806954842,nan,1.189842123037246,1.0769230769230769,1.0225512002567139,nan,1.021385891678893,1.0013149243918475,9.0
V AE S,3,-10.76579442568115,nan,-10.765733884490189,-10.990684938388938,-11.329313674579712,nan,-11.344639981310413,-14.755517816455745,1.1627530017203964,nan,1.1626259586263978,1.0769230769230769,1.0077641425296433,nan,1.0074109979463977,1.0013149243918475,14.0
V EH L,3,-10.54864718460113,nan,-10.548631986741693,-10.990684938388938,-10.88615937058595,nan,-10.903414789932315,-14.755517816455745,1.1573690191078412,nan,1.157250149673295,1.0769230769230769,1.0104639560772795,nan,1.009963195512955,1.0013149243918475,16.0
V EH R,3,-10.642436306977483,nan,-10.642411755270178,-10.990684938388938,-11.761976404057092,nan,-11.77899005836248,-14.755517816455745,1.1679439599339845,nan,1.167809368977225,1.0769230769230769,1.0158468681945583,nan,1.0150506932578585,1.0013149243918475,18.0
V EH S,3,-10.53946107899884,nan,-10.539446751006814,-10.990684938388938,-10.760263892544792,nan,-10.777925762072764,-14.755517816455745,1.1716852747389017,nan,1.17154512165515,1.0769230769230769,1.0087078287198694,nan,1.0083034444756107,1.0013149243918475,15.0
V IH L,3,-9.822827596899192,nan,-9.822906303051017,-10.990684938388938,-10.798240221537185,nan,-10.814670425374825,-14.755517816455745,1.185598016959573,nan,1.1854377155320936,1.0769230769230769,1.0132073117325209,nan,1.0125562706628222,1.0013149243918475,21.0
V IH N,3,-9.619651846829877,nan,-9.619748044117063,-10.990684938388938,-9.82412466842518,nan,-9.840952112486203,-14.755517816455745,1.2100692699182658,nan,1.2098725876397445,1.0769230769230769,1.0116802444652078,nan,1.0111130088912184,1.0013149243918475,21.0
V IH S,3,-9.813641491296902,nan,-9.813721067316138,-10.990684938388938,-10.16092511911857,nan,-10.178133149377038,-14.755517816455745,1.1999142725906335,nan,1.1997326875139487,1.0769230769230769,1.0247748462824178,nan,1.0234889785827213,1.0013149243918475,12.0
W AE N,3,-10.99734966345384,nan,-10.99709282999081,-10.990684938388938,-10.819959869232699,nan,-10.819827260568754,-14.755517816455745,1.1793858538235635,nan,1.1792342127065392,1.0769230769230769,1.012858713003212,nan,1.0122251034611338,1.0013149243918475,22.0
W IH S,3,-10.239186373536619,nan,-10.239053036015832,-10.990684938388938,-9.209980364112138,nan,-9.236882155838073,-14.755517816455745,1.2063921273661682,nan,1.2062010414682942,1.0769230769230769,1.026546225319843,nan,1.0251643189976354,1.0013149243918475,26.0
Y AE N,3,-11.3101341845673,nan,-11.309651807197996,-10.990684938388938,-12.676124713364246,nan,-12.611480203371148,-14.755517816455745,1.1648483425249796,nan,1.1647180230182987,1.0769230769230769,1.0125948905933828,nan,1.0119755846759337,1.0013149243918475,21.0
Y IH S,3,-10.551970894650081,nan,-10.551612013223018,-10.990684938388938,-13.572035510332276,nan,-13.490184886264197,-14.755517816455745,1.1918546160675842,nan,1.1916848517800538,1.0769230769230769,1.0219858665213655,nan,1.0208512085677501,1.0013149243918475,10.0
Z AE N,3,-10.733615244511526,nan,-10.733500818284996,-10.990684938388938,-13.36691174696896,nan,-13.347778793807095,-14.755517816455745,1.158973078891355,nan,1.1588513764085435,1.0769230769230769,1.0124441349306232,nan,1.0118330025129625,1.0013149243918475,14.0
Z IH S,3,-9.975451954594305,nan,-9.975461024310018,-10.990684938388938,-12.522356369096487,nan,-12.524672244135031,-14.755517816455745,1.1859793524339597,nan,1.1858182051702986,1.0769230769230769,1.022136622184125,nan,1.0209937907307216,1.0013149243918475,8.0
B AO CH,3,-13.47081854647399,nan,-13.469712638187069,-10.990684938388938,-15.09165332250706,nan,-14.742649177853203,-14.755517816455745,1.095235281842592,nan,1.095208758458195,1.0769230769230769,1.0017718668034181,nan,1.0017475035034944,1.0013149243918475,13.0
B AO TH,3,-13.843727371386896,nan,-13.84215467954802,-10.990684938388938,-12.407322822799612,nan,-12.436594025167567,-14.755517816455745,1.0939754513470585,nan,1.0939508009237917,1.0769230769230769,1.0018482201667838,nan,1.0018196665920744,1.0013149243918475,12.0
B AW JH,3,-14.15567708604401,nan,-14.153915057931265,-10.990684938388938,-15.42072647162485,nan,-14.797859762827676,-14.755517816455745,1.0732150688256001,nan,1.0732208234633238,1.0769230769230769,1.0008296439111706,nan,1.000856364984923,1.0013149243918475,7.0
CH AO B,3,-13.47081854647399,nan,-13.469712638187067,-10.990684938388938,-19.051856767954895,nan,-18.79990899296943,-14.755517816455745,1.067367497594882,nan,1.0673815083145615,1.0769230769230769,1.0004179924345393,nan,1.000466880058035,1.0013149243918475,4.0
CH AO CH,3,-14.829591841614132,nan,-14.827718051615761,-10.990684938388938,-19.08011720550252,nan,-18.5418718674344,-14.755517816455745,1.050455227609389,nan,1.0504943814133303,1.0769230769230769,1.0001889323444424,nan,1.0002503907922944,1.0013149243918475,4.0
CH AO D,3,-12.986763163772602,nan,-12.985759205669204,-10.990684938388938,-15.65100894347612,nan,-15.464825646242689,-14.755517816455745,1.079584035733387,nan,1.0795798844057443,1.0769230769230769,1.0006088758429534,nan,1.0006472877794854,1.0013149243918475,6.0
CH AO G,3,-14.065110513191314,nan,-14.063788967233165,-10.990684938388938,-16.86062147348288,nan,-16.685261330401275,-14.755517816455745,1.059617631213268,nan,1.0596431634817174,1.0769230769230769,1.000952465978099,nan,1.0009720216780964,1.0013149243918475,9.0
CH AO NG,3,-14.376009798645795,nan,-14.374512785997176,-10.990684938388938,-14.577663861875699,nan,-14.416719382875183,-14.755517816455745,1.0537384222341124,nan,1.0537726949878357,1.0769230769230769,1.0012578794315616,nan,1.001260674032417,1.0013149243918475,9.0
CH AO SH,3,-13.861904408082804,nan,-13.860671359774987,-10.990684938388938,-18.121528069856517,nan,-17.870098761012667,-14.755517816455745,1.0508369944262173,nan,1.0508755806661796,1.0769230769230769,1.0004179924345393,nan,1.000466880058035,1.0013149243918475,3.0
CH AO TH,3,-15.202500666527037,nan,-15.200160092976713,-10.990684938388938,-16.395786705795075,nan,-16.235816714748765,-14.755517816455745,1.0491953971138557,nan,1.049236423878927,1.0769230769230769,1.000265285707808,nan,1.0003225538808747,1.0013149243918475,3.0
CH AO Z,3,-14.045562810906073,nan,-14.044250580624038,-10.990684938388938,-15.858212631332531,nan,-15.661858747886043,-14.755517816455745,1.061984585477603,nan,1.062006598849384,1.0769230769230769,1.000685229206319,nan,1.0007194508680657,1.0013149243918475,8.0
CH UW DH,3,-16.48666211946548,nan,-16.480726520514793,-10.990684938388938,-15.261459747629953,nan,-15.28820099229679,-14.755517816455745,1.0342555966891103,nan,1.034318628955529,1.0769230769230769,1.0002275967921181,nan,1.0002869083401318,1.0013149243918475,3.0
CH UW SH,3,-13.927979919218846,nan,-13.926714772091977,-10.990684938388938,-13.084251333869625,nan,-13.125174339313242,-14.755517816455745,1.0400202756232173,nan,1.040074737673556,1.0769230769230769,1.000265773473801,nan,1.000322989884422,1.0013149243918475,5.0
CH UW TH,3,-15.268576177663078,nan,-15.266203505293706,-10.990684938388938,-12.914222482886121,nan,-12.97570563801034,-14.755517816455745,1.0383786783108557,nan,1.0384355808863033,1.0769230769230769,1.0007620703356777,nan,1.0007920499601932,1.0013149243918475,5.0
CH UW V,3,-13.949827858744715,nan,-13.948554035947149,-10.990684938388938,-12.694264243848277,nan,-12.731764507383982,-14.755517816455745,1.0548328281161545,nan,1.0548652686841151,1.0769230769230769,1.000685716972312,nan,1.000719886871613,1.0013149243918475,5.0
CH UW ZH,3,-16.507175659298582,nan,-16.501135392146,-10.990684938388938,-13.560412373679021,nan,-13.713034686680809,-14.755517816455745,1.0327285294217972,nan,1.0327938319441312,1.0769230769230769,1.0003421268371666,nan,1.0003951529730022,1.0013149243918475,3.0
D AO TH,3,-13.359671988685509,nan,-13.358201247030156,-10.990684938388938,-13.233581557089177,nan,-13.253479408911428,-14.755517816455745,1.1037675574030994,nan,1.1037285452733838,1.0769230769230769,1.0016597755883343,nan,1.00164143888836,1.0013149243918475,9.0
F AW JH,3,-14.334761793019224,nan,-14.332947661572128,-10.990684938388938,-16.075469550063794,nan,-15.43054544235464,-14.755517816455745,1.0685073255294266,nan,1.0685199848337124,1.0769230769230769,1.0004527547542716,nan,1.0004999095774945,1.0013149243918475,3.0
F UW DH,3,-15.30697353130055,nan,-15.301753710726965,-10.990684938388938,-16.675578061260065,nan,-16.614123958294982,-14.755517816455745,1.0743279076261396,nan,1.0743321673707822,1.0769230769230769,1.0004914192019474,nan,1.0005364271253319,1.0013149243918475,4.0
F UW SH,3,-12.748291331053917,nan,-12.747741962304147,-10.990684938388938,-14.498369647499734,nan,-14.451097305311434,-14.755517816455745,1.0800925865602466,nan,1.080088276088809,1.0769230769230769,1.0005295958836302,nan,1.0005725086696218,1.0013149243918475,7.0
F UW TH,3,-14.08888758949815,nan,-14.087230695505877,-10.990684938388938,-14.328340796516231,nan,-14.301628604008533,-14.755517816455745,1.0784509892478849,nan,1.0784491193015564,1.0769230769230769,1.0010258927455071,nan,1.001041568745393,1.0013149243918475,9.0
F UW V,3,-12.770139270579786,nan,-12.76958122615932,-10.990684938388938,-14.108382557478388,nan,-14.057687473382174,-14.755517816455745,1.0949051390531839,nan,1.0948788070993685,1.0769230769230769,1.0009495393821415,nan,1.0009694056568128,1.0013149243918475,7.0
F UW ZH,3,-15.327487071133653,nan,-15.322162582358171,-10.990684938388938,-14.97453068730913,nan,-15.038957652679004,-14.755517816455745,1.0728008403588265,nan,1.0728073703593843,1.0769230769230769,1.0006059492469959,nan,1.000644671758202,1.0013149243918475,4.0
G AO B,3,-12.706337218051171,nan,-12.705783553804471,-10.990684938388938,-16.38203155610828,nan,-16.307873939456872,-14.755517816455745,1.0859724991013597,nan,1.0859592225787862,1.0769230769230769,1.0010210150855776,nan,1.0010372087099206,1.0013149243918475,10.0
G AO CH,3,-14.065110513191314,nan,-14.063788967233165,-10.990684938388938,-16.410291993655907,nan,-16.04983681392184,-14.755517816455745,1.0690602291158668,nan,1.069072095677555,1.0769230769230769,1.0007919549954807,nan,1.00082071944418,1.0013149243918475,7.0
G AO TH,3,-14.438019338104219,nan,-14.436231008594117,-10.990684938388938,-13.725961493948457,nan,-13.743781661236206,-14.755517816455745,1.0678003986203337,nan,1.0678141381431516,1.0769230769230769,1.0008683083588463,nan,1.0008928825327603,1.0013149243918475,9.0
G AW CH,3,-15.24600119911512,nan,-15.2436194662375,-10.990684938388938,-15.31641268472173,nan,-15.188481214044408,-14.755517816455745,1.044863945242954,nan,1.0449113249414417,1.0769230769230769,1.0003411513051808,nan,1.0003942809659077,1.0013149243918475,8.0
G AW D,3,-13.403172521273591,nan,-13.401660620290944,-10.990684938388938,-13.879734587385531,nan,-13.77731421619175,-14.755517816455745,1.0739927533669518,nan,1.0739968279338559,1.0769230769230769,1.0006847414403262,nan,1.0007190148645184,1.0013149243918475,13.0
G AW R,3,-12.953811210121415,nan,-12.952358581318173,-10.990684938388938,-16.33930158488782,nan,-16.201116305810967,-14.755517816455745,1.114154622497287,nan,1.1140989893336195,1.0769230769230769,1.0004556813502292,nan,1.0005025255987778,1.0013149243918475,9.0
G AW TH,3,-15.618910024028025,nan,-15.616061507598456,-10.990684938388938,-14.942966080823021,nan,-14.839265280946275,-14.755517816455745,1.0436041147474207,nan,1.0436533674070385,1.0769230769230769,1.0006465647586433,nan,1.0006829333202283,1.0013149243918475,7.0
G AW Z,3,-14.461972168407062,nan,-14.46015199524578,-10.990684938388938,-13.953406882617422,nan,-13.841365929807818,-14.755517816455745,1.056393303111168,nan,1.0564235423774957,1.0769230769230769,1.0005702113952777,nan,1.0006107702316482,1.0013149243918475,9.0
G UW DH,3,-15.72218079104266,nan,-15.7167974361322,-10.990684938388938,-16.784530771733934,nan,-16.733986637033517,-14.755517816455745,1.052860598195588,nan,1.0528963432197538,1.0769230769230769,1.0005667970333272,nan,1.0006077182068174,1.0013149243918475,7.0
G UW SH,3,-13.163498590796028,nan,-13.162785687709384,-10.990684938388938,-14.607322357973606,nan,-14.570959984049969,-14.755517816455745,1.0586252771296951,nan,1.0586524519377807,1.0769230769230769,1.00060497371501,nan,1.0006437997511075,1.0013149243918475,13.0
G UW TH,3,-14.50409484924026,nan,-14.50227442091111,-10.990684938388938,-14.437293506990102,nan,-14.421491282747068,-14.755517816455745,1.0569836798173335,nan,1.057013295150528,1.0769230769230769,1.001101270576887,nan,1.0011128598268788,1.0013149243918475,11.0
G UW V,3,-13.185346530321898,nan,-13.184624951564555,-10.990684938388938,-14.217335267952258,nan,-14.177550152120709,-14.755517816455745,1.0734378296226326,nan,1.0734429829483398,1.0769230769230769,1.0010249172135213,nan,1.0010406967382985,1.0013149243918475,11.0
G UW ZH,3,-15.742694330875764,nan,-15.737206307763408,-10.990684938388938,-15.083483397783002,nan,-15.15882033141754,-14.755517816455745,1.051333530928275,nan,1.051371546208356,1.0769230769230769,1.0006813270783756,nan,1.0007159628396878,1.0013149243918475,7.0
HH UW DH,3,-16.1530007434863,nan,-16.147358269831173,-10.990684938388938,-15.343678535384445,nan,-15.334975056658113,-14.755517816455745,1.0654020263365944,nan,1.0654193773290388,1.0769230769230769,1.000981375105916,nan,1.000999819154989,1.0013149243918475,13.0
HH UW SH,3,-13.594318543239666,nan,-13.593346521408357,-10.990684938388938,-13.166470121624114,nan,-13.171948403674564,-14.755517816455745,1.0711667052707015,nan,1.0711754860470657,1.0769230769230769,1.0010195517875988,nan,1.001035900699279,1.0013149243918475,18.0
HH UW ZH,3,-16.173514283319403,nan,-16.16776714146238,-10.990684938388938,-13.64263116143351,nan,-13.759808751042135,-14.755517816455745,1.0638749590692813,nan,1.063894580317641,1.0769230769230769,1.0010959051509645,nan,1.001108063787859,1.0013149243918475,13.0
JH AO B,3,-12.974786400120204,nan,-12.974084558926927,-10.990684938388938,-17.4305007952898,nan,-17.33423476170827,-14.755517816455745,1.0738076904240474,nan,1.0738122555598701,1.0769230769230769,1.0008325705071281,nan,1.0008589810062065,1.0013149243918475,10.0
JH AW,2,-10.30849666073046,nan,-10.306779199759719,-7.327123292259293,-13.492116891555234,nan,-13.258605023383726,-11.06663836234181,1.0242239132320536,nan,1.0242636145839825,1.0512820512820513,1.0001130667470697,nan,1.0001425821629715,1.0006574621959237,21.0
JH AW CH,3,-15.514450381184151,nan,-15.511920471359957,-10.990684938388938,-16.364881923903248,nan,-16.10797889075344,-14.755517816455745,1.0326991365656415,nan,1.0327643579225256,1.0769230769230769,1.000265773473801,nan,1.000322989884422,1.0013149243918475,4.0
JH AW D,3,-13.671621703342623,nan,-13.6699616254134,-10.990684938388938,-14.92820382656705,nan,-14.696811892900783,-14.755517816455745,1.0618279446896395,nan,1.0618498609149398,1.0769230769230769,1.0006093636089464,nan,1.0006477237830327,1.0013149243918475,5.0
JH AW JH,3,-15.018418234830365,nan,-15.01629239209982,-10.990684938388938,-18.55976244036827,nan,-17.68403097359216,-14.755517816455745,1.0348752074215628,nan,1.0349371936637675,1.0769230769230769,1.0001512434287525,nan,1.0002147452515515,1.0013149243918475,3.0
JH AW R,3,-13.222260392190446,nan,-13.220659586440629,-10.990684938388938,-17.38777082406934,nan,-17.12061398252,-14.755517816455745,1.1019898138199746,nan,1.1019520223147035,1.0769230769230769,1.0003803035188494,nan,1.000431234517292,1.0013149243918475,7.0
JH AW Z,3,-14.730421350476096,nan,-14.728453000368237,-10.990684938388938,-15.00187612179894,nan,-14.76086360651685,-14.755517816455745,1.0442284944338556,nan,1.0442765753585794,1.0769230769230769,1.000494833563898,nan,1.0005394791501625,1.0013149243918475,6.0
JH UW DH,3,-15.990629973111691,nan,-15.985098441254657,-10.990684938388938,-15.422201333281173,nan,-15.43247087444232,-14.755517816455745,1.0406957895182758,nan,1.0407493762008375,1.0769230769230769,1.0016597755883343,nan,1.00164143888836,1.0013149243918475,6.0
JH UW SH,3,-13.431947772865058,nan,-13.43108669283184,-10.990684938388938,-13.244992919520845,nan,-13.269444221458771,-14.755517816455745,1.0464604684523828,nan,1.0465054849188644,1.0769230769230769,1.0016979522700171,nan,1.0016775204326502,1.0013149243918475,10.0
L AW CH,3,-13.62450341616788,nan,-13.622507897172284,-10.990684938388938,-14.738294116889282,nan,-14.727945481899113,-14.755517816455745,1.0494963646463886,nan,1.0495369501529794,1.0769230769230769,1.0005295958836302,nan,1.0005725086696218,1.0013149243918475,12.0
L AW JH,3,-13.128471269814092,nan,-13.126879817912144,-10.990684938388938,-16.933174633354305,nan,-16.303997564737834,-14.755517816455745,1.05167243550231,nan,1.0517097858942215,1.0769230769230769,1.0004150658385818,nan,1.0004642640367516,1.0013149243918475,11.0
L AW TH,3,-13.997412241080784,nan,-13.994949938533235,-10.990684938388938,-14.364847512990574,nan,-14.378729548800981,-14.755517816455745,1.0482365341508555,nan,1.0482789926185763,1.0769230769230769,1.0008350093370928,nan,1.0008611610239426,1.0013149243918475,9.0
M UW DH,3,-14.711587083145329,nan,-14.706509837254664,-10.990684938388938,-16.182817124769215,nan,-16.16172491958755,-14.755517816455745,1.07922396065416,nan,1.0792210395455784,1.0769230769230769,1.0009059972745362,nan,1.0009285280735032,1.0013149243918475,8.0
M UW SH,3,-12.152904882898694,nan,-12.152498088831848,-10.990684938388938,-14.005608711008884,nan,-13.998698266604,-14.755517816455745,1.084988639588267,nan,1.0849771482636053,1.0769230769230769,1.000944173956219,nan,1.0009646096177933,1.0013149243918475,12.0
M UW ZH,3,-14.732100622978432,nan,-14.726918708885872,-10.990684938388938,-14.48176975081828,nan,-14.58655861397157,-14.755517816455745,1.077696893386847,nan,1.0776962425341803,1.0769230769230769,1.0010205273195847,nan,1.0010367727063734,1.0013149243918475,7.0
N AO B,3,-10.881663685034614,nan,-10.8815137258053,-10.990684938388938,-17.631475651569765,nan,-17.55568952284024,-14.755517816455745,1.0812647558051862,nan,1.0812583839491747,1.0769230769230769,1.0017371044836858,nan,1.001714473984035,1.0013149243918475,9.0
N AO D,3,-10.397608302333229,nan,-10.397560293287437,-10.990684938388938,-14.23062782709099,nan,-14.220606176113497,-14.755517816455745,1.0934812939436913,nan,1.0934567600403575,1.0769230769230769,1.0019279878921,nan,1.0018948817054854,1.0013149243918475,9.0
N AO NG,3,-11.78685493720642,nan,-11.78631387361541,-10.990684938388938,-13.15728274549057,nan,-13.172499912745991,-14.755517816455745,1.0676356804444167,nan,1.067649570622449,1.0769230769230769,1.002576991480708,nan,1.002508267958417,1.0013149243918475,11.0
N AO TH,3,-12.613345805087661,nan,-12.611961180594946,-10.990684938388938,-14.975405589409943,nan,-14.991597244619573,-14.755517816455745,1.06309265532416,nan,1.0631132995135402,1.0769230769230769,1.0015843977569545,nan,1.0015701478068746,1.0013149243918475,5.0
N AW CH,3,-13.421327666098563,nan,-13.41934963823833,-10.990684938388938,-16.13507386409076,nan,-16.096214448582458,-14.755517816455745,1.0401562019467805,nan,1.0402104863118302,1.0769230769230769,1.000265773473801,nan,1.000322989884422,1.0013149243918475,7.0
N AW D,3,-11.578498988257033,nan,-11.577390792291773,-10.990684938388938,-14.698395766754563,nan,-14.685047450729801,-14.755517816455745,1.0692850100707783,nan,1.0692959893042444,1.0769230769230769,1.0006093636089464,nan,1.0006477237830327,1.0013149243918475,9.0
N AW JH,3,-12.925295519744775,nan,-12.92372155897819,-10.990684938388938,-18.329954380555783,nan,-17.67226653142118,-14.755517816455745,1.0423322728027016,nan,1.0423833220530723,1.0769230769230769,1.0001512434287525,nan,1.0002147452515515,1.0013149243918475,4.0
N AW TH,3,-13.794236491011468,nan,-13.791791679599282,-10.990684938388938,-15.761627260192054,nan,-15.746998515484327,-14.755517816455745,1.0388963714512471,nan,1.038952528777427,1.0769230769230769,1.0005711869272635,nan,1.0006116422387425,1.0013149243918475,4.0
P AW JH,3,-13.799693318994319,nan,-13.798010867907713,-10.990684938388938,-15.50465515660297,nan,-14.876021539850386,-14.755517816455745,1.0984109109467208,nan,1.0983797118090046,1.0769230769230769,1.0007919549954807,nan,1.00082071944418,1.0013149243918475,7.0
P UW DH,3,-14.771905057275646,nan,-14.76681691706255,-10.990684938388938,-16.03065569564552,nan,-16.000657520157276,-14.755517816455745,1.1042314930434338,nan,1.1041918943460747,1.0769230769230769,1.0004537302862575,nan,1.000500781584589,1.0013149243918475,6.0
P UW SH,3,-12.213222857029011,nan,-12.212805168639733,-10.990684938388938,-13.85344728188519,nan,-13.837630867173727,-14.755517816455745,1.1099961719775409,nan,1.1099480030641016,1.0769230769230769,1.0004919069679403,nan,1.000536863128879,1.0013149243918475,10.0
P UW ZH,3,-14.79241859710875,nan,-14.787225788693757,-10.990684938388938,-14.329608321694586,nan,-14.425491214541298,-14.755517816455745,1.1027044257761207,nan,1.1026670973346768,1.0769230769230769,1.000568260331306,nan,1.0006090262174592,1.0013149243918475,6.0
R AO CH,3,-12.537401852620427,nan,-12.536457166696431,-10.990684938388938,-15.907385196901743,nan,-15.552118979402339,-14.755517816455745,1.1012988552080634,nan,1.1012634386131346,1.0769230769230769,1.000641199332721,nan,1.0006781372812088,1.0013149243918475,7.0
R AO SH,3,-11.569714419089099,nan,-11.569410474855657,-10.990684938388938,-14.948796061255733,nan,-14.880345872980607,-14.755517816455745,1.1016806220248916,nan,1.101644637865984,1.0769230769230769,1.000870259422818,nan,1.0008946265469492,1.0013149243918475,6.0
R AW JH,3,-13.222260392190446,nan,-13.220659586440629,-10.990684938388938,-15.71132317704064,nan,-15.091355924093422,-14.755517816455745,1.0792786421910716,nan,1.0792755036182635,1.0769230769230769,1.0006035104170312,nan,1.000642491740466,1.0013149243918475,7.0
SH AO B,3,-12.503131112942661,nan,-12.502665946346292,-10.990684938388938,-17.715475061719683,nan,-17.628126025702294,-14.755517816455745,1.0706440869290188,nan,1.0706532920007712,1.0769230769230769,1.0010587040012675,nan,1.0010728542506635,1.0013149243918475,6.0
SH AO CH,3,-13.861904408082804,nan,-13.860671359774987,-10.990684938388938,-17.74373549926731,nan,-17.37008890016726,-14.755517816455745,1.053731816943526,nan,1.0537661650995398,1.0769230769230769,1.0008296439111706,nan,1.000856364984923,1.0013149243918475,5.0
SH AO D,3,-12.019075730241275,nan,-12.01871251382843,-10.990684938388938,-14.314627237240908,nan,-14.293042678975551,-14.755517816455745,1.0828606250675237,nan,1.082851668091954,1.0769230769230769,1.0012495874096818,nan,1.001253261972114,1.0013149243918475,12.0
SH AO G,3,-13.097423079659986,nan,-13.09674227539239,-10.990684938388938,-15.52423976724767,nan,-15.513478363134137,-14.755517816455745,1.0628942205474046,nan,1.062914947167927,1.0769230769230769,1.0015931775448272,nan,1.001577995870725,1.0013149243918475,11.0
SH AO NG,3,-13.408322365114467,nan,-13.407466094156401,-10.990684938388938,-13.241282155640487,nan,-13.244936415608045,-14.755517816455745,1.057015011568249,nan,1.0570444786740452,1.0769230769230769,1.0018985909982898,nan,1.0018666482250456,1.0013149243918475,11.0
SH AO SH,3,-12.894216974551476,nan,-12.893624667934212,-10.990684938388938,-16.7851463636213,nan,-16.69831579374553,-14.755517816455745,1.0541135837603541,nan,1.0541473643523893,1.0769230769230769,1.0010587040012675,nan,1.0010728542506635,1.0013149243918475,5.0
SH AO TH,3,-14.234813232995709,nan,-14.233113401135938,-10.990684938388938,-15.059404999559861,nan,-15.064033747481627,-14.755517816455745,1.0524719864479926,nan,1.0525082075651366,1.0769230769230769,1.0009059972745362,nan,1.0009285280735032,1.0013149243918475,6.0
SH AO Z,3,-13.077875377374745,nan,-13.077203888783263,-10.990684938388938,-14.52183092509732,nan,-14.490075780618906,-14.755517816455745,1.06526117481174,nan,1.0652783825355936,1.0769230769230769,1.0013259407730475,nan,1.0013254250606942,1.0013149243918475,10.0
SH AW CH,3,-15.04279509400661,nan,-15.040501858779322,-10.990684938388938,-16.804006870160393,nan,-16.601583454253287,-14.755517816455745,1.0295355330706129,nan,1.0296053943634267,1.0769230769230769,1.000265773473801,nan,1.000322989884422,1.0013149243918475,5.0
SH AW D,3,-13.199966416165081,nan,-13.198543012832765,-10.990684938388938,-15.367328772824195,nan,-15.19041645640063,-14.755517816455745,1.0586643411946108,nan,1.0586908973558409,1.0769230769230769,1.0006093636089464,nan,1.0006477237830327,1.0013149243918475,12.0
SH AW JH,3,-14.546762947652823,nan,-14.544873779519182,-10.990684938388938,-18.998887386625416,nan,-18.17763553709201,-14.755517816455745,1.0317116039265342,nan,1.0317782301046685,1.0769230769230769,1.0001512434287525,nan,1.0002147452515515,1.0013149243918475,3.0
SH AW L,3,-12.65681598263655,nan,-12.655461205331507,-10.990684938388938,-15.873914133312553,nan,-15.680737797869517,-14.755517816455745,1.0882512694988025,nan,1.0882338394516742,1.0769230769230769,1.0006475402906292,nan,1.0006838053273228,1.0013149243918475,13.0
SH AW TH,3,-15.415703918919515,nan,-15.412943900140274,-10.990684938388938,-16.430560266261686,nan,-16.252367521155154,-14.755517816455745,1.0282757025750795,nan,1.0283474368290235,1.0769230769230769,1.0005711869272635,nan,1.0006116422387425,1.0013149243918475,5.0
SH AW Z,3,-14.258766063298552,nan,-14.257034387787598,-10.990684938388938,-15.441001068056085,nan,-15.254468170016697,-14.755517816455745,1.041064890938827,nan,1.0411176117994805,1.0769230769230769,1.000494833563898,nan,1.0005394791501625,1.0013149243918475,7.0
SH UW DH,3,-15.51897468593415,nan,-15.51367982867402,-10.990684938388938,-16.894799266035466,nan,-16.881080681997013,-14.755517816455745,1.0375321860232471,nan,1.0375904126417386,1.0769230769230769,1.0005291081176373,nan,1.0005720726660747,1.0013149243918475,4.0
SH UW TH,3,-14.30088874413175,nan,-14.299156813452932,-10.990684938388938,-14.547562001291634,nan,-14.568585327710561,-14.755517816455745,1.0416552676449924,nan,1.0417073645725128,1.0769230769230769,1.001063581661197,nan,1.001077214286136,1.0013149243918475,6.0
SH UW V,3,-12.982140425213387,nan,-12.981507344106374,-10.990684938388938,-14.32760376225379,nan,-14.324644197084204,-14.755517816455745,1.0581094174502914,nan,1.0581370523703246,1.0769230769230769,1.0009872282978314,nan,1.0010050511975557,1.0013149243918475,7.0
SH UW ZH,3,-15.539488225767254,nan,-15.534088700305226,-10.990684938388938,-15.193751892084535,nan,-15.30591437638103,-14.755517816455745,1.036005118755934,nan,1.0360656156303407,1.0769230769230769,1.0006436381626858,nan,1.000680317298945,1.0013149243918475,3.0
T AW CH,3,-13.482646487974431,nan,-13.480663550355782,-10.990684938388938,-15.287449334272555,nan,-15.255849018415162,-14.755517816455745,1.0597027521124929,nan,1.0597283683019774,1.0769230769230769,1.00060497371501,nan,1.0006437997511075,1.0013149243918475,10.0
T AW JH,3,-12.986614341620644,nan,-12.985035471095642,-10.990684938388938,-17.482329850737578,nan,-16.831901101253884,-14.755517816455745,1.0618788229684142,nan,1.0619012040432192,1.0769230769230769,1.0004904436699615,nan,1.0005355551182373,1.0013149243918475,6.0
TH AO B,3,-13.843727371386896,nan,-13.84215467954802,-10.990684938388938,-17.095589743390942,nan,-17.042615930451216,-14.755517816455745,1.0659363436328453,nan,1.0659524533711595,1.0769230769230769,1.0006818148443686,nan,1.000716398843235,1.0013149243918475,5.0
TH AO CH,3,-15.202500666527037,nan,-15.200160092976713,-10.990684938388938,-17.123850180938568,nan,-16.784578804916183,-14.755517816455745,1.0490240736473524,nan,1.0490653264699283,1.0769230769230769,1.0004527547542716,nan,1.0004999095774945,1.0013149243918475,5.0
TH AO G,3,-14.438019338104219,nan,-14.436231008594119,-10.990684938388938,-14.904354448918928,nan,-14.92796826788306,-14.755517816455745,1.058186477251231,nan,1.0582141085383154,1.0769230769230769,1.0012162883879283,nan,1.0012215404632963,1.0013149243918475,10.0
TH AO SH,3,-14.234813232995709,nan,-14.233113401135938,-10.990684938388938,-16.16526104529256,nan,-16.112805698494455,-14.755517816455745,1.0494058404641806,nan,1.0494465257227779,1.0769230769230769,1.0006818148443686,nan,1.000716398843235,1.0013149243918475,4.0
TH AO TH,3,-15.575409491439943,nan,-15.572602134337668,-10.990684938388938,-14.43951968123112,nan,-14.47852365223055,-14.755517816455745,1.047764243151819,nan,1.0478073689355252,1.0769230769230769,1.0005291081176373,nan,1.0005720726660747,1.0013149243918475,4.0
V AW JH,3,-14.568610887178693,nan,-14.566713043374355,-10.990684938388938,-17.6703913901092,nan,-16.9784296989055,-14.755517816455745,1.0369089525255097,nan,1.0369679559517597,1.0769230769230769,1.0001512434287525,nan,1.0002147452515515,1.0013149243918475,3.0
V AW R,3,-12.772453044538775,nan,-12.771080237715164,-10.990684938388938,-16.498399773810267,nan,-16.415012707833338,-14.755517816455745,1.1040235589239216,nan,1.1039827846026955,1.0769230769230769,1.0003803035188494,nan,1.000431234517292,1.0013149243918475,6.0
V AW TH,3,-15.437551858445385,nan,-15.434783163995448,-10.990684938388938,-15.102064269745467,nan,-15.053161682968646,-14.755517816455745,1.033473051174055,nan,1.0335371626761145,1.0769230769230769,1.0005711869272635,nan,1.0006116422387425,1.0013149243918475,3.0
W UW DH,3,-15.966367507699736,nan,-15.960851061228887,-10.990684938388938,-16.69043211729583,nan,-16.644868004193825,-14.755517816455745,1.0492073893977574,nan,1.049248492443175,1.0769230769230769,1.0004160413705676,nan,1.0004651360438461,1.0013149243918475,7.0
W UW TH,3,-14.748281565897337,nan,-14.746328046007797,-10.990684938388938,-14.343194852551997,nan,-14.332372649907374,-14.755517816455745,1.0533304710195028,nan,1.0533654443739493,1.0769230769230769,1.0009505149141273,nan,1.0009702776639073,1.0013149243918475,10.0
W UW V,3,-13.429533246978973,nan,-13.428678576661241,-10.990684938388938,-14.123236613514154,nan,-14.088431519281016,-14.755517816455745,1.0697846208248019,nan,1.0697951321717614,1.0769230769230769,1.0008741615507615,nan,1.0008981145753273,1.0013149243918475,10.0
W UW ZH,3,-15.98688104753284,nan,-15.981259932860095,-10.990684938388938,-14.989384743344896,nan,-15.069701698577843,-14.755517816455745,1.0476803221304443,nan,1.0477236954317772,1.0769230769230769,1.000530571415616,nan,1.0005733806767163,1.0013149243918475,6.0
Y AO CH,3,-14.62208175096185,nan,-14.620401569537037,-10.990684938388938,-17.98183985935121,nan,-17.590528098434127,-14.755517816455745,1.0508695090194524,nan,1.0509080552127361,1.0769230769230769,1.0004150658385818,nan,1.0004642640367516,1.0013149243918475,4.0
Y AO D,3,-12.779253073120323,nan,-12.77844272359048,-10.990684938388938,-14.55273159732481,nan,-14.513481877242418,-14.755517816455745,1.0799983171434502,nan,1.07999355820515,1.0769230769230769,1.0008350093370928,nan,1.0008611610239426,1.0013149243918475,7.0
Y AO G,3,-13.857600422539033,nan,-13.856472485154443,-10.990684938388938,-15.762344127331573,nan,-15.733917561401004,-14.755517816455745,1.060031912623331,nan,1.0600568372811232,1.0769230769230769,1.0011785994722384,nan,1.0011858949225534,1.0013149243918475,9.0
Y AO NG,3,-14.168499707993515,nan,-14.167196303918454,-10.990684938388938,-13.479386515724391,nan,-13.465375613874912,-14.755517816455745,1.0541527036441756,nan,1.0541863687872415,1.0769230769230769,1.001484012925701,nan,1.0014745472768742,1.0013149243918475,12.0
Y AO SH,3,-13.654394317430523,nan,-13.653354877696263,-10.990684938388938,-17.023250723705203,nan,-16.918754992012396,-14.755517816455745,1.0512512758362806,nan,1.0512892544655854,1.0769230769230769,1.0006441259286787,nan,1.0006807533024922,1.0013149243918475,4.0
Y AO TH,3,-14.994990575874757,nan,-14.992843610897992,-10.990684938388938,-15.297509359643765,nan,-15.284472945748494,-14.755517816455745,1.049609678523919,nan,1.0496500976783327,1.0769230769230769,1.0004914192019474,nan,1.0005364271253319,1.0013149243918475,5.0
Y AW CH,3,-15.802972436885657,nan,-15.800232068541376,-10.990684938388938,nan,nan,-17.77221493606999,-14.755517816455745,1.0266732251465394,nan,1.0267472844766228,1.0769230769230769,1.0001527067267313,nan,1.0002160532621933,1.0013149243918475,3.0
Y AW D,3,-13.96014375904413,nan,-13.95827322259482,-10.990684938388938,nan,nan,-16.361047938217332,-14.755517816455745,1.0558020332705373,nan,1.055832787469037,1.0769230769230769,1.0004962968618767,nan,1.0005407871608043,1.0013149243918475,5.0
Y AW JH,3,-15.306940290531871,nan,-15.304603989281237,-10.990684938388938,nan,nan,-19.34826701890871,-14.755517816455745,1.0288492960024607,nan,1.0289201202178648,1.0769230769230769,1.0000381766816828,nan,1.0001078086293231,1.0013149243918475,2.0
Y AW R,3,-13.510782447891952,nan,-13.508971183622046,-10.990684938388938,nan,nan,-18.784850027836548,-14.755517816455745,1.0959639024008725,nan,1.0959349488688006,1.0769230769230769,1.0002672367717798,nan,1.0003242978950637,1.0013149243918475,8.0
Y AW T,3,-13.27513639732215,nan,-13.27334706827706,-10.990684938388938,nan,nan,-14.771074096064428,-14.755517816455745,1.08229665035842,nan,1.0822880156167898,1.0769230769230769,1.0005726502252423,nan,1.0006129502493843,1.0013149243918475,11.0
Y AW TH,3,-16.175881261798565,nan,-16.172674109902328,-10.990684938388938,nan,nan,-17.422999002971856,-14.755517816455745,1.025413394651006,nan,1.0254893269422196,1.0769230769230769,1.0004581201801939,nan,1.0005047056165142,1.0013149243918475,3.0
Y AW Z,3,-15.018943406177602,nan,-15.016764597549653,-10.990684938388938,nan,nan,-16.4250996518334,-14.755517816455745,1.0382025830147534,nan,1.0382595019126766,1.0769230769230769,1.0003817668168282,nan,1.000432542527934,1.0013149243918475,5.0
Z UW B,3,-12.752865026901974,nan,-12.752288579512337,-10.990684938388938,-18.08581445917447,nan,-18.028767346756112,-14.755517816455745,1.0510897965683206,nan,1.0511276925115882,1.0769230769230769,1.001181526068196,nan,1.001188510943837,1.0013149243918475,4.0
Z UW DH,3,-15.702633088757423,nan,-15.697259049523073,-10.990684938388938,-19.237383995032094,nan,-19.174972390793265,-14.755517816455745,1.0287946144655489,nan,1.0288656561451797,1.0769230769230769,1.000265285707808,nan,1.0003225538808747,1.0013149243918475,3.0
Z UW SH,3,-13.143950888510787,nan,-13.143247301100256,-10.990684938388938,-17.060175581271764,nan,-17.011945737809718,-14.755517816455745,1.034559293399656,nan,1.0346217648632066,1.0769230769230769,1.0003034623894909,nan,1.0003586354251648,1.0013149243918475,5.0
Z UW TH,3,-14.484547146955022,nan,-14.482736034301983,-10.990684938388938,-16.890146730288258,nan,-16.862477036506814,-14.755517816455745,1.0329176960872943,nan,1.0329826080759539,1.0769230769230769,1.0007997592513678,nan,1.000827695500936,1.0013149243918475,5.0
Z UW V,3,-13.165798828036657,nan,-13.165086564955427,-10.990684938388938,-16.670188491250414,nan,-16.618535905880456,-14.755517816455745,1.0493718458925934,nan,1.0494122958737657,1.0769230769230769,1.000723405888002,nan,1.0007555324123558,1.0013149243918475,5.0
Z UW ZH,3,-15.723146628590525,nan,-15.71766792115428,-10.990684938388938,-17.53633662108116,nan,-17.599806085177285,-14.755517816455745,1.0272675471982358,nan,1.0273408591337818,1.0769230769230769,1.0003798157528565,nan,1.0004307985137448,1.0013149243918475,3.0
B AH L,3,-8.920646747881365,nan,-8.920895341470574,-10.990684938388938,-7.537242146034028,nan,-7.552680369605293,-14.755517816455745,1.2004968291478026,nan,1.2003146986540747,1.0769230769230769,1.014180394816557,nan,1.013476950672475,1.0013149243918475,34.0
B AY N,3,-10.745198190193634,nan,-10.745108178050915,-10.990684938388938,-10.28996080201668,nan,-10.306497653832405,-14.755517816455745,1.1771785370117078,nan,1.177030166877938,1.0769230769230769,1.0063457521154635,nan,1.006070748765097,1.0013149243918475,31.0
B AY S,3,-10.939187834660661,nan,-10.939081201249987,-10.990684938388938,-11.302878693425214,nan,-11.314207583550122,-14.755517816455745,1.1670235396840756,nan,1.1668902667521421,1.0769230769230769,1.003558854352617,nan,1.0034367960319202,1.0013149243918475,18.0
B ER S,3,-10.149724194279308,nan,-10.149841411963,-10.990684938388938,-10.436559246196099,nan,-10.450014976961072,-14.755517816455745,1.1678150069135633,nan,1.1676805723369683,1.0769230769230769,1.0056257605894119,nan,1.0053899954626049,1.0013149243918475,22.0
B IY L,3,-9.831606431347264,nan,-9.831774761024512,-10.990684938388938,-11.149790984020132,nan,-11.158915769968164,-14.755517816455745,1.1643154700855027,nan,1.1641864433477371,1.0769230769230769,1.0056610106751371,nan,1.0054234609856116,1.0013149243918475,34.0
B IY S,3,-9.822420325744975,nan,-9.822589525289633,-10.990684938388938,-11.215090817165395,nan,-11.22431854011963,-14.755517816455745,1.1786317257165635,nan,1.1784814153295922,1.0769230769230769,1.0060427774919654,nan,1.0057842764285125,1.0013149243918475,22.0
CH AH N,3,-10.076244292952193,nan,-10.075742495965313,-10.990684938388938,-9.464283858127693,nan,-9.499470331252553,-14.755517816455745,1.1801880278732926,nan,1.1800351937168607,1.0769230769230769,1.020800438325226,nan,1.0197309366805682,1.0013149243918475,23.0
CH AY N,3,-12.103971485333776,nan,-12.103113591479607,-10.990684938388938,-12.460085577979374,nan,-12.463621648739952,-14.755517816455745,1.132398482778505,nan,1.1323157898330731,1.0769230769230769,1.0044989952466585,nan,1.0043241172686974,1.0013149243918475,20.0
CH IY N,3,-10.98720397641809,nan,-10.986621915519253,-10.990684938388938,-12.501407857508486,nan,-12.522886653368836,-14.755517816455745,1.1440066688109929,nan,1.1439069384105232,1.0769230769230769,1.0035039626929403,nan,1.0033838170994187,1.0013149243918475,17.0
D AH S,3,-8.42740525957769,nan,-8.427756673217829,-10.990684938388938,-8.756798807258559,nan,-8.767799576829832,-14.755517816455745,1.224605190834904,nan,1.2243874149855216,1.0769230769230769,1.0090054379174451,nan,1.0085851207731755,1.0013149243918475,26.0
D AY P,3,-11.13554060674179,nan,-11.135444054462575,-10.990684938388938,-12.681180340987188,nan,-12.688415888744302,-14.755517816455745,1.1321871048528904,nan,1.132105818443632,1.0769230769230769,1.0055989334598006,nan,1.0053660152675066,1.0013149243918475,18.0
D AY T,3,-10.322461629368116,nan,-10.322468657650504,-10.990684938388938,-9.85464300600953,nan,-9.871086896447002,-14.755517816455745,1.1594070788927469,nan,1.1592853251717985,1.0769230769230769,1.0078513576790875,nan,1.0074948263806223,1.0013149243918475,26.0
D ER S,3,-9.665668811577923,nan,-9.665887979445134,-10.990684938388938,-10.236518706663183,nan,-10.247955474770691,-14.755517816455745,1.1776071129696044,nan,1.1774583166865602,1.0769230769230769,1.004871982275614,nan,1.004677084647748,1.0013149243918475,17.0
D IY K,3,-9.574244800855945,nan,-9.574490875754911,-10.990684938388938,-11.229266164966239,nan,-11.238125147573722,-14.755517816455745,1.1615092711862105,nan,1.161384612353297,1.0769230769230769,1.0067936292098059,nan,1.006494571222086,1.0013149243918475,23.0
D IY S,3,-9.338364943043588,nan,-9.338636092771768,-10.990684938388938,-10.79995520932226,nan,-10.808280161264605,-14.755517816455745,1.1884238317726044,nan,1.188259159679184,1.0769230769230769,1.0070226892999028,nan,1.0067110604878267,1.0013149243918475,16.0
D IY T,3,-9.20569412045243,nan,-9.205976981690148,-10.990684938388938,-10.357124706992977,nan,-10.365761671957149,-14.755517816455745,1.1710152649252348,nan,1.1708764737492485,1.0769230769230769,1.006755452528123,nan,1.0064584896777962,1.0013149243918475,23.0
F AH L,3,-9.09973145485658,nan,-9.099927945111437,-10.990684938388938,-8.066249973284577,nan,-8.082666915160988,-14.755517816455745,1.1957890858516291,nan,1.1956138600244632,1.0769230769230769,1.0125220825262018,nan,1.0119085468797895,1.0013149243918475,30.0
F AY K,3,-11.354152399448232,nan,-11.353968587873993,-10.990684938388938,-10.85613330629926,nan,-10.875831863194573,-14.755517816455745,1.1354012358015082,nan,1.1353148807966433,1.0769230769230769,1.0049733426388534,nan,1.0047735571848426,1.0013149243918475,19.0
F ER S,3,-10.328808901254522,nan,-10.328874015603862,-10.990684938388938,-10.361250587139649,nan,-10.37665007109218,-14.755517816455745,1.1631072636173898,nan,1.1629797337073569,1.0769230769230769,1.0061157164933805,nan,1.0058533874922622,1.0013149243918475,17.0
F ER T,3,-10.196138078663363,nan,-10.19621490452224,-10.990684938388938,-10.244237517143146,nan,-10.258515021086932,-14.755517816455745,1.1456986967700202,nan,1.1455970477774213,1.0769230769230769,1.0048940626795302,nan,1.004698778074979,1.0013149243918475,22.0
F IY K,3,-10.237384890532546,nan,-10.237476911913639,-10.990684938388938,-12.013144864979523,nan,-12.021544843817225,-14.755517816455745,1.147009421833996,nan,1.1469060293740934,1.0769230769230769,1.0052106947508301,nan,1.0049974585108863,1.0013149243918475,19.0
F IY N,3,-9.807515388253162,nan,-9.807649105731423,-10.990684938388938,-11.03481632415417,nan,-11.043948465722398,-14.755517816455745,1.184078979748022,nan,1.1839204768257765,1.0769230769230769,1.0043708077538078,nan,1.0042036645365042,1.0013149243918475,24.0
F IY S,3,-10.001505032720189,nan,-10.001622128930496,-10.990684938388938,-11.583833909335546,nan,-11.591699857508106,-14.755517816455745,1.1739239824203898,nan,1.1737805766999807,1.0769230769230769,1.005439754840927,nan,1.0052139477766269,1.0013149243918475,14.0
G AY N,3,-11.339490156910959,nan,-11.339184507097013,-10.990684938388938,-12.275167015920758,nan,-12.24500031092116,-14.755517816455745,1.1510034842849828,nan,1.1508935040972978,1.0769230769230769,1.0044236174152787,nan,1.0042528261872117,1.0013149243918475,22.0
G EY S,3,-11.213312273781716,nan,-11.213102338899713,-10.990684938388938,-11.084063436802897,nan,-11.103680801474555,-14.755517816455745,1.1343659934586885,nan,1.1342806248957833,1.0769230769230769,1.003993918596909,nan,1.0038472091290758,1.0013149243918475,25.0
HH AH S,3,-9.936572561440038,nan,-9.936347268480766,-10.990684938388938,-9.851662796714358,nan,-9.87490194725769,-14.755517816455745,1.2011794601931445,nan,1.2009960419645747,1.0769230769230769,1.0087416155076159,nan,1.0083356019879754,1.0013149243918475,24.0
HH AY N,3,-11.770310109354597,nan,-11.769745340795987,-10.990684938388938,-9.628804695926444,nan,-9.663069335417653,-14.755517816455745,1.1635449124259891,nan,1.163416538206583,1.0769230769230769,1.0070618415135715,nan,1.0067480140392113,1.0013149243918475,25.0
HH AY S,3,-11.964299753821622,nan,-11.96371836399506,-10.990684938388938,-10.641722587334979,nan,-10.670779265135371,-14.755517816455745,1.1533899150983569,nan,1.1532766380807873,1.0769230769230769,1.004274943750725,nan,1.0041140613060344,1.0013149243918475,16.0
HH EY N,3,-11.450142581758328,nan,-11.449690149399613,-10.990684938388938,-10.729824984501766,nan,-10.743542565084752,-14.755517816455745,1.157062418927327,nan,1.1569435591308643,1.0769230769230769,1.0047961166782413,nan,1.004605357562715,1.0013149243918475,24.0
HH EY S,3,-11.644132226225354,nan,-11.643663172598686,-10.990684938388938,-11.379211836195937,nan,-11.391068174669378,-14.755517816455745,1.1469074215996948,nan,1.1468036590050685,1.0769230769230769,1.003956229681219,nan,1.003811563588333,1.0013149243918475,21.0
HH IY N,3,-10.65354260043891,nan,-10.65325366483563,-10.990684938388938,-11.166172200534566,nan,-11.181101349979418,-14.755517816455745,1.175153098458477,nan,1.175007686784033,1.0769230769230769,1.0040316075125988,nan,1.0038828546698186,1.0013149243918475,21.0
JH AH N,3,-9.580212146598406,nan,-9.580114416705175,-10.990684938388938,-8.499707421851666,nan,-8.525290780072792,-14.755517816455745,1.186628220702458,nan,1.1864659409621692,1.0769230769230769,1.0220441725429927,nan,1.0209072395250822,1.0013149243918475,25.0
JH AY N,3,-11.607939338979989,nan,-11.60748551221947,-10.990684938388938,-12.3941002964781,nan,-12.381738648380562,-14.755517816455745,1.1388386756076705,nan,1.1387465370783818,1.0769230769230769,1.0044236174152787,nan,1.0042528261872117,1.0013149243918475,22.0
K AH K,3,-8.346828436071585,nan,-8.34719919594798,-10.990684938388938,-9.392596485427557,nan,-9.402388540794139,-14.755517816455745,1.2254474847227494,nan,1.225229012219824,1.0769230769230769,1.0263561275168334,nan,1.0249963508818158,1.0013149243918475,29.0
K AH N,3,-7.9169589337922,nan,-7.917371389765762,-10.990684938388938,-6.841090016329184,nan,-6.851010876200242,-14.755517816455745,1.2625170426367756,nan,1.2622434596715069,1.0769230769230769,1.042848454003815,nan,1.0405835780151371,1.0013149243918475,34.0
K ER M,3,-9.969302310911658,nan,-9.969484925114703,-10.990684938388938,-11.211977089265604,nan,-11.221743384554673,-14.755517816455745,1.1718830176080033,nan,1.1717432867718518,1.0769230769230769,1.0054618352448432,nan,1.005235641203858,1.0013149243918475,20.0
K ER N,3,-9.155222485792432,nan,-9.155502695993066,-10.990684938388938,-10.495880195009242,nan,-10.503755463784433,-14.755517816455745,1.215518964771476,nan,1.2153143613725457,1.0769230769230769,1.0048891850196007,nan,1.0046944180395065,1.0013149243918475,30.0
K EY B,3,-10.85490016487675,nan,-10.85488079283676,-10.990684938388938,-13.490419129734068,nan,-13.486350325924164,-14.755517816455745,1.1419702846419364,nan,1.1418748864173336,1.0769230769230769,1.002237303473506,nan,1.002187022088184,1.0013149243918475,13.0
K EY D,3,-10.370844782175363,nan,-10.370927360318895,-10.990684938388938,-10.288911867218841,nan,-10.301939394648356,-14.755517816455745,1.1541868227804413,nan,1.1540732625085166,1.0769230769230769,1.0031917205155767,nan,1.0030890606954364,1.0013149243918475,21.0
K IY K,3,-9.257788119537482,nan,-9.258078615501917,-10.990684938388938,-12.06354524886986,nan,-12.066787982201031,-14.755517816455745,1.1892661256604498,nan,1.1891007569134864,1.0769230769230769,1.0044569164370323,nan,1.0042845476960294,1.0013149243918475,24.0
K IY S,3,-9.021908261725125,nan,-9.022223832518774,-10.990684938388938,-11.634234293225882,nan,-11.636942995891914,-14.755517816455745,1.2161806862468436,nan,1.2159753042393737,1.0769230769230769,1.0046859765271292,nan,1.00450103696177,1.0013149243918475,15.0
K IY T,3,-8.889237439133966,nan,-8.889564721437154,-10.990684938388938,-11.191403790896597,nan,-11.194424506584458,-14.755517816455745,1.1987721193994738,nan,1.198592618309438,1.0769230769230769,1.0044187397553495,nan,1.0042484661517392,1.0013149243918475,27.0
L AH N,3,-7.690265181582132,nan,-7.6907018425175,-10.990684938388938,-8.327785922246076,nan,-8.335803114081632,-14.755517816455745,1.2034254487832052,nan,1.2032385331926232,1.0769230769230769,1.0230994621823097,nan,1.021905314665882,1.0013149243918475,34.0
L EY L,3,-9.601000596436764,nan,-9.601176005569375,-10.990684938388938,-11.172457883854879,nan,-11.183495711166762,-14.755517816455745,1.1246821572310628,nan,1.1246112781254662,1.0769230769230769,1.004599380077912,nan,1.0044197177986975,1.0013149243918475,30.0
M AH B,3,-9.531550822931274,nan,-9.531719311658257,-10.990684938388938,-10.888080207225048,nan,-10.89861478455538,-14.755517816455745,1.1588816724369528,nan,1.1587614140122429,1.0769230769230769,1.0136837411229216,nan,1.0130095278607618,1.0013149243918475,18.0
M AH N,3,-8.30116925663204,nan,-8.301525812705183,-10.990684938388938,-7.2410867386446,nan,-7.252748319229027,-14.755517816455745,1.2251563918383424,nan,1.22493760430691,1.0769230769230769,1.0279236433906165,nan,1.0264679438809674,1.0013149243918475,38.0
M AY D,3,-11.075222632611473,nan,-11.075136974654686,-10.990684938388938,-10.57113715930314,nan,-10.58792665505248,-14.755517816455745,1.12330866548067,nan,1.1232403862196383,1.0769230769230769,1.0044702170530755,nan,1.00429839305941,1.0013149243918475,30.0
M ER N,3,-9.539432808632274,nan,-9.539657118932487,-10.990684938388938,-10.951235013175896,nan,-10.959722710932198,-14.755517816455745,1.1781583139730425,nan,1.1780085060079486,1.0769230769230769,1.0039469621273533,nan,1.0038032795209353,1.0013149243918475,22.0
M ER S,3,-9.7334224530993,nan,-9.73363014213156,-10.990684938388938,-10.90334011724751,nan,-10.912945896202423,-14.755517816455745,1.1680033166454102,nan,1.1678686058821528,1.0769230769230769,1.005550382758032,nan,1.0053187043811194,1.0013149243918475,24.0
M EY B,3,-11.23911048771659,nan,-11.239035215776179,-10.990684938388938,-14.1159603869881,nan,-14.111636929884142,-14.755517816455745,1.104609633843503,nan,1.1045690310527365,1.0769230769230769,1.0033679709442027,nan,1.0032563883104697,1.0013149243918475,13.0
M EY P,3,-10.8831267206669,nan,-10.883131025752627,-10.990684938388938,-12.94708156379544,nan,-12.950851306221733,-14.755517816455745,1.1161008150300342,nan,1.1160431285635055,1.0769230769230769,1.0034061476258858,nan,1.0032924698547598,1.0013149243918475,19.0
N EY N,3,-9.194649096298132,nan,-9.194859487701468,-10.990684938388938,-11.834780955457703,nan,-11.844154747618841,-14.755517816455745,1.1398132474901472,nan,1.1397196863919676,1.0769230769230769,1.0046453610154817,nan,1.0044627753997435,1.0013149243918475,27.0
N EY S,3,-9.388638740765158,nan,-9.388832510900542,-10.990684938388938,-12.484167807151874,nan,-12.49168035720347,-14.755517816455745,1.129658250162515,nan,1.1295797862661718,1.0769230769230769,1.0038054740184594,nan,1.0036689814253614,1.0013149243918475,20.0
N IY N,3,-8.398049114978715,nan,-8.398423003137484,-10.990684938388938,-12.05901104200285,nan,-12.064029364449894,-14.755517816455745,1.1579039270212972,nan,1.1577838140451364,1.0769230769230769,1.0041823631753584,nan,1.0040254368327899,1.0013149243918475,21.0
P AH L,3,-8.564662980831674,nan,-8.564991151447023,-10.990684938388938,-8.060756181221555,nan,-8.072376614042785,-14.755517816455745,1.2256926712689233,nan,1.2254735869997555,1.0769230769230769,1.0151603066244943,nan,1.0144037347317891,1.0013149243918475,33.0
P AH M,3,-9.175567055881583,nan,-9.175815121634706,-10.990684938388938,-9.61482183898045,nan,-9.628278541740865,-14.755517816455745,1.2065279770641437,nan,1.2063373845067125,1.0769230769230769,1.0168782573002217,nan,1.0160274042248436,1.0013149243918475,27.0
P AY T,3,-10.45053324501981,nan,-10.450517900144815,-10.990684938388938,-9.999659166618997,nan,-10.012618455184391,-14.755517816455745,1.1748108149578267,nan,1.1746664691678874,1.0769230769230769,1.005137755749415,nan,1.0049283474471369,1.0013149243918475,31.0
P ER B,3,-10.830132349061824,nan,-10.830157697693448,-10.990684938388938,-12.322812416976777,nan,-12.329303627274044,-14.755517816455745,1.1368911269609268,nan,1.136803170513778,1.0769230769230769,1.0084951267760074,nan,1.0081054898621393,1.0013149243918475,13.0
P ER D,3,-10.346076966360437,nan,-10.346204265175583,-10.990684938388938,-9.51980159325362,nan,-9.534652531706094,-14.755517816455745,1.1491076650994319,nan,1.1490015466049608,1.0769230769230769,1.008342420049276,nan,1.007961163684979,1.0013149243918475,19.0
P ER N,3,-9.599750782762591,nan,-9.599964198740373,-10.990684938388938,-9.573482990193941,nan,-9.58567794408291,-14.755517816455745,1.2031658463623165,nan,1.202979360808445,1.0769230769230769,1.0094495438180782,nan,1.0090075284693918,1.0013149243918475,24.0
P ER V,3,-11.243066150196508,nan,-11.242955683136538,-10.990684938388938,-10.489692765078951,nan,-10.508603656435309,-14.755517816455745,1.1351731762851995,nan,1.1350877738759553,1.0769230769230769,1.0092204837279812,nan,1.0087910392036512,1.0013149243918475,14.0
P EY B,3,-11.299428461846908,nan,-11.299342295584065,-10.990684938388938,-13.844228611633927,nan,-13.839445310079293,-14.755517816455745,1.129617166232777,nan,1.129539885853233,1.0769230769230769,1.0037825490167918,nan,1.003648489258641,1.0013149243918475,10.0
P EY K,3,-10.498916397827058,nan,-10.498976602813208,-10.990684938388938,-11.264769698605507,nan,-11.27538243719576,-14.755517816455745,1.1588223277201404,nan,1.158701628696217,1.0769230769230769,1.004393375923717,nan,1.0042257939672825,1.0013149243918475,30.0
P EY M,3,-10.8831267206669,nan,-10.883131025752627,-10.990684938388938,-11.858854357175657,nan,-11.865821111764951,-14.755517816455745,1.152255938470694,nan,1.1521450015472063,1.0769230769230769,1.00416431583362,nan,1.004009304701542,1.0013149243918475,21.0
P EY P,3,-10.943444694797217,nan,-10.943438105560514,-10.990684938388938,-12.675349788441267,nan,-12.678659686416884,-14.755517816455745,1.1411083474193082,nan,1.1410139833640018,1.0769230769230769,1.0038207256984746,nan,1.0036845708029312,1.0013149243918475,24.0
P IY M,3,-10.086526739347482,nan,-10.086694541188644,-10.990684938388938,-11.516860516796624,nan,-11.525834533752095,-14.755517816455745,1.1703466180018438,nan,1.1702091292003751,1.0769230769230769,1.0043248268162381,nan,1.0041606069354583,1.0013149243918475,17.0
R AH L,3,-7.987230054027803,nan,-7.9876398699799385,-10.990684938388938,-7.753373658018749,nan,-7.763027331803543,-14.755517816455745,1.2065604025132741,nan,1.2063693788090144,1.0769230769230769,1.0135773721655188,nan,1.0129066220205893,1.0013149243918475,26.0
R AY R,3,-10.108746368785742,nan,-10.108790734022717,-10.990684938388938,-12.405219810504475,nan,-12.417112628957332,-14.755517816455745,1.1693457982446298,nan,1.1692091942291571,1.0769230769230769,1.0041358944717957,nan,1.0039819432281967,1.0013149243918475,23.0
R EY B,3,-10.721995535043035,nan,-10.72199101411698,-10.990684938388938,-13.569843166639277,nan,-13.566344435173045,-14.755517816455745,1.1104848974771278,nan,1.1104356776624917,1.0769230769230769,1.0041594381736907,nan,1.0040049446660695,1.0013149243918475,16.0
R EY M,3,-10.305693793863027,nan,-10.305779744285543,-10.990684938388938,-11.584468912181007,nan,-11.592720236858703,-14.755517816455745,1.1331236697150446,nan,1.133040793356465,1.0769230769230769,1.004541204990519,nan,1.0043657601089706,1.0013149243918475,29.0
R IY G,3,-10.519687520440943,nan,-10.519630858599095,-10.990684938388938,-12.509835897069877,nan,-12.509983229673082,-14.755517816455745,1.1208257106266635,nan,1.1207614604828164,1.0769230769230769,1.017270303173845,nan,1.01640523280911,1.0013149243918475,17.0
R IY N,3,-8.695013987424385,nan,-8.695361030599923,-10.990684938388938,-9.300617896112547,nan,-9.309990214022568,-14.755517816455745,1.1948502964096672,nan,1.1946759956103277,1.0769230769230769,1.0194463740297661,nan,1.0184618808336454,1.0013149243918475,29.0
R IY S,3,-8.889003631891413,nan,-8.889334053798997,-10.990684938388938,-9.849635481293923,nan,-9.857741605808274,-14.755517816455745,1.184695299082035,nan,1.1845360954845319,1.0769230769230769,1.0205153211168854,nan,1.019472164073768,1.0013149243918475,20.0
R IY T,3,-8.756332809300254,nan,-8.756674942717375,-10.990684938388938,-9.406804978964638,nan,-9.415223116500817,-14.755517816455745,1.1672867322346652,nan,1.1671534095545961,1.0769230769230769,1.0202480843451056,nan,1.0192195932637376,1.0013149243918475,36.0
R IY Z,3,-10.500139818155704,nan,-10.50009247198997,-10.990684938388938,-9.328607905126024,nan,-9.35008591602918,-14.755517816455745,1.1231926648909987,nan,1.1231248958504831,1.0769230769230769,1.0187210170777925,nan,1.0177763314921338,1.0013149243918475,28.0
S AH D,3,-8.42740525957769,nan,-8.427756673217829,-10.990684938388938,-9.362884098677762,nan,-9.37309552458053,-14.755517816455745,1.2236742877071238,nan,1.2234587559189272,1.0769230769230769,1.0138552448258524,nan,1.0131745687079277,1.0013149243918475,20.0
S AH G,3,-9.5057526089964,nan,-9.505786434781792,-10.990684938388938,-11.338335900461024,nan,-11.352798306566278,-14.755517816455745,1.2037078831870047,nan,1.2035220349949003,1.0769230769230769,1.0142370116426807,nan,1.0135353841508286,1.0013149243918475,22.0
S AH JH,3,-9.774201791065432,nan,-9.774087439904248,-10.990684938388938,-10.213367376361884,nan,-10.237973832936358,-14.755517816455745,1.1967215504390474,nan,1.196546088667755,1.0769230769230769,1.0131680645555616,nan,1.012525100910706,1.0013149243918475,17.0
S AH L,3,-7.884254826049158,nan,-7.884674865716573,-10.990684938388938,-7.579408352357113,nan,-7.588704165125248,-14.755517816455745,1.2532612160113157,nan,1.2530016980147607,1.0769230769230769,1.0216051112074667,nan,1.020499122198817,1.0013149243918475,25.0
S AH S,3,-7.875068720446869,nan,-7.8754896299816926,-10.990684938388938,-8.35358951427412,nan,-8.362548178906607,-14.755517816455745,1.2675774716423762,nan,1.2672966699966155,1.0769230769230769,1.017749266357501,nan,1.0168548862255173,1.0013149243918475,17.0
S AH SH,3,-9.30254650388789,nan,-9.302668827323611,-10.990684938388938,-12.589070762599437,nan,-12.590545550911335,-14.755517816455745,1.1949272463999543,nan,1.1947544521793625,1.0769230769230769,1.0127862977387332,nan,1.012164285467805,1.0013149243918475,13.0
S AH T,3,-7.74239789785571,nan,-7.742830518900071,-10.990684938388938,-8.278721865245043,nan,-8.287232467311403,-14.755517816455745,1.2501689047950066,nan,1.24991398406668,1.0769230769230769,1.0169475560421615,nan,1.0160971737954254,1.0013149243918475,29.0
S AH V,3,-9.324394443413759,nan,-9.324508091178783,-10.990684938388938,-10.640373283653648,nan,-10.65574191136034,-14.755517816455745,1.2097397988928917,nan,1.2095449831899217,1.0769230769230769,1.0141224815976322,nan,1.0134271395179584,1.0013149243918475,15.0
S AH Z,3,-9.486204906711162,nan,-9.486248048172666,-10.990684938388938,-10.024343058811773,nan,-10.04243771216236,-14.755517816455745,1.2060748374513401,nan,1.205885470362567,1.0769230769230769,1.0136261847357555,nan,1.012958079442187,1.0013149243918475,11.0
S AY B,3,-10.939187834660661,nan,-10.939081201249989,-10.990684938388938,-13.204669074461535,nan,-13.207481260457634,-14.755517816455745,1.1636682044738313,nan,1.163540975943957,1.0769230769230769,1.0045363273305896,nan,1.0043614000734982,1.0013149243918475,11.0
S AY K,3,-10.13867577064081,nan,-10.13871550847913,-10.990684938388938,-11.131601188131238,nan,-11.143553342057213,-14.755517816455745,1.1928733659611948,nan,1.192702718786941,1.0769230769230769,1.0062924546879997,nan,1.0060211511108426,1.0013149243918475,27.0
S AY L,3,-9.911982018430743,nan,-9.912045961230866,-10.990684938388938,-10.419079484241923,nan,-10.432060100005362,-14.755517816455745,1.205471670916528,nan,1.2052822941309733,1.0769230769230769,1.00602521791622,nan,1.0057685803008118,1.0013149243918475,29.0
S AY M,3,-10.522886093480652,nan,-10.522869931418551,-10.990684938388938,-11.454708463909288,nan,-11.465031988738321,-14.755517816455745,1.1863069767117485,nan,1.18614609163793,1.0769230769230769,1.0043454439221755,nan,1.0041809923520477,1.0013149243918475,20.0
S AY P,3,-10.58320406761097,nan,-10.583177011226438,-10.990684938388938,-12.214482040012248,nan,-12.221946580199516,-14.755517816455745,1.1751593856603626,nan,1.1750150734547258,1.0769230769230769,1.005108977555832,nan,1.0049026232378495,1.0013149243918475,20.0
S AY S,3,-9.902795912828454,nan,-9.902860725495987,-10.990684938388938,-10.795237482911396,nan,-10.80584752496778,-14.755517816455745,1.2197879265475886,nan,1.2195772661128281,1.0769230769230769,1.0047272107390037,nan,1.0045418077949486,1.0013149243918475,18.0
S AY V,3,-11.352121635795346,nan,-11.351879186693079,-10.990684938388938,-11.291640503103629,nan,-11.308784418077993,-14.755517816455745,1.161950253798104,nan,1.1618255793061343,1.0769230769230769,1.004650857375638,nan,1.0044696447063683,1.0013149243918475,18.0
S ER D,3,-9.665668811577921,nan,-9.665887979445134,-10.990684938388938,-10.408981172366163,nan,-10.418970772378499,-14.755517816455745,1.176676209841824,nan,1.176529657619966,1.0769230769230769,1.0056665070352935,nan,1.0054303302922365,1.0013149243918475,18.0
S ER G,3,-10.744016160996633,nan,-10.743917741009096,-10.990684938388938,-13.385617944466258,nan,-13.383621597685671,-14.755517816455745,1.156709805321705,nan,1.1565929366959389,1.0769230769230769,1.0054374469451965,nan,1.005213841026496,1.0013149243918475,9.0
S ER K,3,-9.349212130259458,nan,-9.349475719192139,-10.990684938388938,-11.343662766171276,nan,-11.350135339801948,-14.755517816455745,1.1936648331906827,nan,1.193493024371767,1.0769230769230769,1.0072699276659722,nan,1.0069457551524206,1.0013149243918475,27.0
S ER L,3,-9.12251837804939,nan,-9.122806171943877,-10.990684938388938,-10.999624835861411,nan,-11.004356018561191,-14.755517816455745,1.2062631381460158,nan,1.2060725997157995,1.0769230769230769,1.0058955671253904,nan,1.005646819557977,1.0013149243918475,23.0
S ER M,3,-9.7334224530993,nan,-9.73363014213156,-10.990684938388938,-11.178759463562846,nan,-11.187984105525553,-14.755517816455745,1.1870984439412362,nan,1.1869363972227562,1.0769230769230769,1.0073462810293379,nan,1.0070179182410006,1.0013149243918475,17.0
S ER N,3,-8.919342627980075,nan,-8.919647913009923,-10.990684938388938,-10.462662569306485,nan,-10.469996184755313,-14.755517816455745,1.2307343911047086,nan,1.23050747182345,1.0769230769230769,1.0067736308040955,nan,1.0064766950766493,1.0013149243918475,25.0
S ER P,3,-9.793740427229617,nan,-9.793937221939446,-10.990684938388938,-12.522340124602945,nan,-12.524773260194067,-14.755517816455745,1.1759508528898504,nan,1.175805379039552,1.0769230769230769,1.0060100971704389,nan,1.0057550641908473,1.0013149243918475,18.0
S ER S,3,-9.113332272447101,nan,-9.113620936208996,-10.990684938388938,-10.414767673378096,nan,-10.423219370025539,-14.755517816455745,1.2205793937770764,nan,1.2203675716976543,1.0769230769230769,1.0083770514347743,nan,1.0079921199368334,1.0013149243918475,19.0
S ER T,3,-8.980661449855942,nan,-8.980961825127375,-10.990684938388938,-10.297754603381593,nan,-10.305084320020292,-14.755517816455745,1.2031708269297068,nan,1.2029848857677188,1.0769230769230769,1.0071553976209238,nan,1.0068375105195502,1.0013149243918475,24.0
S ER Z,3,-10.724468458711392,nan,-10.724379354399968,-10.990684938388938,-11.185750979011168,nan,-11.195806375544336,-14.755517816455745,1.1590767595860403,nan,1.1589563720636056,1.0769230769230769,1.004902973401637,nan,1.0047086994064345,1.0013149243918475,12.0
S EY B,3,-10.619020307064392,nan,-10.619026009853616,-10.990684938388938,-14.595278013759216,nan,-14.583837252241327,-14.755517816455745,1.1571857109751693,nan,1.157067996868238,1.0769230769230769,1.002953392871614,nan,1.0028642873622984,1.0013149243918475,14.0
S EY D,3,-10.134964924363006,nan,-10.135072577335752,-10.990684938388938,-11.39377075124399,nan,-11.399426320965519,-14.755517816455745,1.1694022491136742,nan,1.169266372959421,1.0769230769230769,1.0039078099136847,nan,1.0037663259695506,1.0013149243918475,25.0
S EY P,3,-10.263036540014701,nan,-10.263121819830065,-10.990684938388938,-13.426399190566556,nan,-13.423051628578918,-14.755517816455745,1.1686768921617006,nan,1.168542094379007,1.0769230769230769,1.0029915695532967,nan,1.0029003689065883,1.0013149243918475,22.0
S EY S,3,-9.582628385232185,nan,-9.582805534099615,-10.990684938388938,-11.430944037462414,nan,-11.435326750554227,-14.755517816455745,1.2133054330489266,nan,1.2131042870371094,1.0769230769230769,1.004747696910707,nan,1.0045601199439327,1.0013149243918475,25.0
S IY G,3,-10.4167122924623,nan,-10.41666585433573,-10.990684938388938,-13.232649121823648,nan,-13.231133428632024,-14.755517816455745,1.167526524124705,nan,1.1673937796885627,1.0769230769230769,1.0043430050922109,nan,1.0041788123343114,1.0013149243918475,17.0
S IY V,3,-10.23535412687966,nan,-10.235387510732721,-10.990684938388938,-10.821857860094946,nan,-10.83820661521968,-14.755517816455745,1.1735584398305918,nan,1.1734167278835843,1.0769230769230769,1.005870072359524,nan,1.0056220741059152,1.0013149243918475,25.0
T AH L,3,-7.751584003458,nan,-7.752015754634952,-10.990684938388938,-8.454492704864828,nan,-8.462922138990539,-14.755517816455745,1.1891605832906167,nan,1.1889950792339703,1.0769230769230769,1.012107504453613,nan,1.0115164459316182,1.0013149243918475,30.0
T AY S,3,-9.770125090237295,nan,-9.770201614414365,-10.990684938388938,-12.063882432522934,nan,-12.07253702049542,-14.755517816455745,1.1556872938268896,nan,1.1555706473320377,1.0769230769230769,1.0034457876055474,nan,1.0033298594096915,1.0013149243918475,21.0
T ER T,3,-8.847990627264785,nan,-8.848302714045754,-10.990684938388938,-10.149193192177558,nan,-10.1578431034544,-14.755517816455745,1.1390701942090078,nan,1.1389782669869282,1.0769230769230769,1.004554862438321,nan,1.0043779682082934,1.0013149243918475,21.0
T EY N,3,-9.255967918174,nan,-9.25617339981892,-10.990684938388938,-10.612197899987123,nan,-10.624555221492251,-14.755517816455745,1.1593597976558598,nan,1.1592375683821148,1.0769230769230769,1.0046830499311716,nan,1.0044984209404864,1.0013149243918475,35.0
T EY S,3,-9.449957562641027,nan,-9.450146423017994,-10.990684938388938,-11.261584751681294,nan,-11.27208083107688,-14.755517816455745,1.1492048003282276,nan,1.149097668256319,1.0769230769230769,1.0038431629341493,nan,1.0037046269661043,1.0013149243918475,19.0
TH IY N,3,-11.360112801330995,nan,-11.359063956880204,-10.990684938388938,-11.931435194064422,nan,-11.976392360246958,-14.755517816455745,1.142575514848956,nan,1.1424778834671212,1.0769230769230769,1.0037300961870796,nan,1.0035976903438757,1.0013149243918475,13.0
V AY K,3,-11.5880014936077,nan,-11.587733969676222,-10.990684938388938,-12.283923755044686,nan,-12.301498487021185,-14.755517816455745,1.1038028627975913,nan,1.103762851914691,1.0769230769230769,1.004370319987815,nan,1.004203228532957,1.0013149243918475,14.0
V AY R,3,-11.455096863773989,nan,-11.454844190956443,-10.990684938388938,-13.240357926920634,nan,-13.25708862395718,-14.755517816455745,1.126976108579068,nan,1.1269016465626533,1.0769230769230769,1.003721316399207,nan,1.0035898422800253,1.0013149243918475,16.0
V AY T,3,-11.219450813204185,nan,-11.219220075611457,-10.990684938388938,-10.540267271948037,nan,-10.562562732866184,-14.755517816455745,1.1133088565366156,nan,1.1132547133106425,1.0769230769230769,1.0054392670749341,nan,1.0052135117730796,1.0013149243918475,20.0
V ER N,3,-10.368668350946965,nan,-10.368666374207015,-10.990684938388938,-10.521804237549029,nan,-10.540356010425505,-14.755517816455745,1.1416638879411052,nan,1.1415676049512,1.0769230769230769,1.0039469621273533,nan,1.0038032795209353,1.0013149243918475,15.0
V EY T,3,-10.899283285607916,nan,-10.899164884215084,-10.990684938388938,-9.963935706015722,nan,-9.98326123064107,-14.755517816455745,1.1068263630379533,nan,1.1067817342349238,1.0769230769230769,1.0040736863222253,nan,1.0039224242424867,1.0013149243918475,19.0
V IY N,3,-10.041364482412632,nan,-10.041414487533649,-10.990684938388938,-11.807758111796659,nan,-11.819348799476792,-14.755517816455745,1.1524806067441054,nan,1.1523684479438239,1.0769230769230769,1.0036924072713898,nan,1.0035620448031328,1.0013149243918475,15.0
W EY S,3,-11.457498990438792,nan,-11.4571559639964,-10.990684938388938,-10.566481168753953,nan,-10.594193655024121,-14.755517816455745,1.130712784660858,nan,1.1306327741192048,1.0769230769230769,1.004747696910707,nan,1.0045601199439327,1.0013149243918475,24.0
CH AH CH,3,-12.665399154391569,nan,-12.663941408347082,-10.990684938388938,-14.46296853859861,nan,-14.509160103476534,-14.755517816455745,1.0970010384864102,nan,1.0969718765209624,1.0769230769230769,1.0011394472585697,nan,1.001148941371169,1.0013149243918475,9.0
CH AH JH,3,-12.169367008037781,nan,-12.168313329086942,-10.990684938388938,-12.461127145814114,nan,-12.512164547726442,-14.755517816455745,1.0991771093423313,nan,1.0991447122622042,1.0769230769230769,1.0015975674387636,nan,1.00158191990265,1.0013149243918475,7.0
CH AH SH,3,-11.69771172086024,nan,-11.696894716506307,-10.990684938388938,-14.836830532051668,nan,-14.864736265701419,-14.755517816455745,1.0973828053032384,nan,1.0973530757738117,1.0769230769230769,1.0012158006219354,nan,1.001221104459749,1.0013149243918475,8.0
CH AH Z,3,-11.88137012368351,nan,-11.880473937355358,-10.990684938388938,-12.272102828264003,nan,-12.316628426952445,-14.755517816455745,1.1085303963546242,nan,1.1084840939570162,1.0769230769230769,1.0020556876189575,nan,1.0020148984341313,1.0013149243918475,7.0
CH AY B,3,-13.334353051633009,nan,-13.333307090432681,-10.990684938388938,-15.882435060938047,nan,-15.872965313947525,-14.755517816455745,1.0661237633771155,nan,1.0661395995384062,1.0769230769230769,1.001521214075398,nan,1.0015097568140698,1.0013149243918475,3.0
CH AY DH,3,-16.284121113488457,nan,-16.278277560443417,-10.990684938388938,-17.10299746828262,nan,-17.08699295432344,-14.755517816455745,1.0438285812743437,nan,1.0438775631719974,1.0769230769230769,1.00060497371501,nan,1.0006437997511075,1.0013149243918475,5.0
CH AY Z,3,-13.909097316065093,nan,-13.907845032869652,-10.990684938388938,-11.742787295123016,nan,-11.761565282283705,-14.755517816455745,1.0607408512598366,nan,1.0607646900732286,1.0769230769230769,1.0013303306669838,nan,1.0013293490926194,1.0013149243918475,9.0
CH ER G,3,-13.139181377968981,nan,-13.13814363019179,-10.990684938388938,-14.19651698922791,nan,-14.224102267058477,-14.755517816455745,1.0591653642249892,nan,1.059191560290388,1.0769230769230769,1.0011032216408586,nan,1.0011146038410679,1.0013149243918475,5.0
CH ER JH,3,-13.407630560038013,nan,-13.406444635314246,-10.990684938388938,-12.454444053463916,nan,-12.50154836402296,-14.755517816455745,1.0521790314770316,nan,1.052215613963243,1.0769230769230769,1.0011795750042243,nan,1.001186766929648,1.0013149243918475,9.0
CH ER TH,3,-14.276571531304706,nan,-14.27451475593534,-10.990684938388938,-13.148728151476192,nan,-13.210222577034596,-14.755517816455745,1.048743130125577,nan,1.0487848206875978,1.0769230769230769,1.0008741615507615,nan,1.0008981145753273,1.0013149243918475,10.0
CH ER Z,3,-13.119633675683744,nan,-13.118605243582664,-10.990684938388938,-11.996650023772819,nan,-12.036287044917142,-14.755517816455745,1.0615323184893244,nan,1.0615549956580548,1.0769230769230769,1.000568748097299,nan,1.0006094622210064,1.0013149243918475,8.0
CH EY DH,3,-15.963953585892188,nan,-15.958222369047046,-10.990684938388938,-16.99572098105195,nan,-17.0178823734608,-14.755517816455745,1.0373460877756817,nan,1.0374045840962787,1.0769230769230769,1.00060497371501,nan,1.0006437997511075,1.0013149243918475,5.0
CH EY G,3,-13.608477490754066,nan,-13.607328228082409,-10.990684938388938,-16.364386057906046,nan,-16.339678601416427,-14.755517816455745,1.0518914034968392,nan,1.0519282756298431,1.0769230769230769,1.000834033805107,nan,1.000860289016848,1.0013149243918475,5.0
CH EY JH,3,-13.876926672823096,nan,-13.875629233204865,-10.990684938388938,-14.252331106621963,nan,-14.262952884660299,-14.755517816455745,1.0449050707488816,nan,1.044952329302698,1.0769230769230769,1.0010249172135213,nan,1.0010406967382985,1.0013149243918475,11.0
CH EY TH,3,-14.745867644089788,nan,-14.743699353825956,-10.990684938388938,-15.891677233787334,nan,-15.854643040661216,-14.755517816455745,1.0414691693974272,nan,1.0415215360270529,1.0769230769230769,1.00060497371501,nan,1.0006437997511075,1.0013149243918475,5.0
CH EY ZH,3,-15.984467125725292,nan,-15.978631240678254,-10.990684938388938,-15.812879338164628,nan,-15.917174047439937,-14.755517816455745,1.0358190205083686,nan,1.0358797870848808,1.0769230769230769,1.0005286203516444,nan,1.0005716366625275,1.0013149243918475,4.0
CH IY DH,3,-15.16735360457277,nan,-15.161785884483063,-10.990684938388938,-16.833470616078415,nan,-16.89355992616152,-14.755517816455745,1.0554367673068317,nan,1.0554687117494475,1.0769230769230769,1.0008697716568251,nan,1.0008941905434021,1.0013149243918475,8.0
