connormayer/uci_phonotactic_calculator/src/output.csv
word,word_len,uni_prob,uni_prob_freq_weighted,uni_prob_smoothed,uni_prob_freq_weighted_smoothed,bi_cond_nonpos_wb,bi_cond_nonpos_wb_freq_weighted,bi_cond_nonpos_wb_smoothed,bi_cond_nonpos_wb_freq_weighted_smoothed,bi_cond_nonpos_noWB,bi_cond_nonpos_noWB_freq_weighted,bi_cond_nonpos_noWB_smoothed,bi_cond_nonpos_noWB_freq_weighted_smoothed,uni_joint_pos,uni_joint_pos_freq_weighted,uni_joint_pos_smoothed,uni_joint_pos_freq_weighted_smoothed,uni_joint_nonpos,uni_joint_nonpos_freq_weighted,uni_joint_nonpos_smoothed,uni_joint_nonpos_freq_weighted_smoothed,bi_joint_pos_noWB,bi_joint_pos_noWB_freq_weighted,bi_joint_pos_noWB_smoothed,bi_joint_pos_noWB_freq_weighted_smoothed,bi_joint_pos_noWB_conditional,bi_joint_nonpos_noWB,bi_joint_nonpos_noWB_freq_weighted,bi_joint_nonpos_noWB_smoothed,bi_joint_nonpos_noWB_freq_weighted_smoothed
B AE L,3,-10.362046730148755,nan,-10.36212113478198,nan,-9.709414945226865,nan,-9.72608748163445,nan,-5.265809228395492,nan,-5.278666158907864,nan,1.1847428623894263,1,1.184583854156107,1,1.1057974219817737,nan,1.1057910373293418,nan,-10.204483761330346,,-10.304226468811017,-14.654246584518585,-7.327123292259293,1.0039456554394632,nan,1.003919210077591,nan
B AE P,3,-11.033268779328981,nan,-11.033252184777549,nan,-11.479829398108048,nan,-11.495553294614842,nan,-5.926695546737216,nan,-5.9370039348019485,nan,1.1544305771332608,1,1.1543166334798596,1,1.0766543606843715,nan,1.0766544201025081,nan,-10.903636965950504,,-10.997373649370962,-14.654246584518585,-7.327123292259293,1.0027639616784059,nan,1.002749395265224,nan
B IH S,3,-9.40070769016222,nan,-9.400923081873046,nan,-9.145510714493625,nan,-9.159839514959963,nan,-4.601705471655466,nan,-4.612288726976846,nan,1.2362203888907237,1,1.2359855550255128,1,1.145891106234086,nan,1.1458758561255498,nan,-9.119468957488667,,-9.222460352568762,-14.654246584518585,-7.327123292259293,1.0107086824448377,nan,1.0106142519133412,nan
CH AE L,3,-11.720820025288898,nan,-11.720126548210672,nan,-12.007373092699444,nan,-12.02952666084531,nan,-5.475399813304998,nan,-5.505979160794949,nan,1.1399628081562232,1,1.139869477111242,1,1.089941418987507,nan,1.089938540390983,nan,-11.807449159258828,,-11.881915682930536,-14.654246584518585,-7.327123292259293,1.0027105517909003,nan,1.0026965222793545,nan
CH AE N,3,-11.517644275219581,nan,-11.516968289276718,nan,-11.029984214242468,nan,-11.05322470999305,nan,-4.4864072496541105,nan,-4.51869936767743,nan,1.164434061114916,1,1.164304349218893,1,1.1033702512802193,nan,1.1033644033201795,nan,-11.147790648452926,,-11.225136146541466,-14.654246584518585,-7.327123292259293,1.0068364656006945,nan,1.0067809604377882,nan
CH EH N,3,-11.291310928537271,nan,-11.290681155793342,nan,-10.87173289652063,nan,-10.89779807996928,nan,-4.328248415222092,nan,-4.363363721754684,nan,1.1733663341334213,1,1.1732235122476449,1,1.1096820292961773,nan,1.1096747856851272,nan,-10.90285492164694,,-10.986678360254214,-14.654246584518585,-7.327123292259293,1.0082050939680207,nan,1.0081358307006993,nan
CH IH S,3,-10.75948098530236,nan,-10.758928495301738,nan,-11.436548419121632,nan,-11.46260350002686,nan,-4.804375613720398,nan,-4.83892653471997,nan,1.1914403346575209,1,1.191271177980648,1,1.1300351032398193,nan,1.1300233591871909,nan,-10.520801195973098,,-10.60137460639103,-14.654246584518585,-7.327123292259293,1.0089328036852823,nan,1.0088562251331739,nan
D AE L,3,-9.87799134744737,nan,-9.878167702264115,nan,-11.189717236086626,nan,-11.192708725441033,nan,-6.636579472933876,nan,-6.637685925734269,nan,1.1945349684454671,1,1.194361598505699,1,1.1190844802849091,nan,1.1190751576178164,nan,-11.370235352836083,,-11.455831287619636,-14.654246584518585,-7.327123292259293,1.0029108388690455,nan,1.0028947959763659,nan
D AE S,3,-9.868805241845081,nan,-9.868982466529236,nan,-11.279415535832442,nan,-11.282362600850902,nan,-6.625709800696972,nan,-6.626845711181405,nan,1.2088512240765277,1,1.208656570487554,1,1.119634563364467,nan,1.119625119063818,nan,-11.44480404833359,,-11.529939259773357,-14.654246584518585,-7.327123292259293,1.0029375438127983,nan,1.0029212324693006,nan
D EH M,3,-10.26256207581497,nan,-10.262704538968423,nan,-10.68421610362182,nan,-10.697919420092093,nan,-5.62107361524721,nan,-5.630550153646343,nan,1.1843025472591928,1,1.184144559041408,1,1.0981472975042108,nan,1.0981426044359777,nan,-10.380093311341163,,-10.478515853907707,-14.654246584518585,-7.327123292259293,1.003979036619154,nan,1.0039522556937597,nan
D EH P,3,-10.322880049945287,nan,-10.32301161877631,nan,-11.788000138909974,nan,-11.798842666381553,nan,-6.125426724507583,nan,-6.132782813689502,nan,1.173154956207807,1,1.1730135408582036,1,1.096253197003465,nan,1.0962489227559304,nan,-10.923708757930145,,-11.016370150061617,-14.654246584518585,-7.327123292259293,1.0031645358346963,nan,1.0031459426592468,nan
D EH S,3,-9.642471895162771,nan,-9.64269533304586,nan,-9.735690366360174,nan,-9.748328904254267,nan,-5.082077114514522,nan,-5.09290299868579,nan,1.217783497095033,1,1.217575733516306,1,1.1259463413804252,nan,1.1259355014287658,nan,-10.137779843919233,,-10.237925388989776,-14.654246584518585,-7.327123292259293,1.0054478085255534,nan,1.0054062628051763,nan
D IH DH,3,-12.90281229114849,nan,-12.898160595119919,nan,-12.907148344888142,nan,-13.011565180624611,nan,-7.47644848674721,nan,-7.448801740897758,nan,1.1675975907702358,1,1.1674649728398248,1,1.1001378043178687,nan,1.1001326711117156,nan,-10.911491231900753,,-10.96517862210454,-14.654246584518585,-7.327123292259293,1.0078245485195445,nan,1.0077591106763777,nan
D IH JH,3,-10.815785378079395,nan,-10.815567459277737,nan,-9.819156107753692,nan,-9.847130174178941,nan,-5.185935974987434,nan,-5.193469532754258,nan,1.1751565737434357,1,1.1750127180462442,1,1.1080261090979204,nan,1.108019231641493,nan,-10.03113250925266,,-10.117880761717336,-14.654246584518585,-7.327123292259293,1.0093066728978202,nan,1.0092263360342617,nan
D IH T,3,-8.783981484869674,nan,-8.78431053827356,nan,-8.381970065695505,nan,-8.393769527515962,nan,-4.037313265744663,nan,-4.047604359235603,nan,1.2286039280993952,1,1.2283806134451694,1,1.1677129587097432,nan,1.1676928833854945,nan,-8.701279459037721,,-8.805694372751168,-14.654246584518585,-7.327123292259293,1.0128584304169308,nan,1.0127423895945964,nan
D IH TH,3,-11.684726349346088,nan,-11.683637579898829,nan,-11.256139927241662,nan,-11.29975989607619,nan,-6.706340265051137,nan,-6.699565093686769,nan,1.1717206723919813,1,1.171581924770599,1,1.102797484362329,nan,1.1027917630516622,nan,-10.566650745609024,,-10.636674555132503,-14.654246584518585,-7.327123292259293,1.0080181593617517,nan,1.0079507752501553,nan
D IH V,3,-10.365978030427723,nan,-10.365988110552273,nan,-9.040150511340018,nan,-9.062370476133916,nan,-4.230736007925449,nan,-4.240753554681621,nan,1.1881748221972803,1,1.188011612568411,1,1.1131413146418505,nan,1.113133306118746,nan,-9.159737097286397,,-9.260430529866115,-14.654246584518585,-7.327123292259293,1.0119437860934004,nan,1.011836939711578,nan
D IH Z,3,-10.527788493725126,nan,-10.527728067546153,nan,-8.567460113663367,nan,-8.59285878944288,nan,-4.6017545415702745,nan,-4.611073716487016,nan,1.1845098607557287,1,1.1843520997410562,1,1.1110317176769482,nan,1.1110241756248014,nan,-9.044224210164552,,-9.14602017868837,-14.654246584518585,-7.327123292259293,1.010615215141703,nan,1.0105217241880693,nan
D IH ZH,3,-12.923325830981591,nan,-12.918569466751126,nan,-12.75838046953136,nan,-12.869946120979069,nan,-7.294126929953255,nan,-7.272911074434094,nan,1.1660705235029227,1,1.165940175828427,1,1.1001151204795363,nan,1.1001099922892001,nan,-11.952945106728915,,-11.909640230945392,-14.654246584518585,-7.327123292259293,1.0078579296992354,nan,1.0077921562925463,nan
F AE L,3,-10.541131437123969,nan,-10.541153738422842,nan,-10.304392781280896,nan,-10.318755995658446,nan,-5.740941744272508,nan,-5.751966568966843,nan,1.1800351190932525,1,1.1798830155264954,1,1.1022984399190188,nan,1.1022928289563205,nan,-10.910703023457643,,-11.00384616387658,-14.654246584518585,-7.327123292259293,1.0032045932503253,nan,1.0031855973986492,nan
F AE S,3,-10.53194533152168,nan,-10.531968502687963,nan,-10.394091081026712,nan,-10.408409871068315,nan,-5.730072072035604,nan,-5.741126354413979,nan,1.194351374724313,1,1.1941779875083505,1,1.1028485229985767,nan,1.1028427904023221,nan,-10.98527171895515,,-11.0779541360303,-14.654246584518585,-7.327123292259293,1.003231298194078,nan,1.003212033891584,nan
F EH K,3,-10.541491842651727,nan,-10.54153615218773,nan,-9.84655250686965,nan,-9.864518333478784,nan,-4.763265356377549,nan,-4.777381885599059,nan,1.1763690871564245,1,1.176222603211215,1,1.0965197321038693,nan,1.096515398920488,nan,-10.875405241376619,,-10.968754844065309,-14.654246584518585,-7.327123292259293,1.0060820509396802,nan,1.006034129512379,nan
F EH S,3,-10.30561198483937,nan,-10.305681369204587,nan,-9.733171438972198,nan,-9.7500555553423,nan,-5.069244913270909,nan,-5.082863022788984,nan,1.2032836477428184,1,1.2030971505371024,1,1.1091603010145348,nan,1.1091531727672699,nan,-10.966101802847431,,-11.058905941059606,-14.654246584518585,-7.327123292259293,1.0048202423473647,nan,1.0047850052212073,nan
F IH K,3,-9.81567225494979,nan,-9.815810468497052,nan,-9.218679756687743,nan,-9.235909452170446,nan,-4.135668568881758,nan,-4.149046644895906,nan,1.2045980850081563,1,1.204410169070014,1,1.1297515552606656,nan,1.1297398739057467,nan,-10.132121504556949,,-10.231905807231389,-14.654246584518585,-7.327123292259293,1.0127249056981675,nan,1.0126102071299221,nan
F IH S,3,-9.579792397137433,nan,-9.579955685513909,nan,-8.997785695498703,nan,-9.014291565346936,nan,-4.334135132483526,nan,-4.3473726733988025,nan,1.2315126455945502,1,1.2312847163959013,1,1.142392124171331,nan,1.1423776477525285,nan,-9.165278493519962,,-9.26792272664552,-14.654246584518585,-7.327123292259293,1.0108488833995395,nan,1.010753043501249,nan
G AE N,3,-10.753162946796763,nan,-10.753039204894124,nan,-9.746453363515743,nan,-9.76538221687807,nan,-4.566899698733923,nan,-4.584271671987922,nan,1.183039062621394,1,1.1828820634831176,1,1.1096650164174282,nan,1.1096577765682405,nan,-10.438643126546541,,-10.53198896598152,-14.654246584518585,-7.327123292259293,1.0071702773976032,nan,1.007111416599474,nan
G EH N,3,-10.526829600114453,nan,-10.526752071410748,nan,-10.602073106006923,nan,-10.605693965390685,nan,-5.422611924514924,nan,-5.424674404601557,nan,1.1919713356398993,1,1.1918012265118696,1,1.1159767944333863,nan,1.1159681589331882,nan,-11.676044809880421,,-11.731118835201709,-14.654246584518585,-7.327123292259293,1.0081450078445773,nan,1.0080763485915958,nan
G IH N,3,-9.801010012412517,nan,-9.801026387720071,nan,-10.370102230927953,nan,-10.381671513452982,nan,-5.190917012122068,nan,-5.200925593269036,nan,1.2202003334916312,1,1.2199887923706685,1,1.1492086175901826,nan,1.1491926339184468,nan,-11.305743614229923,,-11.387518919731589,-14.654246584518585,-7.327123292259293,1.0114497446339754,nan,1.0113478645922833,nan
G IH S,3,-9.994999656879543,nan,-9.994999410919146,nan,-10.706902681621344,nan,-10.718852550343815,nan,-5.4387531760266485,nan,-5.448590382462394,nan,1.210045336163999,1,1.2098488922448727,1,1.1363298683770282,nan,1.1363167324352519,nan,-10.379722597713192,,-10.464173484877545,-14.654246584518585,-7.327123292259293,1.0090462996962313,nan,1.008968580228147,nan
HH AE N,3,-11.183982899240402,nan,-11.183600038593097,nan,-8.294551290979665,nan,-8.329218370871374,nan,-3.57113926282764,nan,-3.6025139229741305,nan,1.1955804907624004,1,1.1954050975924029,1,1.1055422288005354,nan,1.105535900576042,nan,-9.777756808204817,,-9.878687693968775,-14.654246584518585,-7.327123292259293,1.0076977000367193,nan,1.007633537334937,nan
HH AE S,3,-11.377972543707427,nan,-11.37757306179217,nan,-9.361638469182457,nan,-9.395174197133505,nan,-4.549262154241623,nan,-4.578953501538784,nan,1.185425493434768,1,1.185265197466607,1,1.092663479587381,nan,1.092659999092847,nan,-10.511984014508226,,-10.609575202511568,-14.654246584518585,-7.327123292259293,1.003598491170678,nan,1.003575535669438,nan
HH EH S,3,-11.151639197025117,nan,-11.151285928308795,nan,-9.163780221454026,nan,-9.196679061581452,nan,-4.351496389803009,nan,-4.380549350087753,nan,1.1943577664532734,1,1.194184360495359,1,1.0989752576033391,nan,1.0989703814577947,nan,-10.421637819932611,,-10.51990944032692,-14.654246584518585,-7.327123292259293,1.0047334512801682,nan,1.004699086619169,nan
JH IH S,3,-10.263448838948575,nan,-10.263300416041602,nan,-10.122217481751445,nan,-10.146777590498873,nan,-4.0545122037186,nan,-4.08360159590302,nan,1.1978805274866864,1,1.1977019252259566,1,1.1335567691409063,nan,1.1335442463827277,nan,-10.461960695950165,,-10.54421619255108,-14.654246584518585,-7.327123292259293,1.0098274193009982,nan,1.0097418476464912,nan
K AE DH,3,-13.538508544214272,nan,-13.533761152040977,nan,-14.142933318510895,nan,-14.183126404061309,nan,-9.246604976704669,nan,-9.152912510073659,nan,1.1581931743742377,1,1.1580743885124634,1,1.0734842942774347,nan,1.0734850546559622,nan,-12.932881103763425,,-12.907377089963031,-14.654246584518585,-7.327123292259293,1.002323330106486,nan,1.0023131931317992,nan
K AE G,3,-11.183032449076148,nan,-11.18286701107634,nan,-11.830401713819835,nan,-11.846694555413404,nan,-6.509355620910197,nan,-6.513855180458401,nan,1.1727384900953952,1,1.172598080046028,1,1.0841456982936084,nan,1.0841441012382638,nan,-10.784446690596639,,-10.875944767469555,-14.654246584518585,-7.327123292259293,1.0031912407784491,nan,1.0031723791521818,nan
K AE K,3,-9.788228418338974,nan,-9.788424989259383,nan,-9.705512462314886,nan,-9.719522813452357,nan,-5.167186064699244,nan,-5.17697617890186,nan,1.2096935179643729,1,1.2094981677218561,1,1.119884085586122,nan,1.1198745861114892,nan,-9.731296776005285,,-9.833527037145089,-14.654246584518585,-7.327123292259293,1.005815001502153,nan,1.0057697645830306,nan
K AE NG,3,-11.49393173453063,nan,-11.49359082984035,nan,-9.29732943412365,nan,-9.328860424987173,nan,-6.202082538981246,nan,-6.208473530907218,nan,1.1668592811162397,1,1.1667276115521463,1,1.0809983157250038,nan,1.0809974146142332,nan,-10.314443061350902,,-10.412107653139483,-14.654246584518585,-7.327123292259293,1.003525052575358,nan,1.0035028353138673,nan
K AE TH,3,-12.32042260241187,nan,-12.319238136819887,nan,-11.848339787252485,nan,-11.885556699991534,nan,-7.832911641396664,nan,-7.81791144334132,nan,1.1623162559959832,1,1.1621913404432376,1,1.076143974321895,nan,1.0761441465959087,nan,-11.659915427950537,,-11.728722093621386,-14.654246584518585,-7.327123292259293,1.0025102647127548,nan,1.002498248582343,nan
K AE Z,3,-11.163484746790909,nan,-11.163328624467212,nan,-11.186284155685339,nan,-11.191161063580058,nan,-7.754950099926952,nan,-7.7419255363633965,nan,1.1751054443597306,1,1.1749615154136948,1,1.0843782076365143,nan,1.084376559169048,nan,-12.045577908762521,,-12.096446873746702,-14.654246584518585,-7.327123292259293,1.0025302934205695,nan,1.0025180759520442,nan
K AE ZH,3,-13.559022084047374,nan,-13.554170023672185,nan,-13.888804927496288,nan,-13.955033746411937,nan,-8.958922904252887,nan,-8.890548245606169,nan,1.1566661071069246,1,1.1565495915010655,1,1.0734616104391024,nan,1.0734623758334467,nan,-12.480895980020367,,-12.501911981854867,-14.654246584518585,-7.327123292259293,1.0023433588143005,nan,1.0023330205015004,nan
K EH K,3,-9.561895071656664,nan,-9.562137855776008,nan,-11.016762308629353,nan,-11.02067247365202,nan,-6.478528394303531,nan,-6.478216823202546,nan,1.2186257909828782,1,1.218417330750608,1,1.1261958636020801,nan,1.126184968476437,nan,-11.180786890927802,,-11.269508998084444,-14.654246584518585,-7.327123292259293,1.0053543412224186,nan,1.0053137350799044,nan
K EH L,3,-9.335201319446597,nan,-9.335468308527744,nan,-11.029276718773062,nan,-11.031698723375092,nan,-7.01097140122077,nan,-7.009681078214759,nan,1.2312240959382115,1,1.2309969060946404,1,1.1382863494331876,nan,1.138272780877217,nan,-11.015958491581365,,-11.105554318160564,-14.654246584518585,-7.327123292259293,1.003378175384718,nan,1.0033574346027256,nan
K EH S,3,-9.326015213844308,nan,-9.326283072792865,nan,-10.903381240731902,nan,-10.906209695515539,nan,-6.78450795119689,nan,-6.783697960392471,nan,1.245540351569272,1,1.2452918780764954,1,1.1388364325127456,nan,1.1388227423232187,nan,-11.271483452398613,,-11.359660095078741,-14.654246584518585,-7.327123292259293,1.0040925326301031,nan,1.0040646107887328,nan
L AE L,3,-9.334840913918837,nan,-9.335085894762859,nan,-10.656549297906261,nan,-10.667966874525936,nan,-5.452461258177256,nan,-5.461354332617439,nan,1.1632002290661358,1,1.1630728165870046,1,1.144065057248337,nan,1.1440502109130495,nan,-10.587476013586452,,-10.684212491618196,-14.654246584518585,-7.327123292259293,1.0052074640317787,nan,1.0051683343687627,nan
L AE N,3,-9.131665163849522,nan,-9.131927635828905,nan,-9.679160419449286,nan,-9.691664923673674,nan,-4.463468694526369,nan,-4.474074539499921,nan,1.1876714820248286,1,1.1875076886946554,1,1.1574938895410494,nan,1.157476073842246,nan,-9.927817502780549,,-10.027432955229125,-14.654246584518585,-7.327123292259293,1.009333377841573,nan,1.0092527725271965,nan
L AE T,3,-9.19298398572539,nan,-9.193241547946357,nan,-10.501745334134792,nan,-10.512633236085833,nan,-5.5057698116317635,nan,-5.5145137008975365,nan,1.1601079178498268,1,1.159985102638924,1,1.1531499345004168,nan,1.1531330793305212,nan,-10.815120697781452,,-10.910336671070542,-14.654246584518585,-7.327123292259293,1.0050806155489533,nan,1.005042761027322,nan
L EH L,3,-9.108507567236527,nan,-9.108798761279482,nan,-10.849855263859723,nan,-10.859522992856723,nan,-5.645859707420537,nan,-5.653001435049246,nan,1.1721325020846411,1,1.1719919796157565,1,1.1503768352642951,nan,1.1503605932779972,nan,-10.406581194086879,,-10.50421468685374,-14.654246584518585,-7.327123292259293,1.0052942550989752,nan,1.0052542529708008,nan
L IH S,3,-8.373501873932302,nan,-8.373887841853925,nan,-9.553637383822595,nan,-9.562792845187973,nan,-4.249349818086804,nan,-4.256050838022945,nan,1.2146777555674335,1,1.2144745174564104,1,1.1841587415006494,nan,1.1841350297092574,nan,-9.097327831611453,,-9.200481445849986,-14.654246584518585,-7.327123292259293,1.0153686951296859,nan,1.015227419930472,nan
M AE B,3,-10.972950805198664,nan,-10.972945104969662,nan,-12.375520158419942,nan,-12.385828893179088,nan,-5.858741470602309,nan,-5.866914841934193,nan,1.1431277056785765,1,1.143030569514275,1,1.0785484611851173,nan,1.0785481017825553,nan,-10.967768747724175,,-11.057110608440933,-14.654246584518585,-7.327123292259293,1.003711987181627,nan,1.0036878907644111,nan
M AE L,3,-9.945744988968746,nan,-9.945909864950542,nan,-9.536814119251268,nan,-9.551863627048576,nan,-4.97998865804722,nan,-4.991990915272058,nan,1.1849311721212732,1,1.1847718877012914,1,1.1168160964516807,nan,1.116807275366263,nan,-9.838758981871695,,-9.940479814270144,-14.654246584518585,-7.327123292259293,1.005140701672397,nan,1.0051022431364256,nan
M AE V,3,-11.385884606333349,nan,-11.385743090412753,nan,-11.230184520235802,nan,-11.246847407076675,nan,-6.416713872794002,nan,-6.420015948848421,nan,1.1414097550028492,1,1.1413151728764526,1,1.0713293296358677,nan,1.0713305665169863,nan,-11.172563160370188,,-11.257781303903084,-14.654246584518585,-7.327123292259293,1.0032780318456453,nan,1.00325829775422,nan
M AE Z,3,-11.547695069630748,nan,-11.547483047406633,nan,-11.163504253454972,nan,-11.170780306354143,nan,-7.19374253733465,nan,-7.183780696622319,nan,1.1377447935612977,1,1.1376556600490977,1,1.0692197326709654,nan,1.0692214360230416,nan,-12.123539450232233,,-12.17407203577724,-14.654246584518585,-7.327123292259293,1.002964248756551,nan,1.0029476689622354,nan
M EH K,3,-9.946105394496504,nan,-9.946292278715429,nan,-9.690470013826188,nan,-9.705324664761417,nan,-4.613808439138429,nan,-4.625104931796777,nan,1.181265140184445,1,1.181111475386011,1,1.1110373886365312,nan,1.1110298453304306,nan,-10.202192275717492,,-10.301924971822736,-14.654246584518585,-7.327123292259293,1.007277097172614,nan,1.0072171625712134,nan
M EH M,3,-10.330315717336346,nan,-10.330446701654848,nan,-10.525614683190383,nan,-10.54045240246276,nan,-5.4587844967644745,nan,-5.468233223947255,nan,1.1746987509349986,1,1.1745548482370003,1,1.0958789136709823,nan,1.0958747221844243,nan,-10.535202304610234,,-10.632666533734966,-14.654246584518585,-7.327123292259293,1.0045465166738992,nan,1.0045140311686251,nan
M IH M,3,-9.60449612963441,nan,-9.604721017964172,nan,-10.298629546745074,nan,-10.311987234076748,nan,-5.232075323005281,nan,-5.240041696166429,nan,1.2029277487867305,1,1.2027424140957992,1,1.1291107368277786,nan,1.1290991971696829,nan,-9.831957971799728,,-9.933669828386128,-14.654246584518585,-7.327123292259293,1.0072904496444903,nan,1.0072303808176808,nan
M IH P,3,-9.664814103764726,nan,-9.665028097772058,nan,-11.314889339531334,nan,-11.326535086198827,nan,-5.64890418976376,nan,-5.655898962042207,nan,1.1917801577353446,1,1.191611395912595,1,1.1272166363270328,nan,1.1272055154896357,nan,-9.935275585827753,,-10.036323982446213,-14.654246584518585,-7.327123292259293,1.0060820509396802,nan,1.006034129512379,nan
N AE L,3,-9.131665163849522,nan,-9.131927635828905,nan,-12.004538880938307,nan,-12.011865125292859,nan,-6.443235760464875,nan,-6.448343287503583,nan,1.153860066366528,1,1.1537463527458554,1,1.1574938895410494,nan,1.157476073842246,nan,-11.163898919838257,,-11.253307023508162,-14.654246584518585,-7.327123292259293,1.0037053109456888,nan,1.0036812816411775,nan
N EH N,3,-8.702156067097896,nan,-8.702482243411575,nan,-10.947610528793975,nan,-10.954973527173493,nan,-5.37479620641645,nan,-5.38056483121998,nan,1.1872635923437258,1,1.1871003878822581,1,1.1772344998497197,nan,1.1772123191363904,nan,-10.523365299942036,,-10.61511480382173,-14.654246584518585,-7.327123292259293,1.0093066728978202,nan,1.0092263360342617,nan
N IH N,3,-7.976336479395959,nan,-7.976756559720899,nan,-10.23479161145514,nan,-10.241778014055793,nan,-4.662253251763729,nan,-4.667642958707463,nan,1.2154925901954576,1,1.215287953741057,1,1.210466323006516,nan,1.210436794121649,nan,-10.992086055374882,,-11.080788652309113,-14.654246584518585,-7.327123292259293,1.0152819040624896,nan,1.015141501328434,nan
N IH S,3,-8.170326123862985,nan,-8.170729582919972,nan,-10.57159206214853,nan,-10.578959050946626,nan,-4.91008941566831,nan,-4.915307747900819,nan,1.2053375928678254,1,1.2051480536152612,1,1.1975875737933617,nan,1.197560892638454,nan,-10.06606503885815,,-10.157443217455068,-14.654246584518585,-7.327123292259293,1.0128784591247455,nan,1.0127622169642976,nan
P AE B,3,-11.033268779328981,nan,-11.033252184777549,nan,-12.502572066308066,nan,-12.511620859449133,nan,-6.445336077343862,nan,-6.451504596143772,nan,1.1681352380678505,1,1.1680014243147714,1,1.0766543606843715,nan,1.0766544201025081,nan,-11.400632830020454,,-11.487548637480476,-14.654246584518585,-7.327123292259293,1.0025302934205693,nan,1.0025180759520442,nan
P AE G,3,-11.627560746046306,nan,-11.627328513823647,nan,-11.93467371947759,nan,-11.952105764457535,nan,-6.534742665059447,nan,-6.540300094926902,nan,1.1603853716862362,1,1.1602630794819273,1,1.0670931228273137,nan,1.0670952964122102,nan,-11.295272314362627,,-11.384007958539636,-14.654246584518585,-7.327123292259293,1.002443502353373,nan,1.0024321573500061,nan
P AE JH,3,-11.896009928115337,nan,-11.895629518946103,nan,-11.695706457548768,nan,-11.711727994245193,nan,-7.517972879608711,nan,-7.511650603984085,nan,1.1533990389382787,1,1.153287133154782,1,1.0643200235911918,nan,1.064322810359686,nan,-12.681566675482518,,-12.722293100473166,-14.654246584518585,-7.327123292259293,1.0018626698267517,nan,1.001857163628673,nan
P AE V,3,-11.446202580463666,nan,-11.446050170220639,nan,-11.357236428123922,nan,-11.37263937334672,nan,-7.003308479535555,nan,-7.004605703058001,nan,1.1664172873921232,1,1.1662860276769489,1,1.069435229135122,nan,1.069436884836939,nan,-11.605427242666467,,-11.688219332942626,-14.654246584518585,-7.327123292259293,1.0020963380845878,nan,1.002088482941853,nan
P AE Z,3,-11.608013043761066,nan,-11.607790127214521,nan,-11.290556161343094,nan,-11.29657227262419,nan,-7.780337144076202,nan,-7.768370450831899,nan,1.1627523259505717,1,1.162626514849594,1,1.0673256321702196,nan,1.0673277543429944,nan,-12.556403532528513,,-12.604510064816782,-14.654246584518585,-7.327123292259293,1.0017825549954935,nan,1.0017778541498685,nan
P EH L,3,-9.779729616416754,nan,-9.779929811275052,nan,-9.28904585957193,nan,-9.302979281684085,nan,-5.191855580511132,nan,-5.201995341948121,nan,1.2188709775290523,1,1.2186619055305397,1,1.121233773966893,nan,1.1212239760511635,nan,-10.114056497159309,,-10.21413165286442,-14.654246584518585,-7.327123292259293,1.005214140267717,nan,1.0051749434919963,nan
P EH M,3,-10.390633691466663,nan,-10.390753781462735,nan,-10.111676118792417,nan,-10.127080769662358,nan,-5.504388631219939,nan,-5.513659379086387,nan,1.1997062833242726,1,1.1995257030374966,1,1.0939848131702365,nan,1.093981040504377,nan,-10.611894925398488,,-10.70882789470053,-14.654246584518585,-7.327123292259293,1.004459725606703,nan,1.0044281125665868,nan
P EH S,3,-9.770543510814464,nan,-9.77074457554017,nan,-9.16315038153077,nan,-9.177490253824532,nan,-4.965392130487253,nan,-4.976012224125833,nan,1.2331872331601128,1,1.2329568775123947,1,1.121783857046451,nan,1.1217739374971651,nan,-10.369581457976558,,-10.468237429782597,-14.654246584518585,-7.327123292259293,1.0059284975131022,nan,1.0058821196780035,nan
P IH M,3,-9.664814103764726,nan,-9.665028097772058,nan,-10.442365202196953,nan,-10.454946699909152,nan,-5.835353677310589,nan,-5.841798949938366,nan,1.2279352811760045,1,1.2277132688962955,1,1.1272166363270328,nan,1.1272055154896357,nan,-10.630950987124333,,-10.72735823816795,-14.654246584518585,-7.327123292259293,1.0056147144240077,nan,1.0055714908860192,nan
R AE L,3,-9.428630036295193,nan,-9.428865663291344,nan,-9.510060161365027,nan,-9.523242952055572,nan,-5.162031737434107,nan,-5.171170094434153,nan,1.1908064357548975,1,1.1906385343110466,1,1.1387286842806672,nan,1.1387150179162697,nan,-10.514048545031635,,-10.611453137335769,-14.654246584518585,-7.327123292259293,1.0066228260506727,nan,1.0065694684943096,nan
R EH L,3,-9.202296689612883,nan,-9.202578529807967,nan,-9.537462229389986,nan,-9.549258469776541,nan,-5.189526288748885,nan,-5.1972765962561445,nan,1.1997387087734028,1,1.1995576973397986,1,1.1450404622966253,nan,1.1450254002812175,nan,-9.585989066958813,,-9.689020071850955,-14.654246584518585,-7.327123292259293,1.007243715992923,nan,1.0071841169550446,nan
R EH M,3,-9.813200764662792,nan,-9.81340249999565,nan,-10.360092488610473,nan,-10.373359957754817,nan,-5.502059339457693,nan,-5.508940633394411,nan,1.1805740145686232,1,1.1804214948467555,1,1.1177915014999689,nan,1.117782464734431,nan,-10.08382749519799,,-10.183716313687063,-14.654246584518585,-7.327123292259293,1.006489301331909,nan,1.0064372860296351,nan
R EH P,3,-9.87351873879311,nan,-9.873709579803537,nan,-11.463876523898627,nan,-11.474283204044276,nan,-6.006412448718066,nan,-6.01117329343757,nan,1.1694264235172374,1,1.1692904766635512,1,1.115897400999223,nan,1.1158887830543838,nan,-10.627442941786974,,-10.721570609840972,-14.654246584518585,-7.327123292259293,1.0056748005474512,nan,1.0056309729951223,nan
R EH S,3,-9.193110584010594,nan,-9.193393294073086,nan,-9.411566751348825,nan,-9.42376944191699,nan,-4.963062838725006,nan,-4.971293478433857,nan,1.2140549644044634,1,1.2138526693216536,1,1.1455905453761832,nan,1.145575361727219,nan,-9.84151402777606,,-9.943125848769132,-14.654246584518585,-7.327123292259293,1.0079580732383082,nan,1.0078912931410517,nan
R IH DH,3,-12.453450979996312,nan,-12.448858556147147,nan,-13.468401530513582,nan,-13.570376491405419,nan,-8.242811011594481,nan,-8.210562993763908,nan,1.1638690580796662,1,1.1637419086451724,1,1.1197820083136267,nan,1.119772531410169,nan,-11.742391649774776,,-11.79434642587065,-14.654246584518585,-7.327123292259293,1.0074506793070066,nan,1.0073889997752898,nan
R IH N,3,-8.27330135184163,nan,-8.273694587183337,nan,-8.418498978793336,nan,-8.428284515875772,nan,-4.059235315644438,nan,-4.0655984406953,nan,1.2524389595838274,1,1.2521801353062483,1,1.1917011177461339,nan,1.1916757381956726,nan,-9.159504591626572,,-9.264183184494527,-14.654246584518585,-7.327123292259293,1.0182328003471643,nan,1.0180627337977346,nan
R IH S,3,-8.467290996308655,nan,-8.46766761038241,nan,-8.755299429486726,nan,-8.765465552766607,nan,-4.307071479549019,nan,-4.313263229888657,nan,1.2422839622561952,1,1.2420402351804525,1,1.1788223685329795,nan,1.1787998367124777,nan,-8.23348357510984,,-8.340837749640484,-14.654246584518585,-7.327123292259293,1.0158293554094202,nan,1.0156834494335982,nan
R IH SH,3,-9.894768779749677,nan,-9.894846807724331,nan,-10.732393988724386,nan,-10.748872339179787,nan,-5.45041966205852,nan,-5.454944375742589,nan,1.1696337370137733,1,1.1694980173631992,1,1.1330974214146776,nan,1.133085000226788,nan,-11.31750845580951,,-11.388881317762486,-14.654246584518585,-7.327123292259293,1.010007677671329,nan,1.0099202939738015,nan
R IH TH,3,-11.235365038193912,nan,-11.234335540926057,nan,-11.817393112867103,nan,-11.858571206856995,nan,-7.472702789898408,nan,-7.46132634655292,nan,1.1679921397014117,1,1.1678588605759466,1,1.122441688358087,nan,1.1224316233501155,nan,-11.397551163483048,,-11.465842358898612,-14.654246584518585,-7.327123292259293,1.0076442901492138,nan,1.0075806643490675,nan
R IH V,3,-9.916616719275547,nan,-9.916686071579502,nan,-9.601403696965459,nan,-9.621181786914722,nan,-4.99709853277272,nan,-5.002514807547772,nan,1.1844462895067107,1,1.1842885483737586,1,1.1327855186376086,nan,1.1327731664171994,nan,-9.99063751516042,,-10.089598333632225,-14.654246584518585,-7.327123292259293,1.0115699168808625,nan,1.0114668288104902,nan
R IH Z,3,-10.078427182572948,nan,-10.078426028573382,nan,-9.128713299288808,nan,-9.151670100223686,nan,-5.368117066417546,nan,-5.372834969353166,nan,1.1807813280651591,1,1.1806290355464037,1,1.1306759216727063,nan,1.1306640359232547,nan,-9.875124628038575,,-9.97518798245448,-14.654246584518585,-7.327123292259293,1.010241345929165,nan,1.0101516132869814,nan
R IH ZH,3,-12.473964519829416,nan,-12.469267427778355,nan,-13.3196336551568,nan,-13.428757431759875,nan,-8.060489454800527,nan,-8.034672327300246,nan,1.1623419908123531,1,1.1622171116337745,1,1.1197593244752944,nan,1.1197498525876535,nan,-12.783845524602938,,-12.738808034711502,-14.654246584518585,-7.327123292259293,1.0074840604866975,nan,1.0074220453914584,nan
S AE N,3,-9.122479058247233,nan,-9.122742400094024,nan,-9.627970714486022,nan,-9.635993206694767,nan,-5.6672075304415825,nan,-5.6723214921659455,nan,1.261978502211632,1,1.2617057256244437,1,1.1580439726206073,nan,1.1580260352882477,nan,-9.881297487145657,,-9.981341848028858,-14.654246584518585,-7.327123292259293,1.0074306505991923,nan,1.0073691724055887,nan
S EH B,3,-10.126527277864156,nan,-10.126648765563724,nan,-14.030694153242742,nan,-14.005694864705214,nan,-8.121673911068445,nan,-8.094050637074291,nan,1.2046360558287477,1,1.2044486983585285,1,1.1126592830772897,nan,1.1126513811402912,nan,-12.035336414710326,,-12.089097277043887,-14.654246584518585,-7.327123292259293,1.0036852822378743,nan,1.0036614542714763,nan
S EH CH,3,-11.485300573004299,nan,-11.484654178992416,nan,-12.245007206586951,nan,-12.256002862392466,nan,-8.012474619103454,nan,-7.9886901214164645,nan,1.1877237858432548,1,1.1875615714572973,1,1.096803280083023,nan,1.0967988842019323,nan,-12.44080152281849,,-12.46858689874879,-14.654246584518585,-7.327123292259293,1.0037053109456888,nan,1.0036812816411775,nan
S EH DH,3,-13.076295339719604,nan,-13.07161923557446,nan,-13.071273789685602,nan,-13.172541825619515,nan,-8.244276233160779,nan,-8.211833672730675,nan,1.182340873725976,1,1.1821866619921197,1,1.0924366412040583,nan,1.0924332108676917,nan,-12.15311945036671,,-12.20032291215411,-14.654246584518585,-7.327123292259293,1.0036652535300599,nan,1.0036416269017752,nan
S EH G,3,-10.720819244581481,nan,-10.720725094609822,nan,-12.249459122044282,nan,-12.258771982262374,nan,-6.9977438144160455,nan,-6.995438348406182,nan,1.1968861894471334,1,1.1967103535256844,1,1.103098045220232,nan,1.1030922574499933,nan,-11.212136105902182,,-11.29586663792696,-14.654246584518585,-7.327123292259293,1.0040457989785359,nan,1.0040183469260968,nan
S EH M,3,-9.710225536684147,nan,-9.710437495732286,nan,-10.108834890188742,nan,-10.121586565183426,nan,-5.649670666116354,nan,-5.656546226180875,nan,1.2272748280666648,1,1.2270538140525018,1,1.1236779575471967,nan,1.1236676191772124,nan,-10.105426607001453,,-10.205222518908027,-14.654246584518585,-7.327123292259293,1.0055679807724405,nan,1.005525227023383,nan
S EH NG,3,-11.031718530035961,nan,-11.031448913373833,nan,-11.633097836711148,nan,-11.607555312003552,nan,-8.607181726850147,nan,-8.556674159022405,nan,1.191006980467978,1,1.1908398850318027,1,1.0999506626516273,nan,1.0999455708259627,nan,-12.623123079612444,,-12.635640983411957,-14.654246584518585,-7.327123292259293,1.0036185198784926,nan,1.0035953630391392,nan
S EH P,3,-9.770543510814464,nan,-9.770744575540173,nan,-11.212618925476896,nan,-11.222509811472886,nan,-6.154023775376727,nan,-6.1587788862240345,nan,1.216127237015279,1,1.2159227958692975,1,1.121783857046451,nan,1.1217739374971651,nan,-10.649042053590435,,-10.743076815061936,-14.654246584518585,-7.327123292259293,1.0047534799879827,nan,1.0047189139888701,nan
S EH R,3,-9.193110584010594,nan,-9.193393294073086,nan,-10.162021664439397,nan,-10.173060345635317,nan,-4.596445248485968,nan,-4.605430440440977,nan,1.257014463097588,1,1.2567492358494752,1,1.1455905453761832,nan,1.145575361727219,nan,-9.082163755575131,,-9.187097481152602,-14.654246584518585,-7.327123292259293,1.009406816436893,nan,1.0093254728827674,nan
S EH S,3,-9.090135356031949,nan,-9.090428289809722,nan,-9.160309152927095,nan,-9.171996049345601,nan,-5.110674165383666,nan,-5.118899071220321,nan,1.260755777902505,1,1.2604849885273999,1,1.151477001423411,nan,1.1514605161700004,nan,-9.863113139579523,,-9.964632053990094,-14.654246584518585,-7.327123292259293,1.0070367526788397,nan,1.0069792341347996,nan
S EH SH,3,-10.51761313947297,nan,-10.517607487151642,nan,-11.668031963226927,nan,-11.679539935775058,nan,-6.784650598955338,nan,-6.784717317090529,nan,1.188105552660083,1,1.1879427707101466,1,1.1057520543051091,nan,1.1057456796843108,nan,-13.316270260172391,,-13.241776786982271,-14.654246584518585,-7.327123292259293,1.0041726474613613,nan,1.0041439202675373,nan
S EH V,3,-10.53946107899884,nan,-10.539446751006814,nan,-10.658228965731183,nan,-10.67497520456221,nan,-6.4525167639327226,nan,-6.455413569947929,nan,1.2029181051530204,1,1.202733301720706,1,1.10544015152804,nan,1.1054338458747222,nan,-10.621643079402322,,-10.716048142674016,-14.654246584518585,-7.327123292259293,1.0044330206629501,nan,1.004401676073652,nan
S EH ZH,3,-13.096808879552707,nan,-13.092028107205666,nan,-13.349949929155759,nan,-13.44042828361914,nan,-8.489398691193763,nan,-8.44544852391218,nan,1.1808138064586629,1,1.180661864980722,1,1.0924139573657259,nan,1.0924105320451762,nan,-12.979798023551176,,-12.954094714530491,-14.654246584518585,-7.327123292259293,1.0036318723503688,nan,1.0036085812856066,nan
S IH JH,3,-10.263448838948575,nan,-10.2633004160416,nan,-10.207659798285473,nan,-10.23273602891079,nan,-6.178417929821437,nan,-6.1814043149293045,nan,1.2181288545509077,1,1.217921973057338,1,1.1335567691409063,nan,1.1335442463827277,nan,-11.116429021944999,,-11.200556458122634,-14.654246584518585,-7.327123292259293,1.0069833427913344,nan,1.0069263611489299,nan
S IH M,3,-8.98440594898221,nan,-8.984711812041608,nan,-9.87193250659375,nan,-9.882956270150009,nan,-5.413044245207475,nan,-5.4181895717526425,nan,1.2555038259183966,1,1.2552413799113007,1,1.156909780703993,nan,1.156892094162471,nan,-9.736250887842544,,-9.838359648581804,-14.654246584518585,-7.327123292259293,1.008879393797777,nan,1.008803352147304,nan
S IH Z,3,-9.975451954594305,nan,-9.975461024310018,nan,-8.955963804195148,nan,-8.978464644174728,nan,-5.594236496404278,nan,-5.599008498662062,nan,1.2274821415632007,1,1.22726135475215,1,1.136562377719934,nan,1.136549190366036,nan,-10.129520722856888,,-10.228695875093667,-14.654246584518585,-7.327123292259293,1.0082918850352172,nan,1.0082217493027374,nan
SH AE N,3,-10.549956841688253,nan,-10.549921597435944,nan,-11.802031586560343,nan,-11.797523665493177,nan,-5.713118243933516,nan,-5.709351661137603,nan,1.167710650449053,1,1.1675761329051026,1,1.1123190255023054,nan,1.112311198802558,nan,-11.2144820229516,,-11.289674667679037,-14.654246584518585,-7.327123292259293,1.0067964081850653,nan,1.006741305698386,nan
SH EH N,3,-10.323623495005943,nan,-10.323634463952569,nan,-11.762163724807134,nan,-11.758309875956279,nan,-5.673342865470124,nan,-5.670228855701724,nan,1.1766429234675582,1,1.1764952959338546,1,1.1186308035182635,nan,1.1186215811675058,nan,-11.347540742908386,,-11.417461276346668,-14.654246584518585,-7.327123292259293,1.0081249791367626,nan,1.0080565212218946,nan
SH IH S,3,-9.791793551771033,nan,-9.791881803460964,nan,-11.063094755568905,nan,-11.076359886968278,nan,-4.885585572129202,nan,-4.8990362596214325,nan,1.1947169239916577,1,1.1945429616668577,1,1.1389838774619054,nan,1.1389701546695694,nan,-10.406390844795354,,-10.490148971280805,-14.654246584518585,-7.327123292259293,1.0095803985712857,nan,1.0094973100868438,nan
T AE L,3,-9.192983985725391,nan,-9.193241547946357,nan,-10.86166950628662,nan,-10.871882550893503,nan,-5.870962654773793,nan,-5.878518859376427,nan,1.17340661653224,1,1.1732642347360025,1,1.1531499345004168,nan,1.1531330793305212,nan,-10.70883687059072,,-10.804356803460259,-14.654246584518585,-7.327123292259293,1.0043929632473212,nan,1.00436202133425,nan
T EH M,3,-9.57755471409299,nan,-9.577778384650664,nan,-11.338139831412319,nan,-11.34954532613007,nan,-5.83742825467763,nan,-5.843835167874006,nan,1.1631741953459658,1,1.1630471952717114,1,1.1322127517197185,nan,1.1322005261486825,nan,-10.597506187946388,,-10.694541937453053,-14.654246584518585,-7.327123292259293,1.0050605868411389,nan,1.0050229336576209,nan
T EH T,3,-8.824793710849633,nan,-8.825110067646479,nan,-10.550937234187712,nan,-10.559837770090546,nan,-5.7684353831906785,nan,-5.775058069394689,nan,1.1792465783344364,1,1.179095683816674,1,1.1685465897684546,nan,1.1685263301129407,nan,-10.638664260439896,,-10.735363931973307,-14.654246584518585,-7.327123292259293,1.0052074640317787,nan,1.0051683343687625,nan
T IH S,3,-8.231644945738854,nan,-8.232043495037423,nan,-9.048869308962976,nan,-9.058122598150554,nan,-3.9579629314433613,nan,-3.964629441376945,nan,1.2248841430335378,1,1.2246659356054084,1,1.193243618752729,nan,1.1932178981267292,nan,-9.783202252842319,,-9.879239888957832,-14.654246584518585,-7.327123292259293,1.018332943886237,nan,1.01816187064624,nan
TH AE N,3,-11.890553100132486,nan,-11.889410330637672,nan,-12.25177102002646,nan,-12.22104635381487,nan,-5.4269626035278975,nan,-5.415092870254199,nan,1.1630029071528794,1,1.162875294275491,1,1.1016632924457148,nan,1.1016578219258855,nan,-12.502336311258237,,-12.493647472004973,-14.654246584518585,-7.327123292259293,1.006636178522549,nan,1.0065826867407768,nan
TH IH S,3,-11.132389810215267,nan,-11.131370536662693,nan,-11.420460868904005,nan,-11.460460161124141,nan,-4.507056611592567,nan,-4.565355054572196,nan,1.1900091806954842,1,1.189842123037246,1,1.1283281444053148,nan,1.1283167777928969,nan,-10.881814541510428,,-10.949681300659245,-14.654246584518585,-7.327123292259293,1.008879393797777,nan,1.008803352147304,nan
V AE S,3,-10.76579442568115,nan,-10.765733884490189,nan,-11.329313674579712,nan,-11.344639981310413,nan,-5.43951524239232,nan,-5.455818259613213,nan,1.1627530017203962,1,1.1626259586263978,1,1.099128373512082,nan,1.0991234635097744,nan,-11.424184761130856,,-11.509736552455838,-14.654246584518585,-7.327123292259293,1.0031712120706346,nan,1.0031525517824806,nan
V EH L,3,-10.54864718460113,nan,-10.548631986741693,nan,-10.88615937058595,nan,-10.903414789932315,nan,-5.097021393671099,nan,-5.115178142298872,nan,1.157369019107841,1,1.1572501496732948,1,1.1048900684484821,nan,1.1048838844287205,nan,-10.778630305275197,,-10.871939466979057,-14.654246584518585,-7.327123292259293,1.003898921787896,nan,1.0038729462149552,nan
V EH R,3,-10.642436306977483,nan,-10.642411755270178,nan,-11.761976404057092,nan,-11.77899005836248,nan,-4.3563290267495205,nan,-4.37572639369724,nan,1.1679439599339845,1,1.167809368977225,1,1.0995536954808123,nan,1.0995486914319408,nan,-10.253205882088054,,-10.348510671059742,-14.654246584518585,-7.327123292259293,1.0069833427913344,nan,1.00692636114893,nan
V EH S,3,-10.53946107899884,nan,-10.539446751006814,nan,-10.760263892544792,nan,-10.777925762072764,nan,-4.870557943647219,nan,-4.889195024476584,nan,1.1716852747389015,1,1.1715451216551498,1,1.10544015152804,nan,1.1054338458747222,nan,-11.034155266092448,,-11.126045243897234,-14.654246584518585,-7.327123292259293,1.0046132790332811,nan,1.0045801224009623,nan
V IH L,3,-9.822827596899192,nan,-9.822906303051017,nan,-10.798240221537185,nan,-10.814670425374825,nan,-5.009378207308448,nan,-5.0267074183465645,nan,1.1855980169595728,1,1.1854377155320936,1,1.1381218916052784,nan,1.1381083594139791,nan,-10.372981102910256,,-10.469278648555225,-14.654246584518585,-7.327123292259293,1.005774944086524,nan,1.0057301098436282,nan
V IH N,3,-9.619651846829877,nan,-9.619748044117063,nan,-9.82412466842518,nan,-9.840952112486203,nan,-4.023658969002529,nan,-4.042011263192685,nan,1.2100692699182656,1,1.2098725876397445,1,1.1515507238979907,nan,1.1515342223431757,nan,-10.536610526692057,,-10.632239958064638,-14.654246584518585,-7.327123292259293,1.012638114630971,nan,1.012524288527884,nan
V IH S,3,-9.813641491296902,nan,-9.813721067316138,nan,-10.16092511911857,nan,-10.178133149377038,nan,-4.271495132907111,nan,-4.289676052386042,nan,1.1999142725906333,1,1.1997326875139487,1,1.1386719746848364,nan,1.1386583208599808,nan,-9.610589510175325,,-9.708894523210592,-14.654246584518585,-7.327123292259293,1.010234669693227,nan,1.0101450041637476,nan
W AE N,3,-10.99734966345384,nan,-10.99709282999081,nan,-10.819959869232699,nan,-10.819827260568754,nan,-5.555466703362072,nan,-5.552738386663974,nan,1.1793858538235635,1,1.1792342127065392,1,1.107113084605046,nan,1.1071064090352427,nan,-11.942720523322816,,-11.982821848238983,-14.654246584518585,-7.327123292259293,1.0067563507694364,nan,1.0067016509589837,nan
W IH S,3,-10.239186373536619,nan,-10.239053036015832,nan,-9.209980364112138,nan,-9.236882155838073,nan,-3.856891357428635,nan,-3.88064165894202,nan,1.2063921273661682,1,1.2062010414682942,1,1.133777936564646,nan,1.133765364902254,nan,-9.157496353077907,,-9.260200680551609,-14.654246584518585,-7.327123292259293,1.0105818339620123,nan,1.0104886785719007,nan
Y AE N,3,-11.3101341845673,nan,-11.309651807197996,nan,-12.676124713364246,nan,-12.611480203371148,nan,-6.377662115087594,nan,-6.313437689272072,nan,1.1648483425249794,1,1.1647180230182987,1,1.1046348752672441,nan,1.1046287476754206,nan,-12.63586770388276,,-12.611430507661357,-14.654246584518585,-7.327123292259293,1.006629502286611,nan,1.0065760776175432,nan
Y IH S,3,-10.551970894650081,nan,-10.551612013223018,nan,-13.572035510332276,nan,-13.490184886264197,nan,-7.1849770712427485,nan,-7.10299074917385,nan,1.1918546160675842,1,1.1916848517800538,1,1.1312997272268441,nan,1.131287703542432,nan,-11.937867215759743,,-11.930510553670972,-14.654246584518585,-7.327123292259293,1.0085989918883733,nan,1.0085257689714882,nan
Z AE N,3,-10.733615244511526,nan,-10.733500818284996,nan,-13.36691174696896,nan,-13.347778793807095,nan,-5.209996929121416,nan,-5.217182965546617,nan,1.158973078891355,1,1.1588513764085435,1,1.109897525760334,nan,1.1098902344990247,nan,-13.483165564269964,,-13.3045776882213,-14.654246584518585,-7.327123292259293,1.0067697032413125,nan,1.006714869205451,nan
Z IH S,3,-9.975451954594305,nan,-9.975461024310018,nan,-12.522356369096487,nan,-12.524672244135031,nan,-4.276845710436065,nan,-4.304924792883281,nan,1.1859793524339597,1,1.1858182051702986,1,1.136562377719934,nan,1.136549190366036,nan,-11.532402107651578,,-11.562785773545654,-14.654246584518585,-7.327123292259293,1.009560369863471,nan,1.0094774827171427,nan
B AO CH,3,-13.47081854647399,nan,-13.469712638187069,nan,-15.09165332250706,nan,-14.742649177853203,nan,-10.350833766239504,nan,-9.967029642441597,nan,1.095235281842592,1,1.095208758458195,1,1.0388857698611182,nan,1.0388941806141425,nan,-16.530788779671635,,-15.92832078286352,-14.654246584518585,-7.327123292259293,1.0008278532563342,nan,1.0008327495274478,nan
B AO TH,3,-13.843727371386896,nan,-13.84215467954802,nan,-12.407322822799612,nan,-12.436594025167567,nan,-7.952938493441134,nan,-7.930147715180557,nan,1.0939754513470585,1,1.0939508009237917,1,1.0371788110266138,nan,1.0371875992198485,nan,-15.432176491003526,,-15.235173602303572,-14.654246584518585,-7.327123292259293,1.0009613779750977,nan,1.000964931992122,nan
B AW JH,3,-14.15567708604401,nan,-14.153915057931265,nan,-15.42072647162485,nan,-14.797859762827676,nan,-10.843654599397121,nan,-10.201581895335218,nan,1.0732150688256,1,1.0732208234633236,1,1.0340484413367586,nan,1.0340579217127046,nan,-17.314907738437306,,-16.687425931215262,-14.654246584518585,-7.327123292259293,1.0003004306172179,nan,1.0003106287919845,nan
CH AO B,3,-13.47081854647399,nan,-13.469712638187067,nan,-19.051856767954895,nan,-18.79990899296943,nan,-10.546181994433468,nan,-10.303831793579128,nan,1.067367497594882,1,1.0673815083145615,1,1.0388857698611182,nan,1.0388941806141425,nan,-17.027225665985526,,-16.782736111019588,-14.654246584518585,-7.327123292259293,1.0001001435390728,nan,1.000112355094973,nan
CH AO CH,3,-14.829591841614132,nan,-14.827718051615761,nan,-19.08011720550252,nan,-18.5418718674344,nan,-12.250930086671893,nan,-11.69012615469902,nan,1.050455227609389,1,1.0504943814133303,1,1.0230297668668515,nan,1.0230416836757836,nan,-18.97313581504084,,-18.169030472139475,-14.654246584518585,-7.327123292259293,1.0000400574156292,nan,1.0000528729858698,nan
CH AO D,3,-12.986763163772602,nan,-12.985759205669204,nan,-15.65100894347612,nan,-15.464825646242689,nan,-9.255197813117903,nan,-9.075166376662821,nan,1.0795840357333868,1,1.0795798844057443,1,1.0521728281642537,nan,1.052178300902617,nan,-16.48822916525284,,-16.297228295237886,-14.654246584518585,-7.327123292259293,1.00029375438128,nan,1.0003040196687507,nan
CH AO G,3,-14.065110513191314,nan,-14.063788967233165,nan,-16.86062147348288,nan,-16.685261330401275,nan,-9.012251634507512,nan,-8.837494724785703,nan,1.0596176312132677,1,1.0596431634817174,1,1.0293245320040605,nan,1.0293350569238446,nan,-15.928613377317417,,-15.771135199341106,-14.654246584518585,-7.327123292259293,1.0003671929765998,nan,1.0003767200243217,nan
CH AO NG,3,-14.376009798645795,nan,-14.374512785997176,nan,-14.577663861875699,nan,-14.416719382875183,nan,-8.955093220667564,nan,-8.781405258134658,nan,1.0537384222341122,1,1.0537726949878357,1,1.026177149435456,nan,1.026188370299814,nan,-15.605839985054367,,-15.460980271037267,-14.654246584518585,-7.327123292259293,1.0003872216844143,nan,1.0003965473940226,nan
CH AO SH,3,-13.861904408082804,nan,-13.860671359774987,nan,-18.121528069856517,nan,-17.870098761012667,nan,-10.641492174237793,nan,-10.39084317056876,nan,1.0508369944262173,1,1.0508755806661796,1,1.0319785410889377,nan,1.0319884791581622,nan,-17.027225665985526,,-16.782736111019588,-14.654246584518585,-7.327123292259293,1.0000934673031345,nan,1.0001057459717393,nan
CH AO TH,3,-15.202500666527037,nan,-15.200160092976713,nan,-16.395786705795075,nan,-16.235816714748765,nan,-9.853034813873522,nan,-9.65324422743798,nan,1.0491953971138557,1,1.049236423878927,1,1.021322808032347,nan,1.0213351022814896,nan,-17.87452352637273,,-17.47588329157953,-14.654246584518585,-7.327123292259293,1.0001735821343927,nan,1.000185055450544,nan
CH AO Z,3,-14.045562810906073,nan,-14.044250580624038,nan,-15.858212631332531,nan,-15.661858747886043,nan,-9.899554829508414,nan,-9.697695990008814,nan,1.061984585477603,1,1.062006598849384,1,1.0295570413469664,nan,1.0295675148546288,nan,-16.334078485425582,,-16.154127451597212,-14.654246584518585,-7.327123292259293,1.0001669058984546,nan,1.0001784463273102,nan
CH UW DH,3,-16.48666211946548,nan,-16.480726520514793,nan,-15.261459747629953,nan,-15.28820099229679,nan,-7.761662318510241,nan,-7.668511040006841,nan,1.03425559668911,1,1.0343186289555288,1,1.017891877484589,nan,1.0179049303760148,nan,-18.16220559882451,,-17.69902684289374,-14.654246584518585,-7.327123292259293,1.0007277097172613,nan,1.000733612678942,nan
CH UW SH,3,-13.927979919218846,nan,-13.926714772091977,nan,-13.084251333869625,nan,-13.125174339313242,nan,-5.528070097003146,nan,-5.571369921227604,nan,1.040020275623217,1,1.0400747376735557,1,1.03120729058564,nan,1.0312173991926339,nan,-17.874523526372727,,-17.475883291579528,-14.654246584518585,-7.327123292259293,1.0010615215141703,nan,1.0010640688406276,nan
CH UW TH,3,-15.268576177663078,nan,-15.266203505293706,nan,-12.914222482886121,nan,-12.97570563801034,nan,-6.2953252497168135,nan,-6.318584323057825,nan,1.0383786783108555,1,1.038435580886303,1,1.0205515575290494,nan,1.0205640223159613,nan,-16.427604543436402,,-16.194949446117466,-14.654246584518585,-7.327123292259293,1.000861234436025,nan,1.0008657951436162,nan
CH UW V,3,-13.949827858744715,nan,-13.948554035947149,nan,-12.694264243848277,nan,-12.731764507383982,nan,-5.815752169454927,nan,-5.8532210733685925,nan,1.0548328281161545,1,1.0548652686841151,1,1.030895387808571,nan,1.0309055653830452,nan,-16.55276768639041,,-16.31273248177385,-14.654246584518585,-7.327123292259293,1.0009680542110357,nan,1.0009715411153555,nan
CH UW ZH,3,-16.507175659298582,nan,-16.501135392146,nan,-13.560412373679021,nan,-13.713034686680809,nan,-6.027061263122134,nan,-6.0590731275727405,nan,1.032728529421797,1,1.032793831944131,1,1.0178691936462567,nan,1.0178822515534993,nan,-17.469058418264567,,-17.139411054958316,-14.654246584518585,-7.327123292259293,1.0009146443235304,nan,1.000918668129486,nan
D AO TH,3,-13.359671988685509,nan,-13.358201247030156,nan,-13.233581557089177,nan,-13.253479408911428,nan,-8.669665181409322,nan,-8.63943162194424,nan,1.1037675574030996,1,1.1037285452733838,1,1.0504658693297493,nan,1.050471719508323,nan,-15.547245820788312,,-15.347651585730263,-14.654246584518585,-7.327123292259293,1.0006342424141268,nan,1.0006410849536702,nan
F AW JH,3,-14.334761793019224,nan,-14.332947661572128,nan,-16.075469550063794,nan,-15.43054544235464,nan,-11.37855235765905,nan,-10.714899470897166,nan,1.0685073255294264,1,1.0685199848337121,1,1.0305494592740037,nan,1.0305597133396833,nan,-17.96153490336236,,-17.293561734785577,-14.654246584518585,-7.327123292259293,1.0001468771906399,nan,1.000158618957609,nan
F UW DH,3,-15.30697353130055,nan,-15.301753710726965,nan,-16.675578061260065,nan,-16.614123958294982,nan,-11.144302874526408,nan,-10.951192079363793,nan,1.0743279076261394,1,1.0743321673707822,1,1.030248898416101,nan,1.0302592189413524,nan,-16.958232794498574,,-16.687425931215262,-14.654246584518585,-7.327123292259293,1.0001268484828252,nan,1.0001387915879079,nan
F UW SH,3,-12.748291331053917,nan,-12.747741962304147,nan,-14.498369647499734,nan,-14.451097305311434,nan,-8.910710653019315,nan,-8.854050960584555,nan,1.0800925865602464,1,1.080088276088809,1,1.0435643115171518,nan,1.0435716877579715,nan,-16.670550722046794,,-16.46428237990105,-14.654246584518585,-7.327123292259293,1.0004606602797341,nan,1.0004692477495936,nan
F UW TH,3,-14.08888758949815,nan,-14.087230695505877,nan,-14.328340796516231,nan,-14.301628604008533,nan,-9.677965805732981,nan,-9.601265362414775,nan,1.0784509892478849,1,1.0784491193015564,1,1.0329085784605612,nan,1.032918310881299,nan,-15.223631739110468,,-15.183348534438988,-14.654246584518585,-7.327123292259293,1.000260373201589,nan,1.0002709740525821,nan
F UW V,3,-12.770139270579786,nan,-12.76958122615932,nan,-14.108382557478388,nan,-14.057687473382174,nan,-9.198392725471095,nan,-9.135902112725542,nan,1.0949051390531839,1,1.0948788070993685,1,1.0432524087400827,nan,1.0432598539483828,nan,-15.348794882064475,,-15.301131570095372,-14.654246584518585,-7.327123292259293,1.0003671929765996,nan,1.0003767200243214,nan
F UW ZH,3,-15.327487071133653,nan,-15.322162582358171,nan,-14.97453068730913,nan,-15.038957652679004,nan,-9.409701819138302,nan,-9.341754166929691,nan,1.0728008403588263,1,1.0728073703593843,1,1.0302262145777685,nan,1.030236540118837,nan,-16.26508561393863,,-16.127810143279838,-14.654246584518585,-7.327123292259293,1.0003137830890942,nan,1.000323847038452,nan
G AO B,3,-12.706337218051171,nan,-12.705783553804471,nan,-16.38203155610828,nan,-16.307873939456872,nan,-9.24038008239339,nan,-9.165211537492041,nan,1.08597249910136,1,1.0859592225787862,1,1.0451805349983272,nan,1.0451875538622035,nan,-15.417787753551426,,-15.347651585730263,-14.654246584518585,-7.327123292259293,1.0003137830890945,nan,1.000323847038452,nan
G AO CH,3,-14.065110513191314,nan,-14.063788967233165,nan,-16.410291993655907,nan,-16.04983681392184,nan,-10.945128174631815,nan,-10.551505898611932,nan,1.069060229115867,1,1.069072095677555,1,1.0293245320040605,nan,1.0293350569238446,nan,-17.363697902606738,,-16.733945946850156,-14.654246584518585,-7.327123292259293,1.0002536969656508,nan,1.0002643649293486,nan
G AO TH,3,-14.438019338104219,nan,-14.436231008594117,nan,-13.725961493948457,nan,-13.743781661236206,nan,-8.547232901833445,nan,-8.514623971350892,nan,1.0678003986203337,1,1.0678141381431516,1,1.027617573169556,nan,1.0276284755295506,nan,-16.26508561393863,,-16.04079876629021,-14.654246584518585,-7.327123292259293,1.0003872216844143,nan,1.0003965473940228,nan
G AW CH,3,-15.24600119911512,nan,-15.2436194662375,nan,-15.31641268472173,nan,-15.188481214044408,nan,-9.811981793404122,nan,-9.653784580264311,nan,1.044863945242954,1,1.0449113249414417,1,1.0209655375786137,nan,1.02097791082687,nan,-17.363697902606738,,-17.070418183471368,-14.654246584518585,-7.327123292259293,1.000113496010949,nan,1.0001255733414405,nan
G AW D,3,-13.403172521273591,nan,-13.401660620290944,nan,-13.879734587385531,nan,-13.77731421619175,nan,-8.808679684540337,nan,-8.704704025567166,nan,1.0739927533669518,1,1.0739968279338556,1,1.050108598876016,nan,1.0501145280537034,nan,-16.185042906265092,,-16.04079876629021,-14.654246584518585,-7.327123292259293,1.0002403444937742,nan,1.000251146682881,nan
G AW R,3,-12.953811210121415,nan,-12.952358581318173,nan,-16.33930158488782,nan,-16.201116305810967,nan,-9.501826865100282,nan,-9.366102507812531,nan,1.1141546224972871,1,1.1140989893336195,1,1.069752802871774,nan,1.0697543883521567,nan,-16.804082114671317,,-16.60041455422563,-14.654246584518585,-7.327123292259293,1.0001402009547016,nan,1.0001520098343752,nan
G AW TH,3,-15.618910024028025,nan,-15.616061507598456,nan,-14.942966080823021,nan,-14.839265280946275,nan,-9.724970416414491,nan,-9.573741872590775,nan,1.0436041147474207,1,1.0436533674070383,1,1.0192585787441093,nan,1.019271329432576,nan,-16.26508561393863,,-16.11490673844393,-14.654246584518585,-7.327123292259293,1.000120172246887,nan,1.0001321824646743,nan
G AW Z,3,-14.461972168407062,nan,-14.46015199524578,nan,-13.953406882617422,nan,-13.841365929807818,nan,-9.319505308306328,nan,-9.19425225088587,nan,1.056393303111168,1,1.0564235423774955,1,1.0274928120587286,nan,1.0275037420057151,nan,-16.447407170732582,,-16.281960823107095,-14.654246584518585,-7.327123292259293,1.000160229662516,nan,1.0001718372040764,nan
G UW DH,3,-15.72218079104266,nan,-15.7167974361322,nan,-16.784530771733934,nan,-16.733986637033517,nan,-10.648756642420759,nan,-10.467711482169038,nan,1.052860598195588,1,1.0528963432197536,1,1.024186642621798,nan,1.0241983036240758,nan,-16.77591123770462,,-16.520371846552095,-14.654246584518585,-7.327123292259293,1.0001335247187635,nan,1.0001454007111417,nan
G UW SH,3,-13.163498590796028,nan,-13.162785687709384,nan,-14.607322357973606,nan,-14.570959984049969,nan,-8.415164420913666,nan,-8.370570363389803,nan,1.0586252771296951,1,1.0586524519377805,1,1.037502055722849,nan,1.037510772440695,nan,-16.48822916525284,,-16.297228295237886,-14.654246584518585,-7.327123292259293,1.0004673365156724,nan,1.0004758568728274,nan
G UW TH,3,-14.50409484924026,nan,-14.50227442091111,nan,-14.437293506990102,nan,-14.421491282747068,nan,-9.182419573627332,nan,-9.117784765220023,nan,1.0569836798173335,1,1.0570132951505278,1,1.0268463226662583,nan,1.0268573955640223,nan,-15.041310182316513,,-15.01629444977582,-14.654246584518585,-7.327123292259293,1.0002670494375272,nan,1.000277583175816,nan
G UW V,3,-13.185346530321898,nan,-13.184624951564555,nan,-14.217335267952258,nan,-14.177550152120709,nan,-8.702846493365445,nan,-8.65242151553079,nan,1.0734378296226326,1,1.0734429829483398,1,1.0371901529457799,nan,1.0371989386311062,nan,-15.16647332527052,,-15.134077485432204,-14.654246584518585,-7.327123292259293,1.000373869212538,nan,1.0003833291475552,nan
G UW ZH,3,-15.742694330875764,nan,-15.737206307763408,nan,-15.083483397783002,nan,-15.15882033141754,nan,-8.914155587032653,nan,-8.858273569734937,nan,1.051333530928275,1,1.0513715462083557,1,1.0241639587834657,nan,1.0241756248015603,nan,-16.082764057144676,,-15.960756058616672,-14.654246584518585,-7.327123292259293,1.0003204593250326,nan,1.0003304561616857,nan
HH UW DH,3,-16.1530007434863,nan,-16.147358269831173,nan,-15.343678535384445,nan,-15.334975056658113,nan,-9.66404604270106,nan,-9.523105998786539,nan,1.0654020263365944,1,1.0654193773290388,1,1.0200638550049053,nan,1.0200764276318772,nan,-16.12532367156347,,-15.907267373665686,-14.654246584518585,-7.327123292259293,1.0002136395500216,nan,1.0002247101899462,nan
HH UW SH,3,-13.594318543239666,nan,-13.593346521408357,nan,-13.166470121624114,nan,-13.171948403674564,nan,-7.430453821193966,nan,-7.425964880007302,nan,1.0711667052707015,1,1.0711754860470657,1,1.0333792681059562,nan,1.0333888964484963,nan,-15.837641599111688,,-15.684123822351475,-14.654246584518585,-7.327123292259293,1.0005474513469306,nan,1.0005551663516319,nan
HH UW ZH,3,-16.173514283319403,nan,-16.16776714146238,nan,-13.64263116143351,nan,-13.759808751042135,nan,-7.929444987312953,nan,-7.9136680863524385,nan,1.0638749590692813,1,1.063894580317641,1,1.020041171166573,nan,1.0200537488093617,nan,-15.432176491003524,,-15.347651585730263,-14.654246584518585,-7.327123292259293,1.0004005741562907,nan,1.0004097656404902,nan
JH AO B,3,-12.974786400120204,nan,-12.974084558926927,nan,-17.4305007952898,nan,-17.33423476170827,nan,-9.489293549136757,nan,-9.398658533029005,nan,1.0738076904240474,1,1.0738122555598701,1,1.0424074357622053,nan,1.0424150678096793,nan,-15.705469826003206,,-15.619585301213906,-14.654246584518585,-7.327123292259293,1.0001936108422071,nan,1.000204882820245,nan
JH AW,2,-10.30849666073046,nan,-10.306779199759719,nan,-13.492116891555234,nan,-13.258605023383726,nan,-6.030685260261263,nan,-5.7745515455444085,nan,1.0242239132320536,1,1.0242636145839825,1,1.0127086204256621,nan,1.0127171497255862,nan,-9.087532231603271,,-8.855592142159725,-7.327123292259293,-3.6635616461296463,1.0000200287078145,nan,1.0000264364929348,nan
JH AW CH,3,-15.514450381184151,nan,-15.511920471359957,nan,-16.364881923903248,nan,-16.10797889075344,nan,-10.06089526014749,nan,-9.780368430258916,nan,1.0326991365656415,1,1.0327643579225256,1,1.0181924383424918,nan,1.0182054247743457,nan,-17.874523526372727,,-17.475883291579528,-14.654246584518585,-7.327123292259293,1.0000934673031345,nan,1.0001057459717393,nan
JH AW D,3,-13.671621703342623,nan,-13.6699616254134,nan,-14.92820382656705,nan,-14.696811892900783,nan,-9.057593151283704,nan,-8.83128787556177,nan,1.0618279446896393,1,1.0618498609149396,1,1.047335499639894,nan,1.0473420420011792,nan,-16.695868530031085,,-16.446263874398372,-14.654246584518585,-7.327123292259293,1.0002203157859597,nan,1.0002313193131798,nan
JH AW JH,3,-15.018418234830365,nan,-15.01629239209982,nan,-18.55976244036827,nan,-17.68403097359216,nan,-12.458790532945859,nan,-11.57212789948697,nan,1.0348752074215626,1,1.0349371936637675,1,1.021714104243579,nan,1.0217263119698825,nan,-19.26081788749262,,-18.392174023453684,-14.654246584518585,-7.327123292259293,1.0000267049437526,nan,1.0000396547394022,nan
JH AW R,3,-13.222260392190446,nan,-13.220659586440629,nan,-17.38777082406934,nan,-17.12061398252,nan,-9.75074033184365,nan,-9.492686357807134,nan,1.1019898138199746,1,1.1019520223147035,1,1.066979703635652,nan,1.0669819022996325,nan,-17.314907738437306,,-17.005879662333797,-14.654246584518585,-7.327123292259293,1.000120172246887,nan,1.000132182464674,nan
JH AW Z,3,-14.730421350476096,nan,-14.728453000368237,nan,-15.00187612179894,nan,-14.76086360651685,nan,-9.568418775049695,nan,-9.320836100880475,nan,1.0442284944338556,1,1.0442765753585794,1,1.0247197128226067,nan,1.024731255953191,nan,-16.958232794498574,,-16.68742593121526,-14.654246584518585,-7.327123292259293,1.0001402009547016,nan,1.0001520098343752,nan
JH UW DH,3,-15.990629973111691,nan,-15.985098441254657,nan,-15.422201333281173,nan,-15.43247087444232,nan,-8.486871431529849,nan,-8.373281892863409,nan,1.0406957895182756,1,1.0407493762008375,1,1.0214135433856761,nan,1.0214258175715516,nan,-15.547245820788312,,-15.347651585730263,-14.654246584518585,-7.327123292259293,1.0005608038188067,nan,1.0005683845980993,nan
JH UW SH,3,-13.431947772865058,nan,-13.43108669283184,nan,-13.244992919520845,nan,-13.269444221458771,nan,-6.253279210022754,nan,-6.276140774084171,nan,1.0464604684523826,1,1.0465054849188644,1,1.034728956486727,nan,1.0347382863881707,nan,-15.259563748336532,,-15.124508034416053,-14.654246584518585,-7.327123292259293,1.0008946156157157,nan,1.000898840759785,nan
L AW CH,3,-13.62450341616788,nan,-13.622507897172284,nan,-14.738294116889282,nan,-14.727945481899113,nan,-9.197725165430576,nan,-9.156769008835413,nan,1.0494963646463886,1,1.0495369501529794,1,1.068794410702235,nan,1.0687962081008755,nan,-16.670550722046794,,-16.46428237990105,-14.654246584518585,-7.327123292259293,1.0003805454484762,nan,1.000389938270789,nan
L AW JH,3,-13.128471269814092,nan,-13.126879817912144,nan,-16.933174633354305,nan,-16.303997564737834,nan,-11.595620438228945,nan,-10.948528478063468,nan,1.0516724355023097,1,1.0517097858942213,1,1.072316076603322,nan,1.0723170952964123,nan,-18.056845083166685,,-17.380573111775206,-14.654246584518585,-7.327123292259293,1.0003137830890942,nan,1.000323847038452,nan
L AW TH,3,-13.997412241080784,nan,-13.994949938533235,nan,-14.364847512990574,nan,-14.378729548800981,nan,-9.110713788440945,nan,-9.076726301161877,nan,1.0482365341508553,1,1.048278992618576,1,1.0670874518677305,nan,1.0670896267065815,nan,-15.571938433378683,,-15.508770934873615,-14.654246584518585,-7.327123292259293,1.0003872216844143,nan,1.0003965473940228,nan
M UW DH,3,-14.711587083145329,nan,-14.706509837254664,nan,-16.182817124769215,nan,-16.16172491958755,nan,-10.6581675138399,nan,-10.505709755571445,nan,1.0792239606541598,1,1.0792210395455781,1,1.0447665549487628,nan,1.044773665351295,nan,-16.2162954497692,,-15.994278750655315,-14.654246584518585,-7.327123292259293,1.0002737256734653,nan,1.0002841922990495,nan
M UW SH,3,-12.152904882898694,nan,-12.152498088831848,nan,-14.005608711008884,nan,-13.998698266604,nan,-8.424575292332804,nan,-8.408568636792207,nan,1.0849886395882669,1,1.084977148263605,1,1.0580819680498137,nan,1.058086134167914,nan,-15.928613377317415,,-15.771135199341106,-14.654246584518585,-7.327123292259293,1.0006075374703742,nan,1.0006146484607352,nan
M UW ZH,3,-14.732100622978432,nan,-14.726918708885872,nan,-14.48176975081828,nan,-14.58655861397157,nan,-8.923566458451791,nan,-8.896271843137344,nan,1.0776968933868467,1,1.0776962425341803,1,1.0447438711104304,nan,1.0447509865287794,nan,-15.523148269209251,,-15.434662962719894,-14.654246584518585,-7.327123292259293,1.0004606602797343,nan,1.0004692477495936,nan
N AO B,3,-10.881663685034614,nan,-10.8815137258053,nan,-17.631475651569765,nan,-17.55568952284024,nan,-10.096471036969348,nan,-10.019637985711022,nan,1.0812647558051864,1,1.0812583839491747,1,1.1064382404146607,nan,1.1064317140654056,nan,-14.74995838097577,,-14.70329456933975,-14.654246584518585,-7.327123292259293,1.0005941849984978,nan,1.0006014302142678,nan
N AO D,3,-10.397608302333229,nan,-10.397560293287437,nan,-14.23062782709099,nan,-14.220606176113497,nan,-8.805486855653783,nan,-8.790972568794714,nan,1.0934812939436913,1,1.0934567600403575,1,1.1197252987177961,nan,1.1197158343538802,nan,-14.210961880243083,,-14.217786753558048,-14.654246584518585,-7.327123292259293,1.000787795840705,nan,1.0007930947880455,nan
N AO NG,3,-11.78685493720642,nan,-11.78631387361541,nan,-13.15728274549057,nan,-13.172499912745991,nan,-8.505382263203444,nan,-8.497211450266551,nan,1.0676356804444167,1,1.067649570622449,1,1.0937296199889983,nan,1.0937259037510771,nan,-13.32857270004461,,-13.38153872935743,-14.654246584518585,-7.327123292259293,1.0008812631438393,nan,1.0008856225133174,nan
N AO TH,3,-12.613345805087661,nan,-12.611961180594946,nan,-14.975405589409943,nan,-14.991597244619573,nan,-9.403323856409404,nan,-9.369050419569872,nan,1.0630926553241602,1,1.0631132995135402,1,1.0888752785858895,nan,1.0888726357327527,nan,-15.597256241362974,,-15.396441749899695,-14.654246584518585,-7.327123292259293,1.0006676235938177,nan,1.0006741305698388,nan
N AW CH,3,-13.421327666098563,nan,-13.41934963823833,nan,-16.13507386409076,nan,-16.096214448582458,nan,-10.237289831887626,nan,-10.168128679637979,nan,1.0401562019467805,1,1.0402104863118302,1,1.0822232429949472,nan,1.082222071030072,nan,-17.874523526372727,,-17.475883291579528,-14.654246584518585,-7.327123292259293,1.0002069633140835,nan,1.0002181010667124,nan
N AW D,3,-11.578498988257033,nan,-11.577390792291773,nan,-14.698395766754563,nan,-14.685047450729801,nan,-9.23398772302384,nan,-9.219048124940834,nan,1.0692850100707783,1,1.0692959893042442,1,1.1113663042923494,nan,1.1113586882569055,nan,-16.695868530031085,,-16.446263874398372,-14.654246584518585,-7.327123292259293,1.0003338117969087,nan,1.0003436744081529,nan
N AW JH,3,-12.925295519744775,nan,-12.92372155897819,nan,-18.329954380555783,nan,-17.67226653142118,nan,-12.635185104685997,nan,-11.959888148866034,nan,1.0423322728027016,1,1.042383322053072,1,1.0857449088960343,nan,1.0857429582256088,nan,-19.26081788749262,,-18.392174023453684,-14.654246584518585,-7.327123292259293,1.0001402009547016,nan,1.0001520098343752,nan
N AW TH,3,-13.794236491011468,nan,-13.791791679599282,nan,-15.761627260192054,nan,-15.746998515484327,nan,-10.150278454897997,nan,-10.088085971964443,nan,1.0388963714512471,1,1.0389525287774268,1,1.0805162841604428,nan,1.080515489635778,nan,-16.77591123770462,,-16.520371846552095,-14.654246584518585,-7.327123292259293,1.0002136395500216,nan,1.0002247101899462,nan
P AW JH,3,-13.799693318994319,nan,-13.798010867907713,nan,-15.50465515660297,nan,-14.876021539850386,nan,-11.273906238855998,nan,-10.626090071247528,nan,1.0984109109467208,1,1.0983797118090044,1,1.0431730153059198,nan,1.0431804780695786,nan,-17.363697902606738,,-16.733945946850156,-14.654246584518585,-7.327123292259293,1.000267049437527,nan,1.000277583175816,nan
P UW DH,3,-14.771905057275646,nan,-14.76681691706255,nan,-16.03065569564552,nan,-16.000657520157276,nan,-10.965548783569634,nan,-10.803440144080707,nan,1.1042314930434338,1,1.1041918943460745,1,1.042872454448017,nan,1.0428799836712477,nan,-17.0635933101564,,-16.782736111019588,-14.654246584518585,-7.327123292259293,1.0002136395500216,nan,1.0002247101899462,nan
P UW SH,3,-12.213222857029011,nan,-12.212805168639733,nan,-13.85344728188519,nan,-13.837630867173727,nan,-8.731956562062539,nan,-8.706299025301469,nan,1.1099961719775409,1,1.1099480030641014,1,1.056187867549068,nan,1.0561924524878668,nan,-16.77591123770462,,-16.559592559705376,-14.654246584518585,-7.327123292259293,1.0005474513469306,nan,1.0005551663516319,nan
P UW ZH,3,-14.79241859710875,nan,-14.787225788693757,nan,-14.329608321694586,nan,-14.425491214541298,nan,-9.230947728181528,nan,-9.194002231646605,nan,1.1027044257761207,1,1.1026670973346766,1,1.0428497706096846,nan,1.0428573048487322,nan,-16.370446129596456,,-16.223120323084164,-14.654246584518585,-7.327123292259293,1.0004005741562907,nan,1.0004097656404902,nan
R AO CH,3,-12.537401852620427,nan,-12.536457166696431,nan,-15.907385196901743,nan,-15.552118979402339,nan,-11.262142933534637,nan,-10.871847909095901,nan,1.1012988552080634,1,1.1012634386131348,1,1.0718170321600118,nan,1.0718181612010704,nan,-17.586841453920947,,-16.94525504051736,-14.654246584518585,-7.327123292259293,1.0008345294922723,nan,1.0008393586506814,nan
R AO SH,3,-11.569714419089099,nan,-11.569410474855657,nan,-14.948796061255733,nan,-14.880345872980607,nan,-9.652705021100537,nan,-9.57256492496564,nan,1.1016806220248916,1,1.101644637865984,1,1.080765806382098,nan,1.080764956683449,nan,-15.640931304865635,,-15.55896067939747,-14.654246584518585,-7.327123292259293,1.0008879393797776,nan,1.000892231636551,nan
R AW JH,3,-13.222260392190446,nan,-13.220659586440629,nan,-15.71132317704064,nan,-15.091355924093422,nan,-11.229828597713366,nan,-10.590426521706132,nan,1.0792786421910714,1,1.0792755036182633,1,1.066979703635652,nan,1.0669819022996325,nan,-17.651379975058518,,-17.005879662333797,-14.654246584518585,-7.327123292259293,1.0005073939313014,nan,1.0005155116122295,nan
SH AO B,3,-12.503131112942661,nan,-12.502665946346292,nan,-17.715475061719683,nan,-17.628126025702294,nan,-9.664463910159785,nan,-9.578402164272035,nan,1.0706440869290188,1,1.0706532920007712,1,1.0478345440832044,nan,1.047840976096521,nan,-15.368997589381994,,-15.301131570095372,-14.654246584518585,-7.327123292259293,1.0002603732015891,nan,1.0002709740525821,nan
SH AO CH,3,-13.861904408082804,nan,-13.860671359774987,nan,-17.74373549926731,nan,-17.37008890016726,nan,-11.36921200239821,nan,-10.964696525391926,nan,1.053731816943526,1,1.05376616509954,1,1.0319785410889377,nan,1.0319884791581622,nan,-17.314907738437306,,-16.687425931215262,-14.654246584518585,-7.327123292259293,1.0002002870781455,nan,1.0002114919434788,nan
SH AO D,3,-12.019075730241275,nan,-12.01871251382843,nan,-14.314627237240908,nan,-14.293042678975551,nan,-8.373479728844218,nan,-8.349736747355728,nan,1.0828606250675237,1,1.082851668091954,1,1.06112160238634,nan,1.0611250963849956,nan,-14.830001088649308,,-14.81562375431367,-14.654246584518585,-7.327123292259293,1.0004539840437963,nan,1.0004626386263598,nan
SH AO G,3,-13.097423079659986,nan,-13.09674227539239,nan,-15.52423976724767,nan,-15.513478363134137,nan,-8.130533550233828,nan,-8.11206509547861,nan,1.0628942205474046,1,1.0629149471679271,1,1.0382733062261467,nan,1.0382818524062232,nan,-14.270385300713883,,-14.28953065841689,-14.654246584518585,-7.327123292259293,1.000527422639116,nan,1.0005353389819307,nan
SH AO NG,3,-13.408322365114467,nan,-13.407466094156401,nan,-13.241282155640487,nan,-13.244936415608045,nan,-8.073375136393881,nan,-8.055975628827564,nan,1.057015011568249,1,1.0570444786740454,1,1.035125923657542,nan,1.0351351657821926,nan,-13.947611908450833,,-13.979375730113052,-14.654246584518585,-7.327123292259293,1.0005474513469306,nan,1.0005551663516317,nan
SH AO SH,3,-12.894216974551476,nan,-12.893624667934212,nan,-16.7851463636213,nan,-16.69831579374553,nan,-9.75977408996411,nan,-9.665413541261666,nan,1.0541135837603541,1,1.0541473643523893,1,1.040927315311024,nan,1.0409352746405407,nan,-15.368997589381994,,-15.301131570095372,-14.654246584518585,-7.327123292259293,1.0002536969656508,nan,1.0002643649293483,nan
SH AO TH,3,-14.234813232995709,nan,-14.233113401135938,nan,-15.059404999559861,nan,-15.064033747481627,nan,-8.971316729599838,nan,-8.927814598130887,nan,1.0524719864479926,1,1.0525082075651366,1,1.0302715822544333,nan,1.0302818977638681,nan,-16.2162954497692,,-15.994278750655315,-14.654246584518585,-7.327123292259293,1.000333811796909,nan,1.000343674408153,nan
SH AO Z,3,-13.077875377374745,nan,-13.077203888783263,nan,-14.52183092509732,nan,-14.490075780618906,nan,-9.017836745234732,nan,-8.97226636070172,nan,1.06526117481174,1,1.0652783825355938,1,1.0385058155690525,nan,1.0385143103370074,nan,-14.675850408822049,,-14.672522910672996,-14.654246584518585,-7.327123292259293,1.0003271355609709,nan,1.0003370652849193,nan
SH AW CH,3,-15.04279509400661,nan,-15.040501858779322,nan,-16.804006870160393,nan,-16.601583454253287,nan,-10.390216300997775,nan,-10.15982536100777,nan,1.0295355330706129,1,1.0296053943634267,1,1.023619546663491,nan,1.0236313330611875,nan,-17.874523526372727,,-17.475883291579528,-14.654246584518585,-7.327123292259293,1.0001001435390728,nan,1.000112355094973,nan
SH AW D,3,-13.199966416165081,nan,-13.198543012832765,nan,-15.367328772824195,nan,-15.19041645640063,nan,-9.38691419213399,nan,-9.210744806310622,nan,1.0586643411946106,1,1.0586908973558407,1,1.0527626079608932,nan,1.052767950288021,nan,-16.695868530031085,,-16.446263874398372,-14.654246584518585,-7.327123292259293,1.000226992021898,nan,1.0002379284364136,nan
SH AW JH,3,-14.546762947652823,nan,-14.544873779519182,nan,-18.998887386625416,nan,-18.17763553709201,nan,-12.788111573796144,nan,-11.951584830235824,nan,1.031711603926534,1,1.0317782301046685,1,1.027141212564578,nan,1.0271522202567243,nan,-19.26081788749262,,-18.392174023453684,-14.654246584518585,-7.327123292259293,1.0000333811796909,nan,1.000046263862636,nan
SH AW L,3,-12.65681598263655,nan,-12.655461205331507,nan,-15.873914133312553,nan,-15.680737797869517,nan,-9.743589136072721,nan,-9.553689557437453,nan,1.0882512694988025,1,1.0882338394516742,1,1.077743184924321,nan,1.077743003583254,nan,-16.621760557877362,,-16.37727100291142,-14.654246584518585,-7.327123292259293,1.0001669058984546,nan,1.0001784463273102,nan
SH AW TH,3,-15.415703918919515,nan,-15.412943900140274,nan,-16.430560266261686,nan,-16.252367521155154,nan,-10.303204924008144,nan,-10.079782653334233,nan,1.0282757025750795,1,1.0283474368290233,1,1.0219125878289865,nan,1.0219247516668934,nan,-16.77591123770462,,-16.520371846552095,-14.654246584518585,-7.327123292259293,1.000106819775011,nan,1.000118964218207,nan
SH AW Z,3,-14.258766063298552,nan,-14.257034387787598,nan,-15.441001068056085,nan,-15.254468170016697,nan,-9.89773981589998,nan,-9.700293031629329,nan,1.041064890938827,1,1.0411176117994805,1,1.0301468211436058,nan,1.0301571642400327,nan,-16.958232794498574,,-16.68742593121526,-14.654246584518585,-7.327123292259293,1.0001468771906399,nan,1.000158618957609,nan
SH UW DH,3,-15.51897468593415,nan,-15.51367982867402,nan,-16.894799266035466,nan,-16.881080681997013,nan,-9.849665458877283,nan,-9.707744067667107,nan,1.037532186023247,1,1.0375904126417386,1,1.0268406517066753,nan,1.0268517258583933,nan,-16.86292261469425,,-16.60041455422563,-14.654246584518585,-7.327123292259293,1.0002870781453415,nan,1.000297410545517,nan
SH UW TH,3,-14.30088874413175,nan,-14.299156813452932,nan,-14.547562001291634,nan,-14.568585327710561,nan,-8.383328390083854,nan,-8.357817350718092,nan,1.0416552676449924,1,1.0417073645725128,1,1.0295003317511355,nan,1.0295108177983399,nan,-15.128321559306144,,-15.096337157449357,-14.654246584518585,-7.327123292259293,1.0004206028641052,nan,1.0004295930101912,nan
SH UW V,3,-12.982140425213387,nan,-12.981507344106374,nan,-14.32760376225379,nan,-14.324644197084204,nan,-7.903755309821968,nan,-7.892454101028859,nan,1.0581094174502914,1,1.0581370523703248,1,1.039844162030657,nan,1.0398523608654238,nan,-15.253484702260149,,-15.21412019310574,-14.654246584518585,-7.327123292259293,1.0005274226391159,nan,1.0005353389819305,nan
SH UW ZH,3,-15.539488225767254,nan,-15.534088700305226,nan,-15.193751892084535,nan,-15.30591437638103,nan,-8.115064403489175,nan,-8.098306155233008,nan,1.0360051187559338,1,1.0360656156303407,1,1.026817967868343,nan,1.0268290470358779,nan,-16.169775434134305,,-16.04079876629021,-14.654246584518585,-7.327123292259293,1.0004740127516105,nan,1.000482465996061,nan
T AW CH,3,-13.482646487974431,nan,-13.480663550355782,nan,-15.287449334272555,nan,-15.255849018415162,nan,-9.960261571030024,nan,-9.897921395742882,nan,1.0597027521124929,1,1.0597283683019774,1,1.0778792879543146,nan,1.0778790765183472,nan,-16.48822916525284,,-16.297228295237886,-14.654246584518585,-7.327123292259293,1.0002269920218982,nan,1.0002379284364136,nan
T AW JH,3,-12.986614341620644,nan,-12.985035471095642,nan,-17.482329850737578,nan,-16.831901101253884,nan,-12.358156843828397,nan,-11.689680864970937,nan,1.061878822968414,1,1.0619012040432192,1,1.0814009538554017,nan,1.081399963713884,nan,-17.87452352637273,,-17.213519027112042,-14.654246584518585,-7.327123292259293,1.0001602296625163,nan,1.0001718372040764,nan
TH AO B,3,-13.843727371386896,nan,-13.84215467954802,nan,-17.095589743390942,nan,-17.042615930451216,nan,-8.308683517959308,nan,-8.27511058981586,nan,1.0659363436328453,1,1.0659524533711595,1,1.0371788110266138,nan,1.0371875992198485,nan,-16.015624754307048,,-15.907267373665686,-14.654246584518585,-7.327123292259293,1.0002336682578363,nan,1.0002445375596474,nan
TH AO CH,3,-15.202500666527037,nan,-15.200160092976713,nan,-17.123850180938568,nan,-16.784578804916183,nan,-10.013431610197733,nan,-9.66140495093575,nan,1.0490240736473524,1,1.0490653264699283,1,1.021322808032347,nan,1.0213351022814896,nan,-17.96153490336236,,-17.293561734785577,-14.654246584518585,-7.327123292259293,1.0001735821343927,nan,1.000185055450544,nan
TH AO G,3,-14.438019338104219,nan,-14.436231008594119,nan,-14.904354448918928,nan,-14.92796826788306,nan,-6.774753158033352,nan,-6.8087735210224345,nan,1.058186477251231,1,1.0582141085383154,1,1.027617573169556,nan,1.0276284755295506,nan,-14.917012465638937,,-14.895666461987204,-14.654246584518585,-7.327123292259293,1.0005007176953633,nan,1.000508902488996,nan
TH AO SH,3,-14.234813232995709,nan,-14.233113401135938,nan,-16.16526104529256,nan,-16.112805698494455,nan,-8.403993697763633,nan,-8.362121966805491,nan,1.0494058404641806,1,1.0494465257227776,1,1.0302715822544333,nan,1.0302818977638681,nan,-16.015624754307048,,-15.907267373665686,-14.654246584518585,-7.327123292259293,1.000226992021898,nan,1.0002379284364136,nan
TH AO TH,3,-15.575409491439943,nan,-15.572602134337668,nan,-14.43951968123112,nan,-14.47852365223055,nan,-7.615536337399362,nan,-7.624523023674712,nan,1.047764243151819,1,1.047807368935525,1,1.0196158491978426,nan,1.0196285208871956,nan,-16.86292261469425,,-16.60041455422563,-14.654246584518585,-7.327123292259293,1.0003071068531562,nan,1.0003172379152183,nan
V AW JH,3,-14.568610887178693,nan,-14.566713043374355,nan,-17.6703913901092,nan,-16.9784296989055,nan,-11.747694774508172,nan,-11.041245522405163,nan,1.0369089525255095,1,1.0369679559517595,1,1.026829309787509,nan,1.0268403864471356,nan,-19.26081788749262,,-18.392174023453684,-14.654246584518585,-7.327123292259293,1.0000734385953198,nan,1.000085918602038,nan
V AW R,3,-12.772453044538775,nan,-12.771080237715164,nan,-16.498399773810267,nan,-16.415012707833338,nan,-9.039644573405962,nan,-8.961803980725328,nan,1.1040235589239216,1,1.1039827846026955,1,1.0720949091795822,nan,1.0720959767768856,nan,-17.314907738437306,,-17.005879662333797,-14.654246584518585,-7.327123292259293,1.0001669058984544,nan,1.00017844632731,nan
V AW TH,3,-15.437551858445385,nan,-15.434783163995448,nan,-15.102064269745467,nan,-15.053161682968646,nan,-9.262788124720172,nan,-9.169443345503572,nan,1.033473051174055,1,1.0335371626761143,1,1.0216006850519175,nan,1.0216129178573048,nan,-16.77591123770462,,-16.520371846552095,-14.654246584518585,-7.327123292259293,1.0001468771906399,nan,1.000158618957609,nan
W UW DH,3,-15.966367507699736,nan,-15.960851061228887,nan,-16.69043211729583,nan,-16.644868004193825,nan,-10.469718486893846,nan,-10.292614520314714,nan,1.0492073893977574,1,1.049248492443175,1,1.021634710809416,nan,1.021646936091078,nan,-17.181376345812787,,-16.888096626677413,-14.654246584518585,-7.327123292259293,1.0001335247187635,nan,1.0001454007111417,nan
W UW TH,3,-14.748281565897337,nan,-14.746328046007797,nan,-14.343194852551997,nan,-14.332372649907374,nan,-9.00338141810042,nan,-8.942687803365699,nan,1.0533304710195028,1,1.0533654443739493,1,1.0242943908538762,nan,1.0243060280310246,nan,-15.446775290424679,,-15.384019229901138,-14.654246584518585,-7.327123292259293,1.0002670494375272,nan,1.000277583175816,nan
W UW V,3,-13.429533246978973,nan,-13.428678576661241,nan,-14.123236613514154,nan,-14.088431519281016,nan,-8.523808337838533,nan,-8.477324553676466,nan,1.0697846208248019,1,1.0697951321717614,1,1.0346382211333978,nan,1.0346475710981085,nan,-15.571938433378683,,-15.501802265557522,-14.654246584518585,-7.327123292259293,1.000373869212538,nan,1.0003833291475552,nan
W UW ZH,3,-15.98688104753284,nan,-15.981259932860095,nan,-14.989384743344896,nan,-15.069701698577843,nan,-8.73511743150574,nan,-8.683176607880615,nan,1.0476803221304443,1,1.0477236954317772,1,1.0216120269710836,nan,1.0216242572685625,nan,-16.48822916525284,,-16.32848083874199,-14.654246584518585,-7.327123292259293,1.0003204593250326,nan,1.0003304561616857,nan
Y AO CH,3,-14.62208175096185,nan,-14.620401569537037,nan,-17.98183985935121,nan,-17.590528098434127,nan,-11.39776710683229,nan,-10.975265213915291,nan,1.0508695090194524,1,1.0509080552127361,1,1.0242943908538764,nan,1.0243060280310248,nan,-18.056845083166685,,-17.380573111775206,-14.654246584518585,-7.327123292259293,1.000106819775011,nan,1.000118964218207,nan
Y AO D,3,-12.779253073120323,nan,-12.77844272359048,nan,-14.55273159732481,nan,-14.513481877242418,nan,-8.4020348332783,nan,-8.360305435879093,nan,1.0799983171434502,1,1.07999355820515,1,1.0534374521512786,nan,1.0534426452578582,nan,-15.571938433378683,,-15.508770934873615,-14.654246584518585,-7.327123292259293,1.0003605167406617,nan,1.0003701109010879,nan
Y AO G,3,-13.857600422539033,nan,-13.856472485154443,nan,-15.762344127331573,nan,-15.733917561401004,nan,-8.159088654667912,nan,-8.122633784001973,nan,1.060031912623331,1,1.0600568372811232,1,1.0305891559910854,nan,1.0305994012790858,nan,-15.012322645443263,,-14.982677838976835,-14.654246584518585,-7.327123292259293,1.0004339553359816,nan,1.0004428112566588,nan
Y AO NG,3,-14.168499707993515,nan,-14.167196303918454,nan,-13.479386515724391,nan,-13.465375613874912,nan,-8.101930240827961,nan,-8.06654431735093,nan,1.0541527036441756,1,1.0541863687872415,1,1.0274417734224808,nan,1.0274527146550552,nan,-14.68954925318021,,-14.672522910672996,-14.654246584518585,-7.327123292259293,1.000453984043796,nan,1.0004626386263598,nan
Y AO SH,3,-13.654394317430523,nan,-13.653354877696263,nan,-17.023250723705203,nan,-16.918754992012396,nan,-9.788329194398191,nan,-9.675982229785031,nan,1.0512512758362806,1,1.0512892544655854,1,1.0332431650759626,nan,1.0332528235134033,nan,-16.11093493411137,,-15.994278750655315,-14.654246584518585,-7.327123292259293,1.0001602296625163,nan,1.0001718372040764,nan
Y AO TH,3,-14.994990575874757,nan,-14.992843610897992,nan,-15.297509359643765,nan,-15.284472945748494,nan,-8.999871834033922,nan,-8.93838328665425,nan,1.049609678523919,1,1.0496500976783327,1,1.022587432019372,nan,1.0225994466367307,nan,-16.958232794498574,,-16.687425931215262,-14.654246584518585,-7.327123292259293,1.0002403444937744,nan,1.0002511466828812,nan
Y AW CH,3,-15.802972436885657,nan,-15.800232068541376,nan,,nan,-17.77221493606999,nan,,nan,-11.12058633308097,nan,1.0266732251465394,1,1.0267472844766228,1,1.0159353964284297,nan,1.01594888193405,nan,,,-18.862177652699422,-14.654246584518585,-7.327123292259293,1.00007343859532,nan,1.0000859186020383,nan
Y AW D,3,-13.96014375904413,nan,-13.95827322259482,nan,,nan,-16.361047938217332,nan,,nan,-10.171505778383825,nan,1.0558020332705371,1,1.0558327874690367,1,1.0450784577258319,nan,1.0450854991608836,nan,,,-17.832558235518263,-14.654246584518585,-7.327123292259293,1.0002002870781452,nan,1.0002114919434788,nan
Y AW JH,3,-15.306940290531871,nan,-15.304603989281237,nan,,nan,-19.34826701890871,nan,,nan,-12.912345802309025,nan,1.0288492960024604,1,1.0289201202178646,1,1.0194570623295167,nan,1.0194697691295869,nan,,,-19.77846838457358,-14.654246584518585,-7.327123292259293,1.000006676235938,nan,1.0000198273697012,nan
Y AW R,3,-13.510782447891952,nan,-13.508971183622046,nan,,nan,-18.784850027836548,nan,,nan,-10.832904260629189,nan,1.0959639024008725,1,1.0959349488688006,1,1.06472266172159,nan,1.0647253594593369,nan,,,-18.392174023453684,-14.654246584518585,-7.327123292259293,1.0001001435390726,nan,1.000112355094973,nan
Y AW T,3,-13.27513639732215,nan,-13.27334706827706,nan,,nan,-14.771074096064428,nan,,nan,-8.642648352609063,nan,1.08229665035842,1,1.0822880156167898,1,1.0791439119413395,nan,1.0791434208735884,nan,,,-17.69902684289374,-14.654246584518585,-7.327123292259293,1.0009480255032213,nan,1.0009517137456545,nan
Y AW TH,3,-16.175881261798565,nan,-16.172674109902328,nan,,nan,-17.422999002971856,nan,,nan,-11.040543625407434,nan,1.025413394651006,1,1.0254893269422194,1,1.0142284375939252,nan,1.014242300539756,nan,,,-17.906666207671986,-14.654246584518585,-7.327123292259293,1.0000801148312581,nan,1.0000925277252721,nan
Y AW Z,3,-15.018943406177602,nan,-15.016764597549653,nan,,nan,-16.4250996518334,nan,,nan,-10.66105400370253,nan,1.0382025830147534,1,1.0382595019126766,1,1.0224626709085445,nan,1.0224747131128953,nan,,,-18.07372029233515,-14.654246584518585,-7.327123292259293,1.000120172246887,nan,1.0001321824646743,nan
Z UW B,3,-12.752865026901974,nan,-12.752288579512337,nan,-18.08581445917447,nan,-18.028767346756112,nan,-7.890656491146096,nan,-7.862070833779221,nan,1.0510897965683206,1,1.0511276925115882,1,1.0446417938379353,nan,1.0446489318274594,nan,-15.67729894903651,,-15.529973142524218,-14.654246584518585,-7.327123292259293,1.0004740127516105,nan,1.000482465996061,nan
Z UW DH,3,-15.702633088757423,nan,-15.697259049523073,nan,-19.237383995032094,nan,-19.174972390793265,nan,-10.124248712653191,nan,-9.959211952558459,nan,1.0287946144655489,1,1.0288656561451794,1,1.024419151964704,nan,1.02443076155486,nan,-17.87452352637273,,-17.47588329157953,-14.654246584518585,-7.327123292259293,1.0001402009547016,nan,1.0001520098343752,nan
Z UW SH,3,-13.143950888510787,nan,-13.143247301100256,nan,-17.060175581271764,nan,-17.011945737809718,nan,-7.890656491146096,nan,-7.862070833779221,nan,1.034559293399656,1,1.0346217648632063,1,1.0377345650657548,nan,1.037743230371479,nan,-17.586841453920947,,-17.25273974026532,-14.654246584518585,-7.327123292259293,1.0004740127516105,nan,1.000482465996061,nan
Z UW TH,3,-14.484547146955022,nan,-14.482736034301983,nan,-16.890146730288258,nan,-16.862477036506814,nan,-8.657911643859762,nan,-8.609285235609441,nan,1.0329176960872943,1,1.0329826080759537,1,1.0270788320091642,nan,1.0270898534948065,nan,-16.139922470984622,,-15.971805894803257,-14.654246584518585,-7.327123292259293,1.0002737256734653,nan,1.0002841922990495,nan
Z UW V,3,-13.165798828036657,nan,-13.165086564955427,nan,-16.670188491250414,nan,-16.618535905880456,nan,-8.178338563597876,nan,-8.143921985920208,nan,1.0493718458925934,1,1.0494122958737657,1,1.0374226622886857,nan,1.0374313965618904,nan,-16.26508561393863,,-16.08958893045964,-14.654246584518585,-7.327123292259293,1.000380545448476,nan,1.0003899382707888,nan
Z UW ZH,3,-15.723146628590525,nan,-15.71766792115428,nan,-17.53633662108116,nan,-17.599806085177285,nan,-8.389647657265083,nan,-8.349774040124357,nan,1.0272675471982358,1,1.0273408591337816,1,1.0243964681263715,nan,1.0244080827323445,nan,-17.181376345812787,,-16.916267503644107,-14.654246584518585,-7.327123292259293,1.0003271355609706,nan,1.0003370652849193,nan
B AH L,3,-8.920646747881365,nan,-8.920895341470574,nan,-7.537242146034028,nan,-7.552680369605293,nan,-3.0662259249862363,nan,-3.0779053099721487,nan,1.2004968291478024,1,1.2003146986540747,1,1.1859791195268152,nan,1.1859550052161292,nan,-10.029956192295689,,-10.130002122249682,-14.654246584518585,-7.327123292259293,1.0299562706546048,nan,1.0296683541961325,nan
B AY N,3,-10.745198190193634,nan,-10.745108178050915,nan,-10.28996080201668,nan,-10.306497653832405,nan,-5.767327750742227,nan,-5.781803836896818,nan,1.1771785370117076,1,1.177030166877938,1,1.1082019088449957,nan,1.1081949925159884,nan,-11.58511721787535,,-11.671652345626525,-14.654246584518585,-7.327123292259293,1.0024101211736822,nan,1.0023991117338373,nan
B AY S,3,-10.939187834660661,nan,-10.939081201249987,nan,-11.302878693425214,nan,-11.314207583550122,nan,-6.6912813553619515,nan,-6.699997518917058,nan,1.1670235396840754,1,1.1668902667521421,1,1.0953231596318413,nan,1.0953190910327935,nan,-12.752048750520938,,-12.818120655472269,-14.654246584518585,-7.327123292259293,1.00135527589545,nan,1.001354870262911,nan
B ER S,3,-10.149724194279308,nan,-10.149841411963,nan,-10.436559246196099,nan,-10.450014976961072,nan,-5.4244389514694635,nan,-5.438557223753166,nan,1.1678150069135633,1,1.1676805723369683,1,1.1119447421698228,nan,1.1119369982310519,nan,-11.862439692062011,,-11.944670082274605,-14.654246584518585,-7.327123292259293,1.003117802183129,nan,1.0030996787966109,nan
B IY L,3,-9.831606431347264,nan,-9.831774761024512,nan,-11.149790984020132,nan,-11.158915769968164,nan,-5.987377776251805,nan,-5.9982916488061555,nan,1.1643154700855027,1,1.1641864433477371,1,1.1231845840634695,nan,1.1231743547874995,nan,-11.801478992272326,,-11.885269515028968,-14.654246584518585,-7.327123292259293,1.002436826117435,nan,1.0024255482267723,nan
B IY S,3,-9.822420325744975,nan,-9.822589525289633,nan,-11.215090817165395,nan,-11.22431854011963,nan,-5.952109637414347,nan,-5.963200328994885,nan,1.1786317257165633,1,1.1784814153295922,1,1.1237346671430275,nan,1.123724316233501,nan,-11.699349497195945,,-11.784173398157598,-14.654246584518585,-7.327123292259293,1.0024835597690023,nan,1.0024718120894083,nan
CH AH N,3,-10.076244292952193,nan,-10.075742495965313,nan,-9.464283858127693,nan,-9.499470331252553,nan,-2.8932963893229173,nan,-2.937591252030379,nan,1.1801880278732926,1,1.1800351937168607,1,1.1835519488252608,nan,1.1835283712069669,nan,-11.596002102206885,,-11.62627036871179,-14.654246584518585,-7.327123292259293,1.0364388957505757,nan,1.0360858128560664,nan
CH AY N,3,-12.103971485333776,nan,-12.103113591479607,nan,-12.460085577979374,nan,-12.463621648739952,nan,-5.8490849641418485,nan,-5.8628016544805925,nan,1.1323984827785047,1,1.1323157898330731,1,1.092345905850729,nan,1.0923424955776295,nan,-13.211084432260662,,-13.23383737321008,-14.654246584518585,-7.327123292259293,1.0018826985345661,nan,1.001876990998374,nan
CH IY N,3,-10.98720397641809,nan,-10.986621915519253,nan,-12.501407857508486,nan,-12.522886653368836,nan,-5.239023401983173,nan,-5.2751585126177964,nan,1.1440066688109927,1,1.1439069384105232,1,1.1207574133619151,nan,1.1207477207783372,nan,-13.208728718568203,,-13.250510466951026,-14.654246584518585,-7.327123292259293,1.0024568548252495,nan,1.0024453755964733,nan
D AH S,3,-8.42740525957769,nan,-8.427756673217829,nan,-8.756798807258559,nan,-8.767799576829832,nan,-4.07568256790667,nan,-4.084928950253775,nan,1.2246051908349043,1,1.2243874149855218,1,1.1998162609095087,nan,1.1997890869506054,nan,-10.88288676340989,,-10.97699891384039,-14.654246584518585,-7.327123292259293,1.017318156023634,nan,1.0171572839147158,nan
D AY P,3,-11.13554060674179,nan,-11.135444054462575,nan,-12.681180340987188,nan,-12.688415888744302,nan,-6.951090794045809,nan,-6.955970400007488,nan,1.1321871048528904,1,1.132105818443632,1,1.0789170735580167,nan,1.0789166326484327,nan,-11.944269710309644,,-12.023986837103193,-14.654246584518585,-7.327123292259293,1.0014020095470175,nan,1.0014011341255469,nan
D AY T,3,-10.322461629368116,nan,-10.322468657650504,nan,-9.85464300600953,nan,-9.871086896447002,nan,-5.4421941108335865,nan,-5.458262451516694,nan,1.1594070788927469,1,1.1592853251717987,1,1.1171450121074986,nan,1.1171361182927382,nan,-11.080497012718936,,-11.173447482791818,-14.654246584518585,-7.327123292259293,1.0030243348799948,nan,1.003007151071339,nan
D ER S,3,-9.665668811577923,nan,-9.665887979445134,nan,-10.236518706663183,nan,-10.247955474770691,nan,-5.114866365615171,nan,-5.128896244582609,nan,1.1776071129696044,1,1.1774583166865604,1,1.1252318004729582,nan,1.1252211185195264,nan,-12.373265315828004,,-12.442508510513786,-14.654246584518585,-7.327123292259293,1.004052475214474,nan,1.0040249560493306,nan
D IY K,3,-9.574244800855945,nan,-9.574490875754911,nan,-11.229266164966239,nan,-11.238125147573722,nan,-5.437392314103004,nan,-5.449461544142395,nan,1.1615092711862105,1,1.161384612353297,1,1.1243811565354975,nan,1.124370662675194,nan,-11.377999950393093,,-11.467807478666352,-14.654246584518585,-7.327123292259293,1.0036852822378743,nan,1.0036614542714763,nan
D IY S,3,-9.338364943043588,nan,-9.338636092771768,nan,-10.79995520932226,nan,-10.808280161264605,nan,-5.427441983249835,nan,-5.439560473159682,nan,1.1884238317726044,1,1.1882591596791843,1,1.137021725446163,nan,1.1370084365219757,nan,-11.31798194066684,,-11.408384058195551,-14.654246584518585,-7.327123292259293,1.0036986347097507,nan,1.0036746725179437,nan
D IY T,3,-9.20569412045243,nan,-9.205976981690148,nan,-10.357124706992977,nan,-10.365761671957149,nan,-5.293291970129246,nan,-5.3060290805351595,nan,1.1710152649252348,1,1.1708764737492487,1,1.1455565196186848,nan,1.1455413434934458,nan,-11.38836273742864,,-11.478063978833541,-14.654246584518585,-7.327123292259293,1.0038922455519579,nan,1.0038663370917214,nan
F AH L,3,-9.09973145485658,nan,-9.099927945111437,nan,-8.066249973284577,nan,-8.082666915160988,nan,-3.4753884320597686,nan,-3.488523751562827,nan,1.1957890858516291,1,1.1956138600244632,1,1.1824801374640603,nan,1.182456796843108,nan,-10.477268410339354,,-10.572738625155075,-14.654246584518585,-7.327123292259293,1.0273925960543446,nan,1.027130450874387,nan
F AY K,3,-11.354152399448232,nan,-11.353968587873993,nan,-10.85613330629926,nan,-10.875831863194573,nan,-5.705330023268171,nan,-5.722309779270085,nan,1.135401235801508,1,1.1353148807966433,1,1.079183608658421,nan,1.0791831088129904,nan,-12.01231381512201,,-12.093684441050792,-14.654246584518585,-7.327123292259293,1.0020829856127116,nan,1.0020752646953854,nan
F ER S,3,-10.328808901254522,nan,-10.328874015603862,nan,-10.361250587139649,nan,-10.37665007109218,nan,-5.229284972235996,nan,-5.24582421391926,nan,1.1631072636173898,1,1.1629797337073569,1,1.1084457601070679,nan,1.1084387898580306,nan,-11.631327971098624,,-11.717612631639259,-14.654246584518585,-7.327123292259293,1.0031044497112527,nan,1.0030864605501435,nan
F ER T,3,-10.196138078663363,nan,-10.19621490452224,nan,-10.244237517143146,nan,-10.258515021086932,nan,-5.420952391448189,nan,-5.436676260596946,nan,1.1456986967700202,1,1.1455970477774213,1,1.1169805542795896,nan,1.1169716968295007,nan,-12.026640707742771,,-12.108039862382885,-14.654246584518585,-7.327123292259293,1.0028040190940348,nan,1.0027890500046264,nan
F IY K,3,-10.237384890532546,nan,-10.237476911913639,nan,-12.013144864979523,nan,-12.021544843817225,nan,-6.210957740260648,nan,-6.221114613401056,nan,1.147009421833996,1,1.1469060293740934,1,1.1075951161696072,nan,1.107588334013698,nan,-12.095839743543412,,-12.173076019758643,-14.654246584518585,-7.327123292259293,1.0020562806689588,nan,1.0020488282024507,nan
F IY N,3,-9.807515388253162,nan,-9.807649105731423,nan,-11.03481632415417,nan,-11.043948465722398,nan,-5.740954111014913,nan,-5.752978398330116,nan,1.184078979748022,1,1.1839204768257765,1,1.133114434293427,nan,1.1331020093436748,nan,-12.353062608510484,,-12.427310158142884,-14.654246584518585,-7.327123292259293,1.0028574289815402,nan,1.002841922990496,nan
F IY S,3,-10.001505032720189,nan,-10.001622128930496,nan,-11.583833909335546,nan,-11.591699857508106,nan,-6.20100740940748,nan,-6.211213542418344,nan,1.1739239824203898,1,1.1737805766999807,1,1.1202356850802726,nan,1.1202261078604798,nan,-12.035821733817158,,-12.113652599287843,-14.654246584518585,-7.327123292259293,1.0020696331408352,nan,1.002062046448918,nan
G AY N,3,-11.339490156910959,nan,-11.339184507097013,nan,-12.275167015920758,nan,-12.24500031092116,nan,-7.0281897018897705,nan,-6.997595114087269,nan,1.1510034842849828,1,1.1508935040972978,1,1.098640670987938,nan,1.0986358688256905,nan,-13.393405989054617,,-13.400891457873247,-14.654246584518585,-7.327123292259293,1.0018493173548753,nan,1.0018439453822054,nan
G EY S,3,-11.213312273781716,nan,-11.213102338899713,nan,-11.084063436802897,nan,-11.103680801474555,nan,-5.741527444147042,nan,-5.7599415815586905,nan,1.1343659934586885,1,1.1342806248957833,1,1.090979204591209,nan,1.0909760965210686,nan,-12.640744680962264,,-12.706895020362044,-14.654246584518585,-7.327123292259293,1.0019160797142572,nan,1.0019100366145428,nan
HH AH S,3,-9.936572561440038,nan,-9.936347268480766,nan,-9.851662796714358,nan,-9.87490194725769,nan,-5.011875977557103,nan,-5.031327514756411,nan,1.2011794601931447,1,1.2009960419645749,1,1.1728451771324226,nan,1.1728239669796343,nan,-10.966768247390593,,-11.059886573646159,-14.654246584518585,-7.327123292259293,1.013005307607571,nan,1.012887790305738,nan
HH AY N,3,-11.770310109354597,nan,-11.769745340795987,nan,-9.628804695926444,nan,-9.663069335417653,nan,-4.83796901852525,nan,-4.870070235576666,nan,1.1635449124259891,1,1.163416538206583,1,1.0945178833710452,nan,1.094513992833492,nan,-11.313964447374781,,-11.404337575999177,-14.654246584518585,-7.327123292259293,1.0023700637580533,nan,1.002359456994435,nan
HH AY S,3,-11.964299753821622,nan,-11.96371836399506,nan,-10.641722587334979,nan,-10.670779265135371,nan,-5.761922623144974,nan,-5.7882639175969075,nan,1.1533899150983569,1,1.1532766380807873,1,1.0816391341578908,nan,1.081638091350297,nan,-12.480895980020367,,-12.550805885844921,-14.654246584518585,-7.327123292259293,1.001315218479821,nan,1.0013152155235086,nan
HH EY N,3,-11.450142581758328,nan,-11.449690149399613,nan,-10.729824984501766,nan,-10.743542565084752,nan,-5.93239491526451,nan,-5.943725689859271,nan,1.157062418927327,1,1.1569435591308643,1,1.0997351661874706,nan,1.099730122012065,nan,-12.417423367670873,,-12.485450704800794,-14.654246584518585,-7.327123292259293,1.0023099776346096,nan,1.0022999748853318,nan
HH EY S,3,-11.644132226225354,nan,-11.643663172598686,nan,-11.379211836195937,nan,-11.391068174669378,nan,-6.492817480169873,nan,-6.50173505174642,nan,1.1469074215996948,1,1.1468036590050685,1,1.0868564169743162,nan,1.08685422052887,nan,-12.674646232637945,,-12.739684843185035,-14.654246584518585,-7.327123292259293,1.001422038254832,nan,1.001420961495248,nan
HH IY N,3,-10.65354260043891,nan,-10.65325366483563,nan,-11.166172200534566,nan,-11.181101349979418,nan,-5.723952681445584,nan,-5.741194103646752,nan,1.175153098458477,1,1.1750076867840331,1,1.1229293908822313,nan,1.1229192180341996,nan,-12.607954858139273,,-12.675146322047464,-14.654246584518585,-7.327123292259293,1.0024702072971259,nan,1.0024585938429407,nan
JH AH N,3,-9.580212146598406,nan,-9.580114416705175,nan,-8.499707421851666,nan,-8.525290780072792,nan,-2.493187480415278,nan,-2.5239126715616536,nan,1.186628220702458,1,1.1864659409621694,1,1.1870736147263479,nan,1.1870492584025036,nan,-10.274246262224565,,-10.362578329684233,-14.654246584518585,-7.327123292259293,1.0377741429382115,nan,1.0374076375028087,nan
JH AY N,3,-11.607939338979989,nan,-11.60748551221947,nan,-12.3941002964781,nan,-12.381738648380562,nan,-6.347567210008963,nan,-6.34141962483224,nan,1.1388386756076703,1,1.1387465370783818,1,1.095867571751816,nan,1.0958633827731663,nan,-13.393405989054617,,-13.400891457873247,-14.654246584518585,-7.327123292259293,1.001876022298628,nan,1.0018703818751404,nan
K AH K,3,-8.346828436071585,nan,-8.34719919594798,nan,-9.392596485427557,nan,-9.402388540794139,nan,-4.826859583595496,nan,-4.8324881693370845,nan,1.2254474847227494,1,1.225229012219824,1,1.2000657831311636,nan,1.2000385539982765,nan,-9.352392545926868,,-9.45305199789862,-14.654246584518585,-7.327123292259293,1.0147077477718063,nan,1.0145731167303347,nan
K AH N,3,-7.9169589337922,nan,-7.917371389765762,nan,-6.841090016329184,nan,-6.851010876200242,nan,-2.7836780260767418,nan,-2.7905706677670716,nan,1.2625170426367756,1,1.262243459671507,1,1.2255851012549834,nan,1.2255522293282533,nan,-7.688991638602284,,-7.797628972222695,-14.654246584518585,-7.327123292259293,1.045551957806189,nan,1.045107266070083,nan
