connormayer/uci_phonotactic_calculator/src/output.csv
word,word_len,uni_prob,uni_prob_freq_weighted,uni_prob_smoothed,uni_prob_freq_weighted_smoothed,uni_joint_nonpos,uni_joint_nonpos_freq_weighted,uni_joint_nonpos_smoothed,uni_joint_nonpos_freq_weighted_smoothed,uni_joint_pos,uni_joint_pos_freq_weighted,uni_joint_pos_smoothed,uni_joint_pos_freq_weighted_smoothed,uni_joint_pos_prod,uni_joint_pos_freq_weighted_prod,uni_joint_pos_smoothed_prod,uni_joint_pos_freq_weighted_smoothed_prod,bi_cond_pos_wb,bi_cond_pos_wb_freq_weighted,bi_cond_pos_wb_smoothed,bi_cond_pos_wb_freq_weighted_smoothed,bi_cond_pos_wb_prod,bi_cond_pos_wb_freq_weighted_prod,bi_cond_pos_wb_smoothed_prod,bi_cond_pos_wb_freq_weighted_smoothed_prod,bi_cond_pos_noWB,bi_cond_pos_noWB_freq_weighted,bi_cond_pos_noWB_smoothed,bi_cond_pos_noWB_freq_weighted_smoothed,bi_cond_pos_noWB_prod,bi_cond_pos_noWB_freq_weighted_prod,bi_cond_pos_noWB_smoothed_prod,bi_cond_pos_noWB_freq_weighted_smoothed_prod,bi_cond_nonpos_wb,bi_cond_nonpos_wb_freq_weighted,bi_cond_nonpos_wb_smoothed,bi_cond_nonpos_wb_freq_weighted_smoothed,bi_cond_nonpos_noWB,bi_cond_nonpos_noWB_freq_weighted,bi_cond_nonpos_noWB_smoothed,bi_cond_nonpos_noWB_freq_weighted_smoothed,bi_joint_pos_wb,bi_joint_pos_wb_freq_weighted,bi_joint_pos_wb_smoothed,bi_joint_pos_wb_freq_weighted_smoothed,bi_joint_pos_wb_prod,bi_joint_pos_wb_freq_weighted_prod,bi_joint_pos_wb_smoothed_prod,bi_joint_pos_wb_freq_weighted_smoothed_prod,bi_joint_pos_noWB,bi_joint_pos_noWB_freq_weighted,bi_joint_pos_noWB_smoothed,bi_joint_pos_noWB_freq_weighted_smoothed,bi_joint_pos_noWB_prod,bi_joint_pos_noWB_freq_weighted_prod,bi_joint_pos_noWB_smoothed_prod,bi_joint_pos_noWB_freq_weighted_smoothed_prod,bi_joint_nonpos_wb,bi_joint_nonpos_wb_freq_weighted,bi_joint_nonpos_wb_smoothed,bi_joint_nonpos_wb_freq_weighted_smoothed,bi_joint_nonpos_noWB,bi_joint_nonpos_noWB_freq_weighted,bi_joint_nonpos_noWB_smoothed,bi_joint_nonpos_noWB_freq_weighted_smoothed
B AE L,3,-10.362046730148755,-10.362046730148755,-10.36212113478198,-10.36212113478198,1.1057974219817737,1.0,1.1057974219817737,1.0769230769230766,1.1847428623894263,-8.38014476392161,1.1847428623894263,-8.38014476392161,1.184583854156107,-8.38270420273234,1.184583854156107,-8.38270420273234,1.360255290309767,-9.784131779711085,1.360255290309767,-9.784131779711085,1.354520231306974,-9.840536627746712,1.354520231306974,-9.840536627746712,1.2074111970534376,-4.536972855239737,1.2074111970534376,-4.536972855239737,1.2035218462172028,-4.574513008095353,1.2035218462172028,-4.574513008095353,-9.709414945226865,-9.709414945226865,-9.72608748163445,-9.72608748163445,-5.265809228395492,-5.265809228395492,-5.278168112908658,-5.278168112908658,1.0712390287187783,-18.164276543632695,1.0712390287187783,-18.164276543632695,1.067327585468476,-18.38035186304493,1.067327585468476,-18.38035186304493,1.0121795988572762,-10.204483761330346,1.0121795988572762,-10.204483761330346,1.0115867582558784,-10.304226468811017,1.0115867582558784,-10.304226468811017,,,-21.97313471513801,-21.97313471513801,-5.265809228395492,-5.265809228395492,-5.278168112908658,-5.278168112908658
B AE P,3,-11.033268779328981,-11.033268779328981,-11.033252184777549,-11.033252184777549,1.0766543606843715,1.0,1.0766543606843715,1.0769230769230766,1.1544305771332608,-8.98005001774129,1.1544305771332608,-8.98005001774129,1.1543166334798596,-8.982142815775253,1.1543166334798596,-8.982142815775253,1.3042718144035224,-10.559719792755127,1.3042718144035224,-10.559719792755127,1.2986041443852534,-10.62280325885732,1.2986041443852534,-10.62280325885732,1.158771938223096,-5.236126059859894,1.158771938223096,-5.236126059859894,1.1559567273044056,-5.267660188655298,1.1559567273044056,-5.267660188655298,-11.479829398108048,-11.479829398108048,-11.495553294614842,-11.495553294614842,-5.926695546737216,-5.926695546737216,-5.936505888802742,-5.936505888802742,1.0647517884944209,-19.539769810496416,1.0647517884944209,-19.539769810496416,1.061211596121408,-19.74442308738011,1.061211596121408,-19.74442308738011,1.0089727575959186,-10.903636965950502,1.0089727575959186,-10.903636965950502,1.0085559085355102,-10.997373649370962,1.0085559085355102,-10.997373649370962,,,-24.234719629309367,-24.234719629309367,-5.926695546737216,-5.926695546737216,-5.936505888802742,-5.936505888802742
B IH S,3,-9.40070769016222,-9.40070769016222,-9.400923081873046,-9.400923081873046,1.145891106234086,1.0,1.145891106234086,1.0769230769230766,1.2362203888907237,-7.735743179606336,1.2362203888907237,-7.735743179606336,1.2359855550255128,-7.738612309961699,1.2359855550255128,-7.738612309961699,1.4057046191436895,-9.894695479474239,1.4057046191436895,-9.894695479474239,1.4005760901953062,-9.938070100632665,1.4005760901953062,-9.938070100632665,1.3056187608836043,-3.9039958136461945,1.3056187608836043,-3.9039958136461945,1.3010892122770075,-3.9367210158318,1.3010892122770075,-3.9367210158318,-9.145510714493625,-9.145510714493625,-9.159839514959963,-9.159839514959963,-4.601705471655466,-4.601705471655466,-4.611929181576418,-4.611929181576418,1.0827357938568265,-17.630438659080575,1.0827357938568265,-17.630438659080575,1.0781724556343346,-17.84564030886512,1.0781724556343346,-17.84564030886512,1.0267346698982924,-9.119468957488667,1.0267346698982924,-9.119468957488667,1.0253425467013495,-9.222460352568762,1.0253425467013495,-9.222460352568762,,,-27.371278950849817,-27.371278950849817,-4.601705471655466,-4.601705471655466,-4.611929181576418,-4.611929181576418
CH AE L,3,-11.720820025288898,-11.720820025288898,-11.720126548210672,-11.720126548210672,1.089941418987507,1.0,1.089941418987507,1.0769230769230766,1.1399628081562232,-10.309655258443847,1.1399628081562232,-10.309655258443847,1.139869477111242,-10.307995064584919,1.139869477111242,-10.307995064584919,1.358228864422864,-11.387097177639568,1.358228864422864,-11.387097177639568,1.3337230776852742,-11.566325650319044,1.3337230776852742,-11.566325650319044,1.2501648253997373,-4.210427758645982,1.2501648253997373,-4.210427758645982,1.2279103208131463,-4.371569432451575,1.2279103208131463,-4.371569432451575,-12.007373092699444,-12.007373092699444,-12.02952666084531,-12.02952666084531,-5.475399813304998,-5.475399813304998,-5.504558860861337,-5.504558860861337,1.0218265550821406,-21.696752436083415,1.0218265550821406,-21.696752436083415,1.0207234365625368,-21.883331939017026,1.0207234365625368,-21.883331939017026,1.0075438622274189,-11.807449159258828,1.0075438622274189,-11.807449159258828,1.0072023567445074,-11.881915682930536,1.0072023567445074,-11.881915682930536,,,-20.229249885746377,-20.229249885746377,-5.475399813304998,-5.475399813304998,-5.504558860861337,-5.504558860861337
CH AE N,3,-11.517644275219581,-11.517644275219581,-11.516968289276718,-11.516968289276718,1.1033702512802193,1.0,1.1033702512802193,1.0769230769230766,1.164434061114916,-9.999083750254792,1.164434061114916,-9.999083750254792,1.164304349218893,-9.997575170441195,1.164304349218893,-9.997575170441195,1.4157746263561892,-11.12040970678979,1.4157746263561892,-11.12040970678979,1.390205183965821,-11.296084362906564,1.390205183965821,-11.296084362906564,1.3404948775132288,-3.5507692478400807,1.3404948775132288,-3.5507692478400807,1.3162455416511984,-3.7147898960625043,1.3162455416511984,-3.7147898960625043,-11.029984214242468,-11.029984214242468,-11.05322470999305,-11.05322470999305,-4.4864072496541105,-4.4864072496541105,-4.517279067743819,-4.517279067743819,1.0271715523862046,-21.11949345704458,1.0271715523862046,-21.11949345704458,1.025764820123539,-21.30846952509584,1.025764820123539,-21.30846952509584,1.0134994245699402,-11.147790648452927,1.0134994245699402,-11.147790648452927,1.0128310776537623,-11.225136146541466,1.0128310776537623,-11.225136146541466,,,-19.82194498196366,-19.82194498196366,-4.4864072496541105,-4.4864072496541105,-4.517279067743819,-4.517279067743819
CH EH N,3,-11.291310928537271,-11.291310928537271,-11.290681155793342,-11.290681155793342,1.1096820292961773,1.0,1.1096820292961773,1.0769230769230766,1.1733663341334213,-9.87062593523097,1.1733663341334213,-9.87062593523097,1.1732235122476449,-9.869187039543961,1.1732235122476449,-9.869187039543961,1.4354016156053695,-11.003931795007624,1.4354016156053695,-11.003931795007624,1.404116686800169,-11.183354850981408,1.404116686800169,-11.183354850981408,1.3599904265235683,-3.4349399671907763,1.3599904265235683,-3.4349399671907763,1.3301467604210666,-3.602760190816102,1.3301467604210666,-3.602760190816102,-10.87173289652063,-10.87173289652063,-10.89779807996928,-10.89779807996928,-4.328248415222092,-4.328248415222092,-4.361988941648616,-4.361988941648616,1.0276612925356092,-20.874557730238593,1.0276612925356092,-20.874557730238593,1.0262267189874654,-21.07001173880859,1.0262267189874654,-21.07001173880859,1.0139918193038735,-10.90285492164694,1.0139918193038735,-10.90285492164694,1.0132966497011555,-10.986678360254214,1.0132966497011555,-10.986678360254214,,,-26.432608981048435,-26.432608981048435,-4.328248415222092,-4.328248415222092,-4.361988941648616,-4.361988941648616
CH IH S,3,-10.75948098530236,-10.75948098530236,-10.758928495301738,-10.758928495301738,1.1300351032398193,1.0,1.1300351032398193,1.0769230769230766,1.1914403346575209,-9.665253674128575,1.1914403346575209,-9.665253674128575,1.191271177980648,-9.663903171814276,1.191271177980648,-9.663903171814276,1.4279573285750629,-11.296027717958669,1.4279573285750629,-11.296027717958669,1.4020196397748586,-11.465084162907745,1.4020196397748586,-11.465084162907745,1.3726515245481805,-3.3758175576083875,1.3726515245481805,-3.3758175576083875,1.347762456045687,-3.5350024798907698,1.347762456045687,-3.5350024798907698,-11.436548419121632,-11.436548419121632,-11.46260350002686,-11.46260350002686,-4.804375613720398,-4.804375613720398,-4.837644735385137,-4.837644735385137,1.0341518830403154,-20.961281392087244,1.0341518830403154,-20.961281392087244,1.032349778737489,-21.14984542453997,1.032349778737489,-21.14984542453997,1.0229280894136128,-10.520801195973098,1.0229280894136128,-10.520801195973098,1.0217423470863214,-10.60137460639103,1.0217423470863214,-10.60137460639103,,,-26.70100510792088,-26.70100510792088,-4.804375613720398,-4.804375613720398,-4.837644735385137,-4.837644735385137
D AE L,3,-9.87799134744737,-9.87799134744737,-9.878167702264115,-9.878167702264115,1.1190844802849091,1.0,1.1190844802849091,1.0769230769230766,1.1945349684454671,-8.208786511924924,1.1945349684454671,-8.208786511924924,1.194361598505699,-8.211459089545782,1.194361598505699,-8.211459089545782,1.288408967093263,-10.949883371216824,1.288408967093263,-10.949883371216824,1.2849586816525946,-10.987842902710902,1.2849586816525946,-10.987842902710902,1.1257727677808924,-5.874082698742161,1.1257727677808924,-5.874082698742161,1.1241243206658311,-5.893171911567139,1.1241243206658311,-5.893171911567139,-11.189717236086626,-11.189717236086626,-11.192708725441033,-11.192708725441033,-6.636579472933876,-6.636579472933876,-6.637237408876026,-6.637237408876026,1.0770389684596642,-19.158669883141748,1.0770389684596642,-19.158669883141748,1.0727978895321304,-19.36071156866699,1.0727978895321304,-19.36071156866699,1.0081845737941473,-11.370235352836083,1.0081845737941473,-11.370235352836083,1.007808330937136,-11.455831287619636,1.007808330937136,-11.455831287619636,,,-20.407682242074237,-20.407682242074237,-6.636579472933876,-6.636579472933876,-6.637237408876026,-6.637237408876026
D AE S,3,-9.868805241845081,-9.868805241845081,-9.868982466529236,-9.868982466529236,1.119634563364467,1.0,1.119634563364467,1.0769230769230766,1.2088512240765277,-8.015633674294397,1.2088512240765277,-8.015633674294397,1.208656570487554,-8.018405997961903,1.208656570487554,-8.018405997961903,1.2286755329260497,-11.768781823634416,1.2286755329260497,-11.768781823634416,1.226642621103634,-11.798247436565601,1.226642621103634,-11.798247436565601,1.1188243022337008,-5.948651394239669,1.1188243022337008,-5.948651394239669,1.1173293036782888,-5.9672798837208605,1.1173293036782888,-5.9672798837208605,-11.279415535832442,-11.279415535832442,-11.282362600850902,-11.282362600850902,-6.625709800696972,-6.625709800696972,-6.626397194323161,-6.626397194323161,1.0737234503451734,-19.784415497928816,1.0737234503451734,-19.784415497928816,1.069672920073602,-19.98187410288316,1.069672920073602,-19.98187410288316,1.0077264536139534,-11.444804048333593,1.0077264536139534,-11.444804048333593,1.0073753524056548,-11.529939259773359,1.0073753524056548,-11.529939259773359,,,-17.835614936487662,-17.835614936487662,-6.625709800696972,-6.625709800696972,-6.626397194323161,-6.626397194323161
D EH M,3,-10.26256207581497,-10.26256207581497,-10.262704538968423,-10.262704538968423,1.0981472975042108,1.0,1.0981472975042108,1.0769230769230766,1.1843025472591928,-8.416119347672915,1.1843025472591928,-8.416119347672915,1.184144559041408,-8.418635033100406,1.184144559041408,-8.418635033100406,1.3109289421709847,-10.313437709706482,1.3109289421709847,-10.313437709706482,1.3065085021119018,-10.366104433748662,1.3065085021119018,-10.366104433748662,1.1684949980195516,-5.013047103403924,1.1684949980195516,-5.013047103403924,1.165925545358986,-5.04228455889606,1.165925545358986,-5.04228455889606,-10.68421610362182,-10.68421610362182,-10.697919420092093,-10.697919420092093,-5.62107361524721,-5.62107361524721,-5.630147156615644,-5.630147156615644,1.0772623225196465,-18.7295570573794,1.0772623225196465,-18.7295570573794,1.0730107356197507,-18.940206871962875,1.0730107356197507,-18.940206871962875,1.0112917798587124,-10.380093311341163,1.0112917798587124,-10.380093311341163,1.010748162666261,-10.478515853907707,1.010748162666261,-10.478515853907707,,,-26.404658228001544,-26.404658228001544,-5.62107361524721,-5.62107361524721,-5.630147156615644,-5.630147156615644
D EH P,3,-10.322880049945287,-10.322880049945287,-10.32301161877631,-10.32301161877631,1.096253197003465,1.0,1.096253197003465,1.0769230769230766,1.173154956207807,-8.680233950720783,1.173154956207807,-8.680233950720783,1.1730135408582036,-8.68250957169146,1.1730135408582036,-8.68250957169146,1.2973608315657754,-10.708249399758591,1.2973608315657754,-10.708249399758591,1.2924610907583969,-10.763229490065642,1.2924610907583969,-10.763229490065642,1.142031893693852,-5.556662549992906,1.142031893693852,-5.556662549992906,1.1399774415665709,-5.580138855049969,1.1399774415665709,-5.580138855049969,-11.788000138909974,-11.788000138909974,-11.798842666381553,-11.798842666381553,-6.125426724507583,-6.125426724507583,-6.132379816658802,-6.132379816658802,1.0748825554052608,-19.388483350479373,1.0748825554052608,-19.388483350479373,1.0707666036165067,-19.592174474884207,1.0707666036165067,-19.592174474884207,1.0093065924112055,-10.923708757930145,1.0093065924112055,-10.923708757930145,1.0088719223631761,-11.016370150061617,1.0088719223631761,-11.016370150061617,,,-23.524188941743454,-23.524188941743454,-6.125426724507583,-6.125426724507583,-6.132379816658802,-6.132379816658802
D EH S,3,-9.642471895162771,-9.642471895162771,-9.64269533304586,-9.64269533304586,1.1259463413804252,1.0,1.1259463413804252,1.0769230769230766,1.217783497095033,-7.887175859270576,1.217783497095033,-7.887175859270576,1.217575733516306,-7.890017867064668,1.217575733516306,-7.890017867064668,1.295711947258962,-10.59021543424388,1.295711947258962,-10.59021543424388,1.2922315419787174,-10.631961840144116,1.2922315419787174,-10.631961840144116,1.18579779700174,-4.770733635981994,1.18579779700174,-4.770733635981994,1.1828916132232576,-4.801694093978129,1.1828916132232576,-4.801694093978129,-9.735690366360174,-9.735690366360174,-9.748328904254267,-9.748328904254267,-5.082077114514522,-5.082077114514522,-5.09250000165509,-5.09250000165509,1.078581922334786,-18.477391293514454,1.078581922334786,-18.477391293514454,1.0742552597329638,-18.68986023209958,1.0742552597329638,-18.68986023209958,1.0125897870359286,-10.137779843919233,1.0125897870359286,-10.137779843919233,1.0119749351721243,-10.237925388989776,1.0119749351721243,-10.237925388989776,,,-24.296338788281524,-24.296338788281524,-5.082077114514522,-5.082077114514522,-5.09250000165509,-5.09250000165509
D IH DH,3,-12.90281229114849,-12.90281229114849,-12.898160595119919,-12.898160595119919,1.1001378043178687,1.0,1.1001378043178687,1.0769230769230766,1.1675975907702358,-10.836157698599937,1.1675975907702358,-10.836157698599937,1.1674649728398248,-10.827338149590974,1.1674649728398248,-10.827338149590974,1.6684368969661139,-10.555011146392308,1.6684368969661139,-10.555011146392308,1.6178459824228166,-10.857276059166068,1.6178459824228166,-10.857276059166068,1.4581111824771125,-5.867376340054966,1.4581111824771125,-5.867376340054966,1.448550156150257,-5.846493370030744,1.448550156150257,-5.846493370030744,-12.907148344888142,-12.907148344888142,-13.011565180624611,-13.011565180624611,-7.47644848674721,-7.47644848674721,-7.448491724638294,-7.448491724638294,1.091374517194346,-21.391168844992247,1.091374517194346,-21.391168844992247,1.086323515300993,-21.486893095982442,1.086323515300993,-21.486893095982442,1.0287649346932701,-10.911491231900753,1.0287649346932701,-10.911491231900753,1.027276686732133,-10.96517862210454,1.027276686732133,-10.96517862210454,,,-26.94009075397954,-26.94009075397954,-7.47644848674721,-7.47644848674721,-7.448491724638294,-7.448491724638294
D IH JH,3,-10.815785378079395,-10.815785378079395,-10.815567459277737,-10.815567459277737,1.1080261090979204,1.0,1.1080261090979204,1.0769230769230766,1.1751565737434357,-9.599395071451012,1.1751565737434357,-9.599395071451012,1.1750127180462442,-9.599267793685977,1.1750127180462442,-9.599267793685977,1.6474080977159637,-9.899814139214662,1.6474080977159637,-9.899814139214662,1.6257024717510102,-10.017967588812343,1.6257024717510102,-10.017967588812343,1.4669542185861766,-4.987017617406874,1.4669542185861766,-4.987017617406874,1.4572679185912303,-4.999195509643541,1.4572679185912303,-4.999195509643541,-9.819156107753692,-9.819156107753692,-9.847130174178941,-9.847130174178941,-5.185935974987434,-5.185935974987434,-5.193159516494794,-5.193159516494794,1.093080761486243,-19.499209210665676,1.093080761486243,-19.499209210665676,1.0879321647311104,-19.678184068440615,1.0879321647311104,-19.678184068440615,1.029681175053658,-10.03113250925266,1.029681175053658,-10.03113250925266,1.0281426437950953,-10.117880761717336,1.0281426437950953,-10.117880761717336,,,-20.566708067106955,-20.566708067106955,-5.185935974987434,-5.185935974987434,-5.193159516494794,-5.193159516494794
D IH T,3,-8.783981484869674,-8.783981484869674,-8.78431053827356,-8.78431053827356,1.1677129587097432,1.0,1.1677129587097432,1.0769230769230766,1.2286039280993952,-7.8046531961948356,1.2286039280993952,-7.8046531961948356,1.2283806134451694,-7.807508324457921,1.2283806134451694,-7.807508324457921,1.6783241487370177,-8.668253674832169,1.6783241487370177,-8.668253674832169,1.6657924854463677,-8.717951595794515,1.6657924854463677,-8.717951595794515,1.508958640104231,-3.657164567191935,1.508958640104231,-3.657164567191935,1.4986772901858543,-3.6870091206773723,1.4986772901858543,-3.6870091206773723,-8.381970065695505,-8.381970065695505,-8.393769527515962,-8.393769527515962,-4.037313265744663,-4.037313265744663,-4.047294342976139,-4.047294342976139,1.102989270082267,-16.472906871027003,1.102989270082267,-16.472906871027003,1.0972732567199672,-16.693861172824782,1.0972732567199672,-16.693861172824782,1.0340333167655005,-8.701279459037723,1.0340333167655005,-8.701279459037723,1.0322559398441662,-8.805694372751168,1.0322559398441662,-8.805694372751168,,,-26.074014798231637,-26.074014798231637,-4.037313265744663,-4.037313265744663,-4.047294342976139,-4.047294342976139
D IH TH,3,-11.684726349346088,-11.684726349346088,-11.683637579898829,-11.683637579898829,1.102797484362329,1.0,1.102797484362329,1.0769230769230766,1.1717206723919813,-9.988859838212734,1.1717206723919813,-9.988859838212734,1.171581924770599,-9.98703332469474,1.171581924770599,-9.98703332469474,1.718634213461773,-9.931457257631557,1.718634213461773,-9.931457257631557,1.6788876653684468,-10.094066647886683,1.6788876653684468,-10.094066647886683,1.4606904013422561,-5.522535853763236,1.4606904013422561,-5.522535853763236,1.4510928368622074,-5.517989303058708,1.4510928368622074,-5.517989303058708,-11.256139927241662,-11.256139927241662,-11.29975989607619,-11.29975989607619,-6.706340265051137,-6.706340265051137,-6.699255077427305,-6.699255077427305,1.092592756646246,-19.920317095844293,1.092592756646246,-19.920317095844293,1.0874718081217227,-20.085752226745555,1.0874718081217227,-20.085752226745555,1.02903217146505,-10.566650745609023,1.02903217146505,-10.566650745609023,1.0275292575421637,-10.636674555132505,1.0275292575421637,-10.636674555132505,,,-27.62186534315991,-27.62186534315991,-6.706340265051137,-6.706340265051137,-6.699255077427305,-6.699255077427305
D IH V,3,-10.365978030427723,-10.365978030427723,-10.365988110552273,-10.365988110552273,1.1131413146418505,1.0,1.1131413146418505,1.0769230769230766,1.1881748221972803,-8.80088737523324,1.1881748221972803,-8.80088737523324,1.188011612568411,-8.802726314921747,1.188011612568411,-8.802726314921747,1.6194778416712896,-9.562233869239089,1.6194778416712896,-9.562233869239089,1.6064757214897771,-9.62973697989465,1.6064757214897771,-9.62973697989465,1.487956429345204,-4.1156222054406095,1.487956429345204,-4.1156222054406095,1.4779726043885424,-4.141745277792319,1.4779726043885424,-4.141745277792319,-9.040150511340018,-9.040150511340018,-9.062370476133916,-9.062370476133916,-4.230736007925449,-4.230736007925449,-4.2404435384221575,-4.2404435384221575,1.0956107964973953,-18.363121244472328,1.0956107964973953,-18.363121244472328,1.09031804497034,-18.562904727287293,1.09031804497034,-18.562904727287293,1.0318572459095794,-9.159737097286397,1.0318572459095794,-9.159737097286397,1.0301992918196308,-9.260430529866115,1.0301992918196308,-9.260430529866115,,,-18.98163264537575,-18.98163264537575,-4.230736007925449,-4.230736007925449,-4.2404435384221575,-4.2404435384221575
D IH Z,3,-10.527788493725126,-10.527788493725126,-10.527728067546153,-10.527728067546153,1.1110317176769482,1.0,1.1110317176769482,1.0769230769230766,1.1845098607557287,-8.969115168951335,1.1845098607557287,-8.969115168951335,1.1843520997410562,-8.970659134263602,1.1843520997410562,-8.970659134263602,1.7014894573498707,-8.695887882239028,1.7014894573498707,-8.695887882239028,1.682462644041939,-8.785621852423162,1.682462644041939,-8.785621852423162,1.4923779473997358,-4.000109318318765,1.4923779473997358,-4.000109318318765,1.482331485609029,-4.027334926614575,1.482331485609029,-4.027334926614575,-8.567460113663367,-8.567460113663367,-8.59285878944288,-8.59285878944288,-4.6017545415702745,-4.6017545415702745,-4.610763700227551,-4.610763700227551,1.0973610706628902,-17.66500305119036,1.0973610706628902,-17.66500305119036,1.0919678759097637,-17.875975183338216,1.0919678759097637,-17.875975183338216,1.0323153660897733,-9.044224210164552,1.0323153660897733,-9.044224210164552,1.030632270351112,-9.14602017868837,1.030632270351112,-9.14602017868837,,,-21.547113825737313,-21.547113825737313,-4.6017545415702745,-4.6017545415702745,-4.610763700227551,-4.610763700227551
D IH ZH,3,-12.923325830981591,-12.923325830981591,-12.918569466751126,-12.918569466751126,1.1001151204795363,1.0,1.1001151204795363,1.0769230769230766,1.1660705235029227,-11.517034786568068,1.1660705235029227,-11.517034786568068,1.165940175828427,-11.496387778571858,1.165940175828427,-11.496387778571858,1.5894079151477507,-12.301882294372229,1.5894079151477507,-12.301882294372229,1.5557979414714043,-12.579051273424264,1.5557979414714043,-12.579051273424264,1.454058124260458,-6.908830214883126,1.454058124260458,-6.908830214883126,1.4445545150314774,-6.7909549788715955,1.4445545150314774,-6.7909549788715955,-12.75838046953136,-12.75838046953136,-12.869946120979069,-12.869946120979069,-7.294126929953255,-7.294126929953255,-7.27260105817463,-7.27260105817463,1.0906163489866119,-23.8189170809403,1.0906163489866119,-23.8189170809403,1.0856087045131915,-23.61000970116494,1.0856087045131915,-23.61000970116494,1.028344991194759,-11.952945106728913,1.028344991194759,-11.952945106728913,1.026879789744942,-11.90964023094539,1.026879789744942,-11.90964023094539,,,-25.89347115710719,-25.89347115710719,-7.294126929953255,-7.294126929953255,-7.27260105817463,-7.27260105817463
F AE L,3,-10.541131437123969,-10.541131437123969,-10.541153738422842,-10.541153738422842,1.1022984399190188,1.0,1.1022984399190188,1.0769230769230766,1.1800351190932525,-8.474305353140931,1.1800351190932525,-8.474305353140931,1.1798830155264954,-8.476793863305566,1.1798830155264954,-8.476793863305566,1.3048674244018592,-10.490351041838384,1.3048674244018592,-10.490351041838384,1.3004623587946007,-10.542841513665426,1.3004623587946007,-10.542841513665426,1.1567310744417032,-5.149031528147714,1.1567310744417032,-5.149031528147714,1.154134069243219,-5.182661299663756,1.154134069243219,-5.182661299663756,-10.304392781280896,-10.304392781280896,-10.318755995658446,-10.318755995658446,-5.740941744272508,-5.740941744272508,-5.751407575682228,-5.751407575682228,1.0635936536057924,-18.964656394979315,1.0635936536057924,-18.964656394979315,1.0601167301118406,-19.17406121868372,1.0601167301118406,-19.17406121868372,1.0092398634334643,-10.910703023457643,1.0092398634334643,-10.910703023457643,1.0088064060779358,-11.00384616387658,1.0088064060779358,-11.00384616387658,,,-22.694335063288968,-22.694335063288968,-5.740941744272508,-5.740941744272508,-5.751407575682228,-5.751407575682228
F AE S,3,-10.53194533152168,-10.53194533152168,-10.531968502687963,-10.531968502687963,1.1028485229985767,1.0,1.1028485229985767,1.0769230769230766,1.194351374724313,-8.281152515510403,1.194351374724313,-8.281152515510403,1.1941779875083505,-8.283740771721687,1.1941779875083505,-8.283740771721687,1.2451339902346459,-11.309249494255978,1.2451339902346459,-11.309249494255978,1.2421462982456402,-11.353246047520125,1.2421462982456402,-11.353246047520125,1.1497826088945116,-5.223600223645223,1.1497826088945116,-5.223600223645223,1.1473390522556766,-5.256769271817478,1.1473390522556766,-5.256769271817478,-10.394091081026712,-10.394091081026712,-10.408409871068315,-10.408409871068315,-5.730072072035604,-5.730072072035604,-5.740567361129363,-5.740567361129363,1.0602781354913016,-19.59040200976638,1.0602781354913016,-19.59040200976638,1.0569917606533121,-19.795223752899886,1.0569917606533121,-19.795223752899886,1.0087817432532704,-10.985271718955152,1.0087817432532704,-10.985271718955152,1.0083734275464546,-11.0779541360303,1.0083734275464546,-11.0779541360303,-21.006342909223388,-21.006342909223388,-20.122267757702392,-20.122267757702392,-5.730072072035604,-5.730072072035604,-5.740567361129363,-5.740567361129363
F EH K,3,-10.541491842651727,-10.541491842651727,-10.54153615218773,-10.54153615218773,1.0965197321038693,1.0,1.0965197321038693,1.0769230769230766,1.1763690871564245,-8.553486902895354,1.1763690871564245,-8.553486902895354,1.176222603211215,-8.555914061348087,1.176222603211215,-8.555914061348087,1.300602655399378,-10.541386148480509,1.300602655399378,-10.541386148480509,1.296065430010983,-10.595457917581937,1.296065430010983,-10.595457917581937,1.1480723080448128,-5.242840192223373,1.1480723080448128,-5.242840192223373,1.1458301787230136,-5.273998060893336,1.1458301787230136,-5.273998060893336,-9.84655250686965,-9.84655250686965,-9.864518333478784,-9.864518333478784,-4.763265356377549,-4.763265356377549,-4.776868412141986,-4.776868412141986,1.0627890166944953,-19.094873051375863,1.0627890166944953,-19.094873051375863,1.0593585700976353,-19.303473612349606,1.0593585700976353,-19.303473612349606,1.0094689235235614,-10.87540524137662,1.0094689235235614,-10.87540524137662,1.0090228953436764,-10.968754844065309,1.0090228953436764,-10.968754844065309,,,-23.55477668559903,-23.55477668559903,-4.763265356377549,-4.763265356377549,-4.776868412141986,-4.776868412141986
F EH S,3,-10.30561198483937,-10.30561198483937,-10.305681369204587,-10.305681369204587,1.1091603010145348,1.0,1.1091603010145348,1.0769230769230766,1.2032836477428184,-8.152694700486583,1.2032836477428184,-8.152694700486583,1.2030971505371024,-8.155352640824452,1.2030971505371024,-8.155352640824452,1.2358530211635606,-11.418537393172079,1.2358530211635606,-11.418537393172079,1.2332230961165838,-11.459926126911526,1.2332230961165838,-11.459926126911526,1.140438720258553,-5.333536753694185,1.140438720258553,-5.333536753694185,1.138345148782894,-5.364149157887634,1.138345148782894,-5.364149157887634,-9.733171438972198,-9.733171438972198,-9.7500555553423,-9.7500555553423,-5.069244913270909,-5.069244913270909,-5.08234954933191,-5.08234954933191,1.0603912022383712,-19.57123209365866,1.0603912022383712,-19.57123209365866,1.0570983969878658,-19.776175557929193,1.0570983969878658,-19.776175557929193,1.0088962732983189,-10.966101802847431,1.0088962732983189,-10.966101802847431,1.0084816721793248,-11.058905941059606,1.0084816721793248,-11.058905941059606,-23.67250015636769,-23.67250015636769,-22.622178439898672,-22.622178439898672,-5.069244913270909,-5.069244913270909,-5.08234954933191,-5.08234954933191
F IH K,3,-9.81567225494979,-9.81567225494979,-9.815810468497052,-9.815810468497052,1.1297515552606656,1.0,1.1297515552606656,1.0769230769230766,1.2045980850081563,-8.23069597123443,1.2045980850081563,-8.23069597123443,1.204410169070014,-8.233263391058559,1.204410169070014,-8.233263391058559,1.3332389852301492,-10.120893343321761,1.3332389852301492,-10.120893343321761,1.3279077623425652,-10.175883633813154,1.3279077623425652,-10.175883633813154,1.1806931701632517,-4.822487771495154,1.1806931701632517,-4.822487771495154,1.1776736767831122,-4.8546950669972695,1.1776736767831122,-4.8546950669972695,-9.218679756687743,-9.218679756687743,-9.235909452170446,-9.235909452170446,-4.135668568881758,-4.135668568881758,-4.148626152210069,-4.148626152210069,1.0663680612803692,-18.35158931455619,1.0663680612803692,-18.35158931455619,1.062734139884096,-18.56662457551569,1.062734139884096,-18.56662457551569,1.0130703444517977,-10.132121504556947,1.0130703444517977,-10.132121504556947,1.0124279698667786,-10.23190580723139,1.0124279698667786,-10.23190580723139,,,-26.134705786804965,-26.134705786804965,-4.135668568881758,-4.135668568881758,-4.148626152210069,-4.148626152210069
F IH S,3,-9.579792397137433,-9.579792397137433,-9.579955685513909,-9.579955685513909,1.142392124171331,1.0,1.142392124171331,1.0769230769230766,1.2315126455945502,-7.829903768825658,1.2315126455945502,-7.829903768825658,1.2312847163959013,-7.832701970534925,1.2312847163959013,-7.832701970534925,1.4057691480601036,-9.940505015505531,1.4057691480601036,-9.940505015505531,1.40031069084609,-9.986217665562572,1.40031069084609,-9.986217665562572,1.3103910330961919,-3.8556447604581674,1.3103910330961919,-3.8556447604581674,1.3055341925840567,-3.890711986411398,1.3055341925840567,-3.890711986411398,-8.997785695498703,-8.997785695498703,-9.014291565346936,-9.014291565346936,-4.334135132483526,-4.334135132483526,-4.346952180712965,-4.346952180712965,1.0778020788824367,-17.770408784331188,1.0778020788824367,-17.770408784331188,1.0735191450347323,-17.985192343515106,1.0735191450347323,-17.985192343515106,1.026508536404153,-9.165278493519962,1.026508536404153,-9.165278493519962,1.0251286734568923,-9.26792272664552,1.0251286734568923,-9.26792272664552,,,-26.300719829772717,-26.300719829772717,-4.334135132483526,-4.334135132483526,-4.346952180712965,-4.346952180712965
G AE N,3,-10.753162946796763,-10.753162946796763,-10.753039204894124,-10.753039204894124,1.1096650164174282,1.0,1.1096650164174282,1.0769230769230766,1.183039062621394,-8.762001787321577,1.183039062621394,-8.762001787321577,1.1828820634831176,-8.763995738722459,1.1828820634831176,-8.763995738722459,1.3714315227073242,-10.411262184883403,1.3714315227073242,-10.411262184883403,1.3635073163900764,-10.481650143200072,1.3635073163900764,-10.481650143200072,1.2775467723578857,-4.078703688866909,1.2775467723578857,-4.078703688866909,1.2705402885956194,-4.136716281224741,1.2705402885956194,-4.136716281224741,-9.746453363515743,-9.746453363515743,-9.76538221687807,-9.76538221687807,-4.566899698733923,-4.566899698733923,-4.583541750563092,-4.583541750563092,1.046981736176503,-19.17326397220498,1.046981736176503,-19.17326397220498,1.0444491054318652,-19.38174291281716,1.0444491054318652,-19.38174291281716,1.014705469872017,-10.438643126546541,1.014705469872017,-10.438643126546541,1.0139717349575337,-10.53198896598152,1.0139717349575337,-10.53198896598152,,,-20.325489362858477,-20.325489362858477,-4.566899698733923,-4.566899698733923,-4.583541750563092,-4.583541750563092
G EH N,3,-10.526829600114453,-10.526829600114453,-10.526752071410748,-10.526752071410748,1.1159767944333863,1.0,1.1159767944333863,1.0769230769230766,1.1919713356398993,-8.633543972297755,1.1919713356398993,-8.633543972297755,1.1918012265118696,-8.635607607825225,1.1918012265118696,-8.635607607825225,1.286799379146672,-11.777121683241106,1.286799379146672,-11.777121683241106,1.2832196636369295,-11.806508286782357,1.2832196636369295,-11.806508286782357,1.1927831885583926,-5.445211818357473,1.1927831885583926,-5.445211818357473,1.190021996822681,-5.46227423148578,1.190021996822681,-5.46227423148578,-10.602073106006923,-10.602073106006923,-10.605693965390685,-10.605693965390685,-5.422611924514924,-5.422611924514924,-5.42399000300427,-5.42399000300427,1.04547539316833,-20.41066565553886,1.04547539316833,-20.41066565553886,1.0430283671829754,-20.58087278203735,1.0430283671829754,-20.58087278203735,1.0132003520743857,-11.676044809880421,1.0132003520743857,-11.676044809880421,1.0125480933455557,-11.731118835201709,1.0125480933455557,-11.731118835201709,,,-26.25558496359017,-26.25558496359017,-5.422611924514924,-5.422611924514924,-5.42399000300427,-5.42399000300427
G IH N,3,-9.801010012412517,-9.801010012412517,-9.801026387720071,-9.801026387720071,1.1492086175901826,1.0,1.1492086175901826,1.0769230769230766,1.2202003334916312,-8.31075304063683,1.2202003334916312,-8.31075304063683,1.2199887923706685,-8.312956937535697,1.2199887923706685,-8.312956937535697,1.2315717238410477,-11.729611419251532,1.2315717238410477,-11.729611419251532,1.2284182684852112,-11.780183124377372,1.2284182684852112,-11.780183124377372,1.1375011646719013,-5.397841938798428,1.1375011646719013,-5.397841938798428,1.1351534874756295,-5.436220358953512,1.1351534874756295,-5.436220358953512,-10.370102230927953,-10.370102230927953,-10.381671513452982,-10.381671513452982,-5.190917012122068,-5.190917012122068,-5.200334172442984,-5.200334172442984,1.0423466737796587,-20.040364459888362,1.0423466737796587,-20.040364459888362,1.0400776154624733,-20.237272866567228,1.0400776154624733,-20.237272866567228,1.0100219321748523,-11.305743614229923,1.0100219321748523,-11.305743614229923,1.0095446050985328,-11.387518919731589,1.0095446050985328,-11.387518919731589,,,-28.024583848579777,-28.024583848579777,-5.190917012122068,-5.190917012122068,-5.200334172442984,-5.200334172442984
G IH S,3,-9.994999656879543,-9.994999656879543,-9.994999410919146,-9.994999410919146,1.1363298683770282,1.0,1.1363298683770282,1.0769230769230766,1.210045336163999,-8.42817171119536,1.210045336163999,-8.42817171119536,1.2098488922448727,-8.43032374009554,1.2098488922448727,-8.43032374009554,1.3377936945973028,-11.154949119698763,1.3377936945973028,-11.154949119698763,1.333089918084849,-11.206596002247712,1.333089918084849,-11.206596002247712,1.2638828890639424,-4.471820922281697,1.2638828890639424,-4.471820922281697,1.259744842361209,-4.512874924099466,1.259744842361209,-4.512874924099466,-10.706902681621344,-10.706902681621344,-10.718852550343815,-10.718852550343815,-5.4387531760266485,-5.4387531760266485,-5.447998961636341,-5.447998961636341,1.0529451942786405,-19.583120830894124,1.0529451942786405,-19.583120830894124,1.0500749847619275,-19.779064871307746,1.0500749847619275,-19.779064871307746,1.0231165339920623,-10.379722597713192,1.0231165339920623,-10.379722597713192,1.0219205747900355,-10.464173484877545,1.0219205747900355,-10.464173484877545,,,-26.92944619857078,-26.92944619857078,-5.4387531760266485,-5.4387531760266485,-5.447998961636341,-5.447998961636341
HH AE N,3,-11.183982899240402,-11.183982899240402,-11.183600038593097,-11.183600038593097,1.1055422288005354,1.0,1.1055422288005354,1.0769230769230766,1.1955804907624004,-8.371008711821947,1.1955804907624004,-8.371008711821947,1.1954050975924029,-8.373467068259302,1.1954050975924029,-8.373467068259302,1.4120174198674653,-9.75037586654168,1.4120174198674653,-9.75037586654168,1.404134162318019,-9.811068993020339,1.404134162318019,-9.811068993020339,1.3055912413770208,-3.808810446024815,1.3055912413770208,-3.808810446024815,1.2986339979894894,-3.8570875295192986,1.2986339979894894,-3.8570875295192986,-8.294551290979665,-8.294551290979665,-8.329218370871374,-8.329218370871374,-3.57113926282764,-3.57113926282764,-3.6015679696627334,-3.6015679696627334,1.0617452191533032,-18.121384578363624,1.0617452191533032,-18.121384578363624,1.0583735157757128,-18.337912970341257,1.0583735157757128,-18.337912970341257,1.0169291158977207,-9.777756808204817,1.0169291158977207,-9.777756808204817,1.016074821861362,-9.878687693968775,1.016074821861362,-9.878687693968775,,,-19.625920943735323,-19.625920943735323,-3.57113926282764,-3.57113926282764,-3.6015679696627334,-3.6015679696627334
HH AE S,3,-11.377972543707427,-11.377972543707427,-11.37757306179217,-11.37757306179217,1.092663479587381,1.0,1.092663479587381,1.0769230769230766,1.185425493434768,-8.488427382380475,1.185425493434768,-8.488427382380475,1.185265197466607,-8.490833870819145,1.185265197466607,-8.490833870819145,1.2947382237669267,-10.835961789809051,1.2947382237669267,-10.835961789809051,1.2893359954885117,-10.891714814287518,1.2893359954885117,-10.891714814287518,1.2083127237163374,-4.543037652328225,1.2083127237163374,-4.543037652328225,1.203503760163895,-4.5879750380620905,1.203503760163895,-4.5879750380620905,-9.361638469182457,-9.361638469182457,-9.395174197133505,-9.395174197133505,-4.549262154241623,-4.549262154241623,-4.5780075482273865,-4.5780075482273865,1.0530847037347484,-19.324389172189527,1.0530847037347484,-19.324389172189527,1.0502071627561822,-19.533937918478614,1.0502071627561822,-19.533937918478614,1.0105154333750055,-10.511984014508228,1.0105154333750055,-10.511984014508228,1.010013122420626,-10.609575202511566,1.010013122420626,-10.609575202511566,,,-17.46115854193147,-17.46115854193147,-4.549262154241623,-4.549262154241623,-4.5780075482273865,-4.5780075482273865
HH EH S,3,-11.151639197025117,-11.151639197025117,-11.151285928308795,-11.151285928308795,1.0989752576033391,1.0,1.0989752576033391,1.0769230769230766,1.1943577664532734,-8.359969567356654,1.1943577664532734,-8.359969567356654,1.194184360495359,-8.36244573992191,1.194184360495359,-8.36244573992191,1.2942036103809726,-10.874073410257258,1.2942036103809726,-10.874073410257258,1.2888318766148341,-10.927777326464966,1.2888318766148341,-10.927777326464966,1.2077151907655101,-4.581797903909293,1.2077151907655101,-4.581797903909293,1.2029368229832471,-4.624737356918294,1.2029368229832471,-4.624737356918294,-9.163780221454026,-9.163780221454026,-9.196679061581452,-9.196679061581452,-4.351496389803009,-4.351496389803009,-4.379648916603898,-4.379648916603898,1.0535367279991426,-19.23404297761391,1.0535367279991426,-19.23404297761391,1.050633492185365,-19.444272156293966,1.050633492185365,-19.444272156293966,1.0109691636612632,-10.421637819932611,1.0109691636612632,-10.421637819932611,1.0104421769201817,-10.51990944032692,1.0104421769201817,-10.51990944032692,,,-25.039363166697825,-25.039363166697825,-4.351496389803009,-4.351496389803009,-4.379648916603898,-4.379648916603898
JH IH S,3,-10.263448838948575,-10.263448838948575,-10.263300416041602,-10.263300416041602,1.1335567691409063,1.0,1.1335567691409063,1.0769230769230766,1.1978805274866864,-9.051942951885964,1.1978805274866864,-9.051942951885964,1.1977019252259566,-9.052853353441533,1.1977019252259566,-9.052853353441533,1.364864964931423,-11.237187217935736,1.364864964931423,-11.237187217935736,1.3551213476393438,-11.331385797499399,1.3551213476393438,-11.331385797499399,1.3031189680753752,-3.930287779828065,1.3031189680753752,-3.930287779828065,1.294062258648112,-4.014070481909693,1.294062258648112,-4.014070481909693,-10.122217481751445,-10.122217481751445,-10.146777590498873,-10.146777590498873,-4.0545122037186,-4.0545122037186,-4.0827371274926225,-4.0827371274926225,1.0406673997622198,-20.2891301698217,1.0406673997622198,-20.2891301698217,1.0384949904453604,-20.481637192327277,1.0384949904453604,-20.481637192327277,1.0230034672449926,-10.461960695950165,1.0230034672449926,-10.461960695950165,1.0218136381678071,-10.544216192551081,1.0218136381678071,-10.544216192551081,,,-23.847266108239694,-23.847266108239694,-4.0545122037186,-4.0545122037186,-4.0827371274926225,-4.0827371274926225
K AE DH,3,-13.538508544214272,-13.538508544214272,-13.533761152040977,-13.533761152040977,1.0734842942774347,1.0,1.0734842942774347,1.0769230769230766,1.1581931743742377,-10.918331414692318,1.1581931743742377,-10.918331414692318,1.1580743885124634,-10.909488757532849,1.1580743885124634,-10.909488757532849,1.3426359716370129,-12.125152271570235,1.3426359716370129,-12.125152271570235,1.3010580439604118,-12.349331109633253,1.3010580439604118,-12.349331109633253,1.1045557841320093,-7.805803480261867,1.1045557841320093,-7.805803480261867,1.1038295580905826,-7.706645111720015,1.1038295580905826,-7.706645111720015,-14.142933318510895,-14.142933318510895,-14.183126404061309,-14.183126404061309,-9.246604976704669,-9.246604976704669,-9.152548546500768,-9.152548546500768,1.0996975376487756,-23.043483686262554,1.0996975376487756,-23.043483686262554,1.094173516947962,-23.060203370596046,1.094173516947962,-23.060203370596046,1.0093125765373547,-12.932881103763425,1.0093125765373547,-12.932881103763425,1.0088792276733485,-12.907377089963031,1.0088792276733485,-12.907377089963031,,,-21.742882539654477,-21.742882539654477,-9.246604976704669,-9.246604976704669,-9.152548546500768,-9.152548546500768
K AE G,3,-11.183032449076148,-11.183032449076148,-11.18286701107634,-11.18286701107634,1.0841456982936084,1.0,1.0841456982936084,1.0769230769230766,1.1727384900953952,-9.177215678283018,1.1727384900953952,-9.177215678283018,1.172598080046028,-9.178480950710869,1.172598080046028,-9.178480950710869,1.3376954930123237,-10.25149652601932,1.3376954930123237,-10.25149652601932,1.329158146295769,-10.33536580514418,1.329158146295769,-10.33536580514418,1.1352448402987725,-5.657369067095079,1.1352448402987725,-5.657369067095079,1.133840883118895,-5.67521278922654,1.133840883118895,-5.67521278922654,-11.830401713819835,-11.830401713819835,-11.846694555413404,-11.846694555413404,-6.509355620910197,-6.509355620910197,-6.51349121688551,-6.51349121688551,1.1032221174476533,-19.42871220430234,1.1032221174476533,-19.42871220430234,1.097496585055912,-19.623428492011985,1.097496585055912,-19.623428492011985,1.0113359406665448,-10.784446690596639,1.0113359406665448,-10.784446690596639,1.0107915495207234,-10.875944767469555,1.0107915495207234,-10.875944767469555,,,-22.282098045666068,-22.282098045666068,-6.509355620910197,-6.509355620910197,-6.51349121688551,-6.51349121688551
K AE K,3,-9.788228418338974,-9.788228418338974,-9.788424989259383,-9.788424989259383,1.119884085586122,1.0,1.119884085586122,1.0769230769230766,1.2096935179643729,-8.047350846110804,1.2096935179643729,-8.047350846110804,1.2094981677218561,-8.050079225240651,1.2094981677218561,-8.050079225240651,1.3948138132885388,-9.268819868085354,1.3948138132885388,-9.268819868085354,1.3896141514802012,-9.320377711637963,1.3896141514802012,-9.320377711637963,1.2000971854058946,-4.604219152503727,1.2000971854058946,-4.604219152503727,1.1972610416692915,-4.632795058902073,1.1972610416692915,-4.632795058902073,-9.705512462314886,-9.705512462314886,-9.719522813452357,-9.719522813452357,-5.167186064699244,-5.167186064699244,-5.176612215328969,-5.176612215328969,1.1111845908098388,-17.316170714196158,1.1111845908098388,-17.316170714196158,1.1050036157297944,-17.534022838424715,1.1050036157297944,-17.534022838424715,1.0156117290150215,-9.731296776005285,1.0156117290150215,-9.731296776005285,1.0148326824812142,-9.833527037145087,1.0148326824812142,-9.833527037145087,,,-21.054738042712096,-21.054738042712096,-5.167186064699244,-5.167186064699244,-5.176612215328969,-5.176612215328969
K AE NG,3,-11.49393173453063,-11.49393173453063,-11.49359082984035,-11.49359082984035,1.0809983157250038,1.0,1.0809983157250038,1.0769230769230766,1.1668592811162397,-9.582680786391183,1.1668592811162397,-9.582680786391183,1.1667276115521463,-9.582866727899356,1.1667276115521463,-9.582866727899356,1.3531055215802472,-9.830763945780367,1.3531055215802472,-9.830763945780367,1.3416320869754845,-9.949062439832815,1.3416320869754845,-9.949062439832815,1.1560902369403474,-5.187365437849344,1.1560902369403474,-5.187365437849344,1.1542259340815224,-5.211375674896469,1.1542259340815224,-5.211375674896469,-9.29732943412365,-9.29732943412365,-9.328860424987173,-9.328860424987173,-6.202082538981246,-6.202082538981246,-6.208109567334327,-6.208109567334327,1.1038535614605158,-19.413444732171552,1.1038535614605158,-19.413444732171552,1.0980926202934105,-19.603522766617875,1.0980926202934105,-19.603522766617875,1.0127103012071266,-10.314443061350902,1.0127103012071266,-10.314443061350902,1.0120904851151669,-10.412107653139484,1.0120904851151669,-10.412107653139484,,,-19.831883328446317,-19.831883328446317,-6.202082538981246,-6.202082538981246,-6.208109567334327,-6.208109567334327
K AE TH,3,-12.32042260241187,-12.32042260241187,-12.319238136819887,-12.319238136819887,1.076143974321895,1.0,1.076143974321895,1.0769230769230766,1.1623162559959832,-10.071033554305115,1.1623162559959832,-10.071033554305115,1.1621913404432376,-10.069183932636616,1.1621913404432376,-10.069183932636616,1.40066566124565,-10.573473193288327,1.40066566124565,-10.573473193288327,1.369734132309035,-10.735970768984256,1.369734132309035,-10.735970768984256,1.1149784824527966,-6.532837804448979,1.1149784824527966,-6.532837804448979,1.1140220835718961,-6.52799011537837,1.1140220835718961,-6.52799011537837,-11.848339787252485,-11.848339787252485,-11.885556699991534,-11.885556699991534,-7.832911641396664,-7.832911641396664,-7.817547479768428,-7.817547479768428,1.1013303551732645,-20.644506747593443,1.1013303551732645,-20.644506747593443,1.0957128096620556,-20.80891157198955,1.0957128096620556,-20.80891157198955,1.0099997568076458,-11.659915427950537,1.0099997568076458,-11.659915427950537,1.00952869547057,-11.728722093621386,1.00952869547057,-11.728722093621386,,,-22.13117793869874,-22.13117793869874,-7.832911641396664,-7.832911641396664,-7.817547479768428,-7.817547479768428
K AE Z,3,-11.163484746790909,-11.163484746790909,-11.163328624467212,-11.163328624467212,1.0843782076365143,1.0,1.0843782076365143,1.0769230769230766,1.1751054443597306,-9.051288885043714,1.1751054443597306,-9.051288885043714,1.1749615154136948,-9.052809742205477,1.1749615154136948,-9.052809742205477,1.3472180783685772,-11.245992834152252,1.3472180783685772,-11.245992834152252,1.337570811021205,-11.285905130090187,1.337570811021205,-11.285905130090187,1.1103461720880023,-6.918500285260964,1.1103461720880023,-6.918500285260964,1.109492072246868,-6.895714895503687,1.109492072246868,-6.895714895503687,-11.186284155685339,-11.186284155685339,-11.191161063580058,-11.191161063580058,-7.754950099926952,-7.754950099926952,-7.7415615727905065,-7.7415615727905065,1.1025559111150585,-20.29728171919597,1.1025559111150585,-20.29728171919597,1.0968676056340798,-20.457513685151664,1.0968676056340798,-20.457513685151664,1.009694343354183,-12.045577908762523,1.009694343354183,-12.045577908762523,1.0092400431162494,-12.096446873746702,1.0092400431162494,-12.096446873746702,,,-24.99390764969218,-24.99390764969218,-7.754950099926952,-7.754950099926952,-7.7415615727905065,-7.7415615727905065
K AE ZH,3,-13.559022084047374,-13.559022084047374,-13.554170023672185,-13.554170023672185,1.0734616104391024,1.0,1.0734616104391024,1.0769230769230766,1.1566661071069246,-11.59920850266045,1.1566661071069246,-11.59920850266045,1.1565495915010655,-11.578538386513733,1.1565495915010655,-11.578538386513733,1.2699720311938685,-12.378584420978937,1.2699720311938685,-12.378584420978937,1.245263907980586,-12.721179606942432,1.245263907980586,-12.721179606942432,1.1068719393144064,-7.3538183565188096,1.1068719393144064,-7.3538183565188096,1.1060945637530966,-7.301180003611852,1.1060945637530966,-7.301180003611852,-13.888804927496288,-13.888804927496288,-13.955033746411937,-13.955033746411937,-8.958922904252887,-8.958922904252887,-8.890184282033278,-8.890184282033278,1.0995047031763898,-23.977792923639388,1.0995047031763898,-23.977792923639388,1.0939918878329293,-23.833393258829528,1.0939918878329293,-23.833393258829528,1.009465283264086,-12.480895980020367,1.009465283264086,-12.480895980020367,1.0090235538505088,-12.501911981854866,1.0090235538505088,-12.501911981854866,,,-22.09033944434407,-22.09033944434407,-8.958922904252887,-8.958922904252887,-8.890184282033278,-8.890184282033278
K EH K,3,-9.561895071656664,-9.561895071656664,-9.562137855776008,-9.562137855776008,1.1261958636020801,1.0,1.1261958636020801,1.0769230769230766,1.2186257909828782,-7.918893031086983,1.2186257909828782,-7.918893031086983,1.218417330750608,-7.921691094343417,1.218417330750608,-7.921691094343417,1.3062783499138688,-10.846767798031692,1.3062783499138688,-10.846767798031692,1.3027760304579061,-10.882087946939413,1.3027760304579061,-10.882087946939413,1.11149129873285,-6.182815713582927,1.11149129873285,-6.182815713582927,1.110312132225043,-6.195205100882277,1.110312132225043,-6.195205100882277,-11.016762308629353,-11.016762308629353,-11.02067247365202,-11.02067247365202,-6.478528394303531,-6.478528394303531,-6.477898379457198,-6.477898379457198,1.1042924815935613,-18.765660829118673,1.1042924815935613,-18.765660829118673,1.0985032134622275,-18.97000479936407,1.0985032134622275,-18.97000479936407,1.0087151452097636,-11.180786890927802,1.0087151452097636,-11.180786890927802,1.0083099845288193,-11.269508998084442,1.0083099845288193,-11.269508998084442,,,-25.709313687825805,-25.709313687825805,-6.478528394303531,-6.478528394303531,-6.477898379457198,-6.477898379457198
K EH L,3,-9.335201319446597,-9.335201319446597,-9.335468308527744,-9.335468308527744,1.1382863494331876,1.0,1.1382863494331876,1.0769230769230766,1.2312240959382115,-7.711253666308738,1.2312240959382115,-7.711253666308738,1.2309969060946404,-7.714182765403661,1.2309969060946404,-7.714182765403661,1.3177194838054098,-10.724064324985925,1.3177194838054098,-10.724064324985925,1.3143974699941725,-10.756153817649848,1.3143974699941725,-10.756153817649848,1.1272673801577864,-6.017987314236489,1.1272673801577864,-6.017987314236489,1.1257811941012907,-6.031250420958399,1.1257811941012907,-6.031250420958399,-11.029276718773062,-11.029276718773062,-11.031698723375092,-11.031698723375092,-7.01097140122077,-7.01097140122077,-7.00936263446941,-7.00936263446941,1.1064916083853844,-18.435317991294664,1.1064916083853844,-18.435317991294664,1.1005765549359288,-18.64154640596303,1.1005765549359288,-18.64154640596303,1.009898622341931,-11.015958491581364,1.009898622341931,-11.015958491581364,1.009428512401812,-11.105554318160564,1.009428512401812,-11.105554318160564,,,-27.352452476600984,-27.352452476600984,-7.01097140122077,-7.01097140122077,-7.00936263446941,-7.00936263446941
K EH S,3,-9.326015213844308,-9.326015213844308,-9.326283072792865,-9.326283072792865,1.1388364325127456,1.0,1.1388364325127456,1.0769230769230766,1.245540351569272,-7.518100828678211,1.245540351569272,-7.518100828678211,1.2452918780764954,-7.521129673819782,1.2452918780764954,-7.521129673819782,1.2415287156780515,-11.72391904272326,1.2415287156780515,-11.72391904272326,1.2399336965635068,-11.746556156269001,1.2399336965635068,-11.746556156269001,1.1038577109465904,-6.273512275053738,1.1038577109465904,-6.273512275053738,1.1028271022849234,-6.285356197876575,1.1028271022849234,-6.285356197876575,-10.903381240731902,-10.903381240731902,-10.906209695515539,-10.906209695515539,-6.78450795119689,-6.78450795119689,-6.783379516647123,-6.783379516647123,1.1018946671374372,-19.24201987140147,1.1018946671374372,-19.24201987140147,1.096243040352458,-19.442706744943656,1.096243040352458,-19.442706744943656,1.008142494984521,-11.271483452398614,1.008142494984521,-11.271483452398614,1.0077687613644677,-11.35966009507874,1.0077687613644677,-11.35966009507874,,,-24.776715442125447,-24.776715442125447,-6.78450795119689,-6.78450795119689,-6.783379516647123,-6.783379516647123
L AE L,3,-9.334840913918837,-9.334840913918837,-9.335085894762859,-9.335085894762859,1.144065057248337,1.0,1.144065057248337,1.0769230769230766,1.1632002290661358,-8.909838871991983,1.1632002290661358,-8.909838871991983,1.1630728165870046,-8.911896703368406,1.1630728165870046,-8.911896703368406,1.3562060670032514,-10.167124031967191,1.3562060670032514,-10.167124031967191,1.3480934411473247,-10.239355293617761,1.3480934411473247,-10.239355293617761,1.224904607070212,-4.39027099942547,1.224904607070212,-4.39027099942547,1.218673361368718,-4.443673407136542,1.218673361368718,-4.443673407136542,-10.656549297906261,-10.656549297906261,-10.667966874525936,-10.667966874525936,-5.452461258177256,-5.452461258177256,-5.461004780915816,-5.461004780915816,1.047850960023388,-19.076962903959174,1.047850960023388,-19.076962903959174,1.0452687619390642,-19.289530386488174,1.0452687619390642,-19.289530386488174,1.0103328419884712,-10.587476013586452,1.0103328419884712,-10.587476013586452,1.0098401267594785,-10.684212491618196,1.0098401267594785,-10.684212491618196,,,-19.75504389628906,-19.75504389628906,-5.452461258177256,-5.452461258177256,-5.461004780915816,-5.461004780915816
L AE N,3,-9.131665163849522,-9.131665163849522,-9.131927635828905,-9.131927635828905,1.1574938895410494,1.0,1.1574938895410494,1.0769230769230766,1.1876714820248286,-8.599267363802927,1.1876714820248286,-8.599267363802927,1.1875076886946554,-8.601476809224684,1.1875076886946554,-8.601476809224684,1.4137518289365767,-9.900436561117413,1.4137518289365767,-9.900436561117413,1.4045755474278714,-9.969114006205281,1.4045755474278714,-9.969114006205281,1.3152346591837039,-3.730612488619568,1.3152346591837039,-3.730612488619568,1.30700858220677,-3.786893870747471,1.30700858220677,-3.786893870747471,-9.679160419449286,-9.679160419449286,-9.691664923673674,-9.691664923673674,-4.463468694526369,-4.463468694526369,-4.473724987798297,-4.473724987798297,1.053195957327452,-18.49970392492034,1.053195957327452,-18.49970392492034,1.0503101455000663,-18.71466797256699,1.0503101455000663,-18.71466797256699,1.0162884043309925,-9.92781750278055,1.0162884043309925,-9.92781750278055,1.0154688476687335,-10.027432955229125,1.0154688476687335,-10.027432955229125,,,-19.34773899250634,-19.34773899250634,-4.463468694526369,-4.463468694526369,-4.473724987798297,-4.473724987798297
L AE T,3,-9.19298398572539,-9.19298398572539,-9.193241547946357,-9.193241547946357,1.1531499345004168,1.0,1.1531499345004168,1.0769230769230766,1.1601079178498268,-8.95695430294664,1.1601079178498268,-8.95695430294664,1.159985102638924,-8.958984739467308,1.159985102638924,-8.958984739467308,1.3431800098420181,-10.330846166891154,1.3431800098420181,-10.330846166891154,1.335278429461682,-10.402722053594962,1.335278429461682,-10.402722053594962,1.2052172880198357,-4.617915683620471,1.2052172880198357,-4.617915683620471,1.1994208132373476,-4.669797586588889,1.1994208132373476,-4.669797586588889,-10.501745334134792,-10.501745334134792,-10.512633236085833,-10.512633236085833,-5.5057698116317635,-5.5057698116317635,-5.514164149195912,-5.514164149195912,1.0466840669349802,-19.287800469837794,1.0466840669349802,-19.287800469837794,1.0441681537789347,-19.49894108496678,1.0441681537789347,-19.49894108496678,1.0090348348112552,-10.815120697781452,1.0090348348112552,-10.815120697781452,1.0086133542536153,-10.910336671070544,1.0086133542536153,-10.910336671070544,,,-20.57283223043466,-20.57283223043466,-5.5057698116317635,-5.5057698116317635,-5.514164149195912,-5.514164149195912
L EH L,3,-9.108507567236527,-9.108507567236527,-9.108798761279482,-9.108798761279482,1.1503768352642951,1.0,1.1503768352642951,1.0769230769230766,1.1721325020846411,-8.781381056968161,1.1721325020846411,-8.781381056968161,1.1719919796157565,-8.783508572471172,1.1719919796157565,-8.783508572471172,1.3609404294503087,-10.114687027491438,1.3609404294503087,-10.114687027491438,1.3529896631921736,-10.185085763215403,1.3529896631921736,-10.185085763215403,1.2295799196562556,-4.338482626082579,1.2295799196562556,-4.338482626082579,1.223507530393758,-4.390103683412937,1.223507530393758,-4.390103683412937,-10.849855263859723,-10.849855263859723,-10.859522992856723,-10.859522992856723,-5.645859707420537,-5.645859707420537,-5.652697403175166,-5.652697403175166,1.0491701260111752,-18.8960680844596,1.0491701260111752,-18.8960680844596,1.0465129004886427,-19.10953258172372,1.0465129004886427,-19.10953258172372,1.011670001379356,-10.406581194086877,1.011670001379356,-10.406581194086877,1.0111038528167262,-10.504214686853741,1.0111038528167262,-10.504214686853741,,,-28.99559126537616,-28.99559126537616,-5.645859707420537,-5.645859707420537,-5.652697403175166,-5.652697403175166
L IH S,3,-8.373501873932302,-8.373501873932302,-8.373887841853925,-8.373887841853925,1.1841587415006494,1.0,1.1841587415006494,1.0769230769230766,1.2146777555674335,-8.26543728767671,1.2146777555674335,-8.26543728767671,1.2144745174564104,-8.267804810597765,1.2144745174564104,-8.267804810597765,1.4551055801284796,-9.872554353597025,1.4551055801284796,-9.872554353597025,1.445378159751788,-9.93492383697776,1.445378159751788,-9.93492383697776,1.3765623551916846,-3.352160579698608,1.3765623551916846,-3.352160579698608,1.367522778710574,-3.403916485347034,1.367522778710574,-3.403916485347034,-9.553637383822595,-9.553637383822595,-9.562792845187973,-9.562792845187973,-4.249349818086804,-4.249349818086804,-4.2558397869201,-4.2558397869201,1.0613061463726445,-18.137991641273732,1.0613061463726445,-18.137991641273732,1.0579607477627802,-18.352853902782414,1.0579607477627802,-18.352853902782414,1.026847736645362,-9.097327831611453,1.026847736645362,-9.097327831611453,1.025449483323578,-9.200481445849986,1.025449483323578,-9.200481445849986,,,-26.984880311564293,-26.984880311564293,-4.249349818086804,-4.249349818086804,-4.2558397869201,-4.2558397869201
M AE B,3,-10.972950805198664,-10.972950805198664,-10.972945104969662,-10.972945104969662,1.0785484611851173,1.0,1.0785484611851173,1.0769230769230766,1.1431277056785765,-9.349838719899077,1.1431277056785765,-9.349838719899077,1.143030569514275,-9.351466122325562,1.143030569514275,-9.351466122325562,1.3150142421938698,-10.87908344039451,1.3150142421938698,-10.87908344039451,1.3084216339502788,-10.94594233017522,1.3084216339502788,-10.94594233017522,1.1902938829279786,-5.303845933032442,1.1902938829279786,-5.303845933032442,1.1865445247236812,-5.330887552665037,1.1865445247236812,-5.330887552665037,-12.375520158419942,-12.375520158419942,-12.385828893179088,-12.385828893179088,-5.858741470602309,-5.858741470602309,-5.866486572194502,-5.866486572194502,1.0648047113937005,-20.22892216029359,1.0648047113937005,-20.22892216029359,1.0612627269253383,-20.419613736493705,1.0612627269253383,-20.419613736493705,1.0104284800940295,-10.967768747724175,1.0104284800940295,-10.967768747724175,1.0099334405216114,-11.057110608440933,1.0099334405216114,-11.057110608440933,,,-25.337415688314138,-25.337415688314138,-5.858741470602309,-5.858741470602309,-5.866486572194502,-5.866486572194502
M AE L,3,-9.945744988968746,-9.945744988968746,-9.945909864950542,-9.945909864950542,1.1168160964516807,1.0,1.1168160964516807,1.0769230769230766,1.1849311721212732,-8.376556672522735,1.1849311721212732,-8.376556672522735,1.1847718877012914,-8.379118684369743,1.1847718877012914,-8.379118684369743,1.4087576698188764,-9.418407000252435,1.4087576698188764,-9.418407000252435,1.401684873856892,-9.476692424894962,1.401684873856892,-9.476692424894962,1.2557252668307,-4.174836167179962,1.2557252668307,-4.174836167179962,1.250530934689706,-4.214256758494249,1.250530934689706,-4.214256758494249,-9.536814119251268,-9.536814119251268,-9.551863627048576,-9.551863627048576,-4.97998865804722,-4.97998865804722,-4.991562645532367,-4.991562645532367,1.0739883508037436,-17.794963672775168,1.0739883508037436,-17.794963672775168,1.069920651680468,-18.01301969014146,1.069920651680468,-18.01301969014146,1.014742445124189,-9.838758981871695,1.014742445124189,-9.838758981871695,1.0140106550263923,-9.940479814270144,1.0140106550263923,-9.940479814270144,,,-20.95098316627775,-20.95098316627775,-4.97998865804722,-4.97998865804722,-4.991562645532367,-4.991562645532367
M AE V,3,-11.385884606333349,-11.385884606333349,-11.385743090412753,-11.385743090412753,1.0713293296358677,1.0,1.0713293296358677,1.0769230769230766,1.1414097550028492,-9.419906282515795,1.1414097550028492,-9.419906282515795,1.1413151728764526,-9.42142471093247,1.1413151728764526,-9.42142471093247,1.3064049397815114,-11.123811185638136,1.3064049397815114,-11.123811185638136,1.2999318432683613,-11.18828572203794,1.2999318432683613,-11.18828572203794,1.1845034949719855,-5.508640345678455,1.1845034949719855,-5.508640345678455,1.1808820105673958,-5.5315582481271885,1.1808820105673958,-5.5315582481271885,-11.230184520235802,-11.230184520235802,-11.246847407076675,-11.246847407076675,-6.416713872794002,-6.416713872794002,-6.41958767910873,-6.41958767910873,1.0642369388283874,-20.54371746815393,1.0642369388283874,-20.54371746815393,1.0607273775354715,-20.727915096148223,1.0607273775354715,-20.727915096148223,1.0100467132772013,-11.172563160370188,1.0100467132772013,-11.172563160370188,1.0095726250787105,-11.257781303903084,1.0095726250787105,-11.257781303903084,,,-21.58314412621602,-21.58314412621602,-6.416713872794002,-6.416713872794002,-6.41958767910873,-6.41958767910873
M AE Z,3,-11.547695069630748,-11.547695069630748,-11.547483047406633,-11.547483047406633,1.0692197326709654,1.0,1.0692197326709654,1.0769230769230766,1.1377447935612977,-9.58813407623389,1.1377447935612977,-9.58813407623389,1.1376556600490977,-9.589357530274325,1.1376556600490977,-9.589357530274325,1.368380702972946,-11.323954375621964,1.368380702972946,-11.323954375621964,1.356300188569028,-11.374871677618351,1.356300188569028,-11.374871677618351,1.1688694474908043,-6.459616635540501,1.1688694474908043,-6.459616635540501,1.1655932223454253,-6.447848980001344,1.1655932223454253,-6.447848980001344,-11.163504253454972,-11.163504253454972,-11.170780306354143,-11.170780306354143,-7.19374253733465,-7.19374253733465,-7.18335242688263,-7.18335242688263,1.0645173452819763,-20.912088451855855,1.0645173452819763,-20.912088451855855,1.0609909361256968,-21.071686635251048,1.0609909361256968,-21.071686635251048,1.0090159428717649,-12.123539450232235,1.0090159428717649,-12.123539450232235,1.008598423382878,-12.174072035777238,1.008598423382878,-12.174072035777238,,,-24.636978074491513,-24.636978074491513,-7.19374253733465,-7.19374253733465,-7.18335242688263,-7.18335242688263
M EH K,3,-9.946105394496504,-9.946105394496504,-9.946292278715429,-9.946292278715429,1.1110373886365312,1.0,1.1110373886365312,1.0769230769230766,1.181265140184445,-8.455738222277159,1.181265140184445,-8.455738222277159,1.181111475386011,-8.458238882412264,1.181111475386011,-8.458238882412264,1.3522006372060802,-9.868173182821382,1.3522006372060802,-9.868173182821382,1.3464522904771743,-9.925845306175336,1.3464522904771743,-9.925845306175336,1.1947742368234944,-4.667375907182441,1.1947742368234944,-4.667375907182441,1.191355964030128,-4.702129997087692,1.191355964030128,-4.702129997087692,-9.690470013826188,-9.690470013826188,-9.705324664761417,-9.705324664761417,-4.613808439138429,-4.613808439138429,-4.6247221818846285,-4.6247221818846285,1.0704343918074812,-18.32391140509854,1.0704343918074812,-18.32391140509854,1.0665694254542706,-18.538968561171213,1.0665694254542706,-18.538968561171213,1.0122202143689238,-10.202192275717492,1.0122202143689238,-10.202192275717492,1.0116250198179046,-10.301924971822737,1.0116250198179046,-10.301924971822737,,,-26.885034881845463,-26.885034881845463,-4.613808439138429,-4.613808439138429,-4.6247221818846285,-4.6247221818846285
M EH M,3,-10.330315717336346,-10.330315717336346,-10.330446701654848,-10.330446701654848,1.0958789136709823,1.0,1.0958789136709823,1.0769230769230766,1.1746987509349986,-8.583889508270724,1.1746987509349986,-8.583889508270724,1.1745548482370003,-8.586294627924369,1.1745548482370003,-8.586294627924369,1.3026679978822853,-10.468546702975553,1.3026679978822853,-10.468546702975553,1.2978869167159595,-10.52445610910947,1.2978869167159595,-10.52445610910947,1.1698378500550464,-5.000385936075183,1.1698378500550464,-5.000385936075183,1.1669048662257366,-5.03287155899992,1.1669048662257366,-5.03287155899992,-10.525614683190383,-10.525614683190383,-10.54045240246276,-10.54045240246276,-5.4587844967644745,-5.4587844967644745,-5.4678504740351075,-5.4678504740351075,1.0667169775362177,-19.052436211246278,1.0667169775362177,-19.052436211246278,1.063064728231288,-19.262017146614095,1.063064728231288,-19.262017146614095,1.0103495569664651,-10.535202304610234,1.0103495569664651,-10.535202304610234,1.0098570241476899,-10.632666533734964,1.0098570241476899,-10.632666533734964,,,-28.06075607586513,-28.06075607586513,-5.4587844967644745,-5.4587844967644745,-5.4678504740351075,-5.4678504740351075
M IH M,3,-9.60449612963441,-9.60449612963441,-9.604721017964172,-9.604721017964172,1.1291107368277786,1.0,1.1291107368277786,1.0769230769230766,1.2029277487867305,-8.2610985766098,1.2029277487867305,-8.2610985766098,1.2027424140957992,-8.26364395763484,1.2027424140957992,-8.26364395763484,1.3569391926788323,-10.088093301825971,1.3569391926788323,-10.088093301825971,1.3508122929766038,-10.142734156825767,1.3508122929766038,-10.142734156825767,1.2240990681872408,-4.62007291935613,1.2240990681872408,-4.62007291935613,1.2198501223245848,-4.6514208965889345,1.2198501223245848,-4.6514208965889345,-10.298629546745074,-10.298629546745074,-10.311987234076748,-10.311987234076748,-5.232075323005281,-5.232075323005281,-5.239751927025516,-5.239751927025516,1.0711998009576749,-18.34919187843577,1.0711998009576749,-18.34919187843577,1.06729271697719,-18.56302044126526,1.06729271697719,-18.56302044126526,1.014853560807287,-9.831957971799728,1.014853560807287,-9.831957971799728,1.014115847634432,-9.933669828386128,1.014115847634432,-9.933669828386128,,,-28.81815404917625,-28.81815404917625,-5.232075323005281,-5.232075323005281,-5.239751927025516,-5.239751927025516
M IH P,3,-9.664814103764726,-9.664814103764726,-9.665028097772058,-9.665028097772058,1.1272166363270328,1.0,1.1272166363270328,1.0769230769230766,1.1917801577353446,-8.52521317965767,1.1917801577353446,-8.52521317965767,1.191611395912595,-8.527518496225893,1.191611395912595,-8.527518496225893,1.3639275400170405,-10.042607159317123,1.3639275400170405,-10.042607159317123,1.3568794924186613,-10.104659071048921,1.3568794924186613,-10.104659071048921,1.218203710781198,-4.723390533384157,1.218203710781198,-4.723390533384157,1.2140382806972692,-4.754075050649019,1.2140382806972692,-4.754075050649019,-11.314889339531334,-11.314889339531334,-11.326535086198827,-11.326535086198827,-5.64890418976376,-5.64890418976376,-5.655609192901295,-5.655609192901295,1.0701768348081253,-18.56782033897479,1.0701768348081253,-18.56782033897479,1.0663282209885907,-18.77978790209276,1.0663282209885907,-18.77978790209276,1.014242733900362,-9.935275585827753,1.014242733900362,-9.935275585827753,1.0135385429257904,-10.036323982446211,1.0135385429257904,-10.036323982446211,,,-24.551390401798272,-24.551390401798272,-5.64890418976376,-5.64890418976376,-5.655609192901295,-5.655609192901295
N AE L,3,-9.131665163849522,-9.131665163849522,-9.131927635828905,-9.131927635828905,1.1574938895410494,1.0,1.1574938895410494,1.0769230769230766,1.153860066366528,-9.270533746189042,1.153860066366528,-9.270533746189042,1.1537463527458554,-9.272062052246907,1.1537463527458554,-9.272062052246907,1.3219882717202314,-10.743546938218994,1.3219882717202314,-10.743546938218994,1.313567699184968,-10.827943211573569,1.313567699184968,-10.827943211573569,1.2000269744868002,-4.605999031480215,1.2000269744868002,-4.605999031480215,1.1934908935632995,-4.671622796705902,1.1934908935632995,-4.671622796705902,-12.004538880938307,-12.004538880938307,-12.011865125292859,-12.011865125292859,-6.443235760464875,-6.443235760464875,-6.448016661297755,-6.448016661297755,1.036778347790788,-20.014080684408036,1.036778347790788,-20.014080684408036,1.0348254541811783,-20.21879026725664,1.0348254541811783,-20.21879026725664,1.008599151866736,-11.163898919838255,1.008599151866736,-11.163898919838255,1.0082004318853073,-11.253307023508162,1.0082004318853073,-11.253307023508162,,,-19.10061482578385,-19.10061482578385,-6.443235760464875,-6.443235760464875,-6.448016661297755,-6.448016661297755
N EH N,3,-8.702156067097896,-8.702156067097896,-8.702482243411575,-8.702482243411575,1.1772344998497197,1.0,1.1772344998497197,1.0769230769230766,1.1872635923437258,-8.831504422976165,1.1872635923437258,-8.831504422976165,1.1871003878822581,-8.83325402720595,1.1871003878822581,-8.83325402720595,1.3560544355364699,-10.62444217330272,1.3560544355364699,-10.62444217330272,1.347630134637935,-10.702017515225823,1.347630134637935,-10.702017515225823,1.266745988244364,-4.094571857740678,1.266745988244364,-4.094571857740678,1.2592536238997414,-4.159858658060321,1.2592536238997414,-4.159858658060321,-10.947610528793975,-10.947610528793975,-10.954973527173493,-10.954973527173493,-5.37479620641645,-5.37479620641645,-5.380283724841695,-5.380283724841695,1.0422364657805627,-19.455946596278885,1.0422364657805627,-19.455946596278885,1.039973522056519,-19.662515170038095,1.039973522056519,-19.662515170038095,1.0146702197862918,-10.523365299942036,1.0146702197862918,-10.523365299942036,1.013938269434527,-10.615114803821731,1.013938269434527,-10.615114803821731,,,-25.7467104239913,-25.7467104239913,-5.37479620641645,-5.37479620641645,-5.380283724841695,-5.380283724841695
N IH N,3,-7.976336479395959,-7.976336479395959,-7.976756559720899,-7.976756559720899,1.210466323006516,1.0,1.210466323006516,1.0769230769230766,1.2154925901954576,-8.508713491315241,1.2154925901954576,-8.508713491315241,1.215287953741057,-8.510603356916423,1.215287953741057,-8.510603356916423,1.2633345806213685,-11.41595386039649,1.2633345806213685,-11.41595386039649,1.257471520387092,-11.484966116778342,1.257471520387092,-11.484966116778342,1.1739717647483956,-4.886223929264977,1.1739717647483956,-4.886223929264977,1.168977508887473,-4.9430785494855565,1.168977508887473,-4.9430785494855565,-10.23479161145514,-10.23479161145514,-10.241778014055793,-10.241778014055793,-4.662253251763729,-4.662253251763729,-4.667454833100413,-4.667454833100413,1.0381661977326566,-19.92466735171173,1.0381661977326566,-19.92466735171173,1.0361347339620472,-20.12818901852548,1.0361347339620472,-20.12818901852548,1.010549576994511,-10.992086055374882,1.010549576994511,-10.992086055374882,1.0100436426689328,-11.080788652309113,1.0100436426689328,-11.080788652309113,,,-27.292565757666697,-27.292565757666697,-4.662253251763729,-4.662253251763729,-4.667454833100413,-4.667454833100413
N IH S,3,-8.170326123862985,-8.170326123862985,-8.170729582919972,-8.170729582919972,1.1975875737933617,1.0,1.1975875737933617,1.0769230769230766,1.2053375928678254,-8.62613216187377,1.2053375928678254,-8.62613216187377,1.2051480536152612,-8.627970159476266,1.2051480536152612,-8.627970159476266,1.3695565513776236,-10.841291560843722,1.3695565513776236,-10.841291560843722,1.36214316998673,-10.911378994648683,1.36214316998673,-10.911378994648683,1.3003534891404367,-3.960202912748246,1.3003534891404367,-3.960202912748246,1.2935688637730525,-4.019733114631512,1.2935688637730525,-4.019733114631512,-10.57159206214853,-10.57159206214853,-10.578959050946626,-10.578959050946626,-4.91008941566831,-4.91008941566831,-4.915119622293769,-4.915119622293769,1.0487647182316384,-19.46742372271749,1.0487647182316384,-19.46742372271749,1.0461321032615014,-19.669981023265997,1.0461321032615014,-19.669981023265997,1.023644178811721,-10.06606503885815,1.023644178811721,-10.06606503885815,1.0224196123604354,-10.15744321745507,1.0224196123604354,-10.15744321745507,,,-26.1974281076577,-26.1974281076577,-4.91008941566831,-4.91008941566831,-4.915119622293769,-4.915119622293769
P AE B,3,-11.033268779328981,-11.033268779328981,-11.033252184777549,-11.033252184777549,1.0766543606843715,1.0,1.0766543606843715,1.0769230769230766,1.1681352380678505,-8.960743741437769,1.1681352380678505,-8.960743741437769,1.1680014243147714,-8.962601900692063,1.1680014243147714,-8.962601900692063,1.250898899238887,-11.31194752269079,1.250898899238887,-11.31194752269079,1.2471466896534025,-11.367592011684613,1.2471466896534025,-11.367592011684613,1.1011710075837218,-6.12580499379003,1.1011710075837218,-6.12580499379003,1.1002243423902986,-6.141621773331493,1.1002243423902986,-6.141621773331493,-12.502572066308066,-12.502572066308066,-12.511620859449133,-12.511620859449133,-6.445336077343862,-6.445336077343862,-6.451078346200101,-6.451078346200101,1.086874611966162,-20.272691264128557,1.086874611966162,-20.272691264128557,1.0820782995311922,-20.461187543899754,1.0820782995311922,-20.461187543899754,1.0074887446702177,-11.400632830020454,1.0074887446702177,-11.400632830020454,1.0071530883436688,-11.487548637480476,1.0071530883436688,-11.487548637480476,,,-27.12509138720553,-27.12509138720553,-6.445336077343862,-6.445336077343862,-6.451078346200101,-6.451078346200101
P AE G,3,-11.627560746046306,-11.627560746046306,-11.627328513823647,-11.627328513823647,1.0670931228273137,1.0,1.0670931228273137,1.0769230769230766,1.1603853716862362,-9.324965891011884,1.1603853716862362,-9.324965891011884,1.1602630794819273,-9.326164517146218,1.1602630794819273,-9.326164517146218,1.2947427746617097,-10.76232214978531,1.2947427746617097,-10.76232214978531,1.2866125795467156,-10.845982034181738,1.2866125795467156,-10.845982034181738,1.1046452403573177,-6.020444478132204,1.1046452403573177,-6.020444478132204,1.1036218508840698,-6.038081094390653,1.1036218508840698,-6.038081094390653,-11.93467371947759,-11.93467371947759,-11.952105764457535,-11.952105764457535,-6.534742665059447,-6.534742665059447,-6.539873844983232,-6.539873844983232,1.0872534521870327,-20.087288040797194,1.0872534521870327,-20.087288040797194,1.0824354881533829,-20.27917524951742,1.0824354881533829,-20.27917524951742,1.0077178047603148,-11.295272314362629,1.0077178047603148,-11.295272314362629,1.0073695776094094,-11.384007958539636,1.0073695776094094,-11.384007958539636,,,-23.712844169356792,-23.712844169356792,-6.534742665059447,-6.534742665059447,-6.539873844983232,-6.539873844983232
P AE JH,3,-11.896009928115337,-11.896009928115337,-11.895629518946103,-11.895629518946103,1.0643200235911918,1.0,1.0643200235911918,1.0769230769230766,1.1533990389382787,-9.829319000272257,1.1533990389382787,-9.829319000272257,1.153287133154782,-9.829101968063203,1.153287133154782,-9.829101968063203,1.2744416270260972,-12.098999558759775,1.2744416270260972,-12.098999558759775,1.262179861782181,-12.174789548144343,1.262179861782181,-12.174789548144343,1.0785884945553488,-7.406738839252094,1.0785884945553488,-7.406738839252094,1.0781405371807855,-7.376366236324182,1.0781405371807855,-7.376366236324182,-11.695706457548768,-11.695706457548768,-11.711727994245193,-11.711727994245193,-7.517972879608711,-7.517972879608711,-7.511224354040415,-7.511224354040415,1.0848320940290137,-21.928318559032032,1.0848320940290137,-21.928318559032032,1.0801523423579307,-22.06139178038691,1.0801523423579307,-22.06139178038691,1.0059998540845874,-12.68156667548252,1.0059998540845874,-12.68156667548252,1.0057459081163551,-12.722293100473166,1.0057459081163551,-12.722293100473166,,,-24.898736832998665,-24.898736832998665,-7.517972879608711,-7.517972879608711,-7.511224354040415,-7.511224354040415
P AE V,3,-11.446202580463666,-11.446202580463666,-11.446050170220639,-11.446050170220639,1.069435229135122,1.0,1.069435229135122,1.0769230769230766,1.1664172873921232,-9.030811304054486,1.1664172873921232,-9.030811304054486,1.1662860276769489,-9.032560489298973,1.1662860276769489,-9.032560489298973,1.2422895968265286,-11.556675267934414,1.2422895968265286,-11.556675267934414,1.238656898971485,-11.60993540354733,1.238656898971485,-11.60993540354733,1.0953806196277287,-6.330599406436043,1.0953806196277287,-6.330599406436043,1.0945618282340133,-6.342292468793644,1.0945618282340133,-6.342292468793644,-11.357236428123922,-11.357236428123922,-11.37263937334672,-11.37263937334672,-7.003308479535555,-7.003308479535555,-7.004179453114331,-7.004179453114331,1.086306839400849,-20.5874865719889,1.086306839400849,-20.5874865719889,1.0815429501413254,-20.76948890355427,1.0815429501413254,-20.76948890355427,1.0071069778533894,-11.605427242666467,1.0071069778533894,-11.605427242666467,1.006792272900768,-11.688219332942628,1.006792272900768,-11.688219332942628,,,-23.37081982510741,-23.37081982510741,-7.003308479535555,-7.003308479535555,-7.004179453114331,-7.004179453114331
P AE Z,3,-11.608013043761066,-11.608013043761066,-11.607790127214521,-11.607790127214521,1.0673256321702196,1.0,1.0673256321702196,1.0769230769230766,1.1627523259505717,-9.19903909777258,1.1627523259505717,-9.19903909777258,1.162626514849594,-9.200493308640828,1.162626514849594,-9.200493308640828,1.3042653600179632,-11.756818457918243,1.3042653600179632,-11.756818457918243,1.2950252442721517,-11.796521359127743,1.2950252442721517,-11.796521359127743,1.0797465721465476,-7.281575696298089,1.0797465721465476,-7.281575696298089,1.0792730400120427,-7.2585832006677995,1.0792730400120427,-7.2585832006677995,-11.290556161343094,-11.290556161343094,-11.29657227262419,-11.29657227262419,-7.780337144076202,-7.780337144076202,-7.767944200888229,-7.767944200888229,1.0865872458544379,-20.955857555690823,1.0865872458544379,-20.955857555690823,1.0818065087315507,-21.113260442657094,1.0818065087315507,-21.113260442657094,1.006076207447953,-12.556403532528513,1.006076207447953,-12.556403532528513,1.0058180712049354,-12.604510064816782,1.0058180712049354,-12.604510064816782,,,-26.424653773382904,-26.424653773382904,-7.780337144076202,-7.780337144076202,-7.767944200888229,-7.767944200888229
P EH L,3,-9.779729616416754,-9.779729616416754,-9.779929811275052,-9.779929811275052,1.121233773966893,1.0,1.121233773966893,1.0769230769230766,1.2188709775290523,-7.859003879037604,1.2188709775290523,-7.859003879037604,1.2186619055305397,-7.861866331839012,1.2186619055305397,-7.861866331839012,1.34890607039373,-9.82216233056387,1.34890607039373,-9.82216233056387,1.3447772974555217,-9.867284190321183,1.3447772974555217,-9.867284190321183,1.1708070851552657,-4.968335107085568,1.1708070851552657,-4.968335107085568,1.1685174196628183,-4.9946328697562885,1.1685174196628183,-4.9946328697562885,-9.28904585957193,-9.28904585957193,-9.302979281684085,-9.302979281684085,-5.191855580511132,-5.191855580511132,-5.201614611831993,-5.201614611831993,1.097226769578515,-17.681166209601475,1.097226769578515,-17.681166209601475,1.091838277016065,-17.89780730710224,1.091838277016065,-17.89780730710224,1.0129891134285025,-10.114056497159309,1.0129891134285025,-10.114056497159309,1.0123514467427261,-10.214131652864422,1.0123514467427261,-10.214131652864422,,,-25.64770438436256,-25.64770438436256,-5.191855580511132,-5.191855580511132,-5.201614611831993,-5.201614611831993
P EH M,3,-10.390633691466663,-10.390633691466663,-10.390753781462735,-10.390753781462735,1.0939848131702365,1.0,1.0939848131702365,1.0769230769230766,1.1997062833242726,-8.194794529809416,1.1997062833242726,-8.194794529809416,1.1995257030374966,-8.197430406290872,1.1995257030374966,-8.197430406290872,1.2879322971783942,-10.545239323763807,1.2879322971783942,-10.545239323763807,1.2845904841580404,-10.591829122544882,1.2845904841580404,-10.591829122544882,1.1300946169618813,-5.466173535324747,1.1300946169618813,-5.466173535324747,1.1285972599821794,-5.4893291115923954,1.1285972599821794,-5.4893291115923954,-10.111676118792417,-10.111676118792417,-10.127080769662358,-10.127080769662358,-5.504388631219939,-5.504388631219939,-5.51327864897026,-5.51327864897026,1.0913102285154284,-18.740033853573223,1.0913102285154284,-18.740033853573223,1.0862602383193811,-18.949314285946162,1.0862602383193811,-18.949314285946162,1.0099349788938763,-10.611894925398488,1.0099349788938763,-10.611894925398488,1.0094649231995185,-10.708827894700528,1.0094649231995185,-10.708827894700528,,,-25.180286789607038,-25.180286789607038,-5.504388631219939,-5.504388631219939,-5.51327864897026,-5.51327864897026
P EH S,3,-9.770543510814464,-9.770543510814464,-9.77074457554017,-9.77074457554017,1.121783857046451,1.0,1.121783857046451,1.0769230769230766,1.2331872331601128,-7.665851041407077,1.2331872331601128,-7.665851041407077,1.2329568775123947,-7.668813240255132,1.2329568775123947,-7.668813240255132,1.2727153022663715,-10.822017048301205,1.2727153022663715,-10.822017048301205,1.270313524024856,-10.857686528940336,1.270313524024856,-10.857686528940336,1.1473974159440696,-5.223860067902817,1.1473974159440696,-5.223860067902817,1.145563327846451,-5.248738646674465,1.145563327846451,-5.248738646674465,-9.16315038153077,-9.16315038153077,-9.177490253824532,-9.177490253824532,-4.965392130487253,-4.965392130487253,-4.975631494009706,-4.975631494009706,1.0926298283305678,-18.487868089708282,1.0926298283305678,-18.487868089708282,1.0875047624325942,-18.698967646082867,1.0875047624325942,-18.698967646082867,1.0112329860710925,-10.369581457976558,1.0112329860710925,-10.369581457976558,1.0106916957053818,-10.468237429782599,1.0106916957053818,-10.468237429782599,,,-23.07196734988702,-23.07196734988702,-4.965392130487253,-4.965392130487253,-4.975631494009706,-4.975631494009706
P IH M,3,-9.664814103764726,-9.664814103764726,-9.665028097772058,-9.665028097772058,1.1272166363270328,1.0,1.1272166363270328,1.0769230769230766,1.2279352811760045,-7.872003598148492,1.2279352811760045,-7.872003598148492,1.2277132688962955,-7.874779736001344,1.2277132688962955,-7.874779736001344,1.267906610454926,-10.887086317150574,1.267906610454926,-10.887086317150574,1.2651388873453329,-10.927634219077438,1.2651388873453329,-10.927634219077438,1.1100589535740604,-5.808160913142043,1.1100589535740604,-5.808160913142043,1.1091187802054738,-5.825405497997669,1.1091187802054738,-5.825405497997669,-10.442365202196953,-10.442365202196953,-10.454946699909152,-10.454946699909152,-5.835353677310589,-5.835353677310589,-5.841511200593475,-5.841511200593475,1.0914619281044058,-18.759089915299068,1.0914619281044058,-18.759089915299068,1.0864032597450217,-18.967844629413584,1.0864032597450217,-18.967844629413584,1.01010475743036,-10.630950987124331,1.01010475743036,-10.630950987124331,1.0096245095008325,-10.72735823816795,1.0096245095008325,-10.72735823816795,,,-26.949285674596645,-26.949285674596645,-5.835353677310589,-5.835353677310589,-5.841511200593475,-5.841511200593475
R AE L,3,-9.428630036295193,-9.428630036295193,-9.428865663291344,-9.428865663291344,1.1387286842806672,1.0,1.1387286842806672,1.0769230769230766,1.1908064357548975,-8.270623255101889,1.1908064357548975,-8.270623255101889,1.1906385343110466,-8.273257220478019,1.1906385343110466,-8.273257220478019,1.3284164238374003,-10.093696563412374,1.3284164238374003,-10.093696563412374,1.323866860942042,-10.144933900865018,1.323866860942042,-10.144933900865018,1.1695087572155993,-4.956059147760747,1.1695087572155993,-4.956059147760747,1.166783286222829,-4.988427981703937,1.166783286222829,-4.988427981703937,-9.510060161365027,-9.510060161365027,-9.523242952055572,-9.523242952055572,-5.162031737434107,-5.162031737434107,-5.17083475539777,-5.17083475539777,1.0757584622831047,-18.36431981851426,1.0757584622831047,-18.36431981851426,1.0715901600635314,-18.57813154931536,1.0715901600635314,-18.57813154931536,1.0106343533139903,-10.514048545031635,1.0106343533139903,-10.514048545031635,1.0101252910854213,-10.611453137335767,1.0101252910854213,-10.611453137335767,,,-19.885771626258485,-19.885771626258485,-5.162031737434107,-5.162031737434107,-5.17083475539777,-5.17083475539777
R EH L,3,-9.202296689612883,-9.202296689612883,-9.202578529807967,-9.202578529807967,1.1450404622966253,1.0,1.1450404622966253,1.0769230769230766,1.1997387087734028,-8.142165440078067,1.1997387087734028,-8.142165440078067,1.1995576973397986,-8.144869089580784,1.1995576973397986,-8.144869089580784,1.4135567062522332,-9.294094900363373,1.4135567062522332,-9.294094900363373,1.407096396820319,-9.3482291097423,1.407096396820319,-9.3482291097423,1.2545899897694184,-4.157106115844608,1.2545899897694184,-4.157106115844608,1.2500012545619008,-4.192422997259975,1.2500012545619008,-4.192422997259975,-9.537462229389986,-9.537462229389986,-9.549258469776541,-9.549258469776541,-5.189526288748885,-5.189526288748885,-5.196986777047304,-5.196986777047304,1.0817100476743269,-17.43626034044144,1.0817100476743269,-17.43626034044144,1.0772034375730417,-17.655698483830545,1.0772034375730417,-17.655698483830545,1.0166072493347325,-9.585989066958811,1.0166072493347325,-9.585989066958811,1.01577341865404,-9.689020071850955,1.01577341865404,-9.689020071850955,,,-28.553718919329174,-28.553718919329174,-5.189526288748885,-5.189526288748885,-5.196986777047304,-5.196986777047304
R EH M,3,-9.813200764662792,-9.813200764662792,-9.81340249999565,-9.81340249999565,1.1177915014999689,1.0,1.1177915014999689,1.0769230769230766,1.1805740145686232,-8.47795609084988,1.1805740145686232,-8.47795609084988,1.1804214948467555,-8.480433164032643,1.1804214948467555,-8.480433164032643,1.3525829330368975,-10.01717189356331,1.3525829330368975,-10.01717189356331,1.3469095835228377,-10.072774041966001,1.3469095835228377,-10.072774041966001,1.213877521576034,-4.654944544083787,1.213877521576034,-4.654944544083787,1.210081094881262,-4.6871192390960825,1.210081094881262,-4.6871192390960825,-10.360092488610473,-10.360092488610473,-10.373359957754817,-10.373359957754817,-5.502059339457693,-5.502059339457693,-5.50865081418557,-5.50865081418557,1.0757935066112403,-18.495127984413188,1.0757935066112403,-18.495127984413188,1.0716253988763578,-18.707205462674466,1.0716253988763578,-18.707205462674466,1.0135531148001062,-10.083827495197992,1.0135531148001062,-10.083827495197992,1.0128868951108323,-10.183716313687063,1.0128868951108323,-10.183716313687063,,,-28.08630132457366,-28.08630132457366,-5.502059339457693,-5.502059339457693,-5.50865081418557,-5.50865081418557
R EH P,3,-9.87351873879311,-9.87351873879311,-9.873709579803537,-9.873709579803537,1.115897400999223,1.0,1.115897400999223,1.0769230769230766,1.1694264235172374,-8.742070693897746,1.1694264235172374,-8.742070693897746,1.1692904766635512,-8.744307702623695,1.1692904766635512,-8.744307702623695,1.3390148224316882,-10.411983583615418,1.3390148224316882,-10.411983583615418,1.3328621721693328,-10.469899098282982,1.3328621721693328,-10.469899098282982,1.1874144172503345,-5.198559990672769,1.1874144172503345,-5.198559990672769,1.1841329910888467,-5.224973535249992,1.1841329910888467,-5.224973535249992,-11.463876523898627,-11.463876523898627,-11.474283204044276,-11.474283204044276,-6.006412448718066,-6.006412448718066,-6.010883474228729,-6.010883474228729,1.0734137394968546,-19.154054277513165,1.0734137394968546,-19.154054277513165,1.0693812668731137,-19.359173065595797,1.0693812668731137,-19.359173065595797,1.0115679273525993,-10.627442941786972,1.0115679273525993,-10.627442941786972,1.0110106548077473,-10.721570609840972,1.0110106548077473,-10.721570609840972,,,-25.20583203831557,-25.20583203831557,-6.006412448718066,-6.006412448718066,-6.010883474228729,-6.010883474228729
R EH S,3,-9.193110584010594,-9.193110584010594,-9.193393294073086,-9.193393294073086,1.1455905453761832,1.0,1.1455905453761832,1.0769230769230766,1.2140549644044634,-7.94901260244754,1.2140549644044634,-7.94901260244754,1.2138526693216536,-7.9518159979969045,1.2138526693216536,-7.9518159979969045,1.3373659381248748,-10.293949618100708,1.3373659381248748,-10.293949618100708,1.3326326233896533,-10.338631448361454,1.3326326233896533,-10.338631448361454,1.2311803205582224,-4.4126310766618575,1.2311803205582224,-4.4126310766618575,1.2270471627455335,-4.446528774178152,1.2270471627455335,-4.446528774178152,-9.411566751348825,-9.411566751348825,-9.42376944191699,-9.42376944191699,-4.963062838725006,-4.963062838725006,-4.971003659225016,-4.971003659225016,1.0771131064263797,-18.242962220548247,1.0771131064263797,-18.242962220548247,1.0728699229895708,-18.45685882281117,1.0728699229895708,-18.45685882281117,1.0148511219773224,-9.84151402777606,1.0148511219773224,-9.84151402777606,1.0141136676166955,-9.943125848769132,1.0141136676166955,-9.943125848769132,,,-25.97798188485364,-25.97798188485364,-4.963062838725006,-4.963062838725006,-4.971003659225016,-4.971003659225016
R IH DH,3,-12.453450979996312,-12.453450979996312,-12.448858556147147,-12.448858556147147,1.1197820083136267,1.0,1.1197820083136267,1.0769230769230766,1.1638690580796662,-10.897994441776902,1.1638690580796662,-10.897994441776902,1.1637419086451724,-10.889136280523209,1.1637419086451724,-10.889136280523209,1.4222682155371975,-11.385911564266332,1.4222682155371975,-11.385911564266332,1.377146484057283,-11.687913011370163,1.377146484057283,-11.687913011370163,1.2156710337387657,-6.636440014752025,1.2156710337387657,-6.636440014752025,1.2114408988263305,-6.615295394217521,1.2114408988263305,-6.615295394217521,-13.468401530513582,-13.468401530513582,-13.570376491405419,-13.570376491405419,-8.242811011594481,-8.242811011594481,-8.210366155326303,-8.210366155326303,1.071790305082264,-22.28390600604323,1.071790305082264,-22.28390600604323,1.0678523587224196,-22.37785903068079,1.0678523587224196,-22.37785903068079,1.012897901187824,-11.742391649774776,1.012897901187824,-11.742391649774776,1.0122699140793918,-11.79434642587065,1.0122699140793918,-11.79434642587065,,,-27.92858666999171,-27.92858666999171,-8.242811011594481,-8.242811011594481,-8.210366155326303,-8.210366155326303
R IH N,3,-8.27330135184163,-8.27330135184163,-8.273694587183337,-8.273694587183337,1.1917011177461339,1.0,1.1917011177461339,1.0769230769230766,1.2524389595838274,-7.508803000228087,1.2524389595838274,-7.508803000228087,1.2521801353062483,-7.511798525147533,1.2521801353062483,-7.511798525147533,1.4186198652786641,-9.58337239664818,1.4186198652786641,-9.58337239664818,1.4123931397677996,-9.627205224427598,1.4123931397677996,-9.627205224427598,1.2923106800173214,-4.053552956603821,1.2923106800173214,-4.053552956603821,1.286994839981434,-4.085132152841401,1.286994839981434,-4.085132152841401,-8.418498978793336,-8.418498978793336,-8.428284515875772,-8.428284515875772,-4.059235315644438,-4.059235315644438,-4.065401602257696,-4.065401602257696,1.0853942784798694,-17.092175396876268,1.0853942784798694,-17.092175396876268,1.0806786384803764,-17.312778718942006,1.0806786384803764,-17.312778718942006,1.0208386509778524,-9.159504591626572,1.0208386509778524,-9.159504591626572,1.0197748752917317,-9.264183184494527,1.0197748752917317,-9.264183184494527,,,-27.861289166840514,-27.861289166840514,-4.059235315644438,-4.059235315644438,-4.065401602257696,-4.065401602257696
R IH S,3,-8.467290996308655,-8.467290996308655,-8.46766761038241,-8.46766761038241,1.1788223685329795,1.0,1.1788223685329795,1.0769230769230766,1.2422839622561952,-7.626221670786616,1.2422839622561952,-7.626221670786616,1.2420402351804525,-7.629165327707377,1.2420402351804525,-7.629165327707377,1.5248418360349192,-9.008710097095411,1.5248418360349192,-9.008710097095411,1.5170647893674376,-9.053618102297941,1.5170647893674376,-9.053618102297941,1.4186924044093625,-3.12753194008709,1.4186924044093625,-3.12753194008709,1.4115861948670134,-3.1617867179873556,1.4115861948670134,-3.1617867179873556,-8.755299429486726,-8.755299429486726,-8.765465552766607,-8.765465552766607,-4.307071479549019,-4.307071479549019,-4.313066391451052,-4.313066391451052,1.0959927989788512,-16.634931767882026,1.0959927989788512,-16.634931767882026,1.0906760077798305,-16.85457072368252,1.0906760077798305,-16.85457072368252,1.0339332527950624,-8.23348357510984,1.0339332527950624,-8.23348357510984,1.0321508449832344,-8.340837749640484,1.0321508449832344,-8.340837749640484,,,-26.766151516831517,-26.766151516831517,-4.307071479549019,-4.307071479549019,-4.313066391451052,-4.313066391451052
R IH SH,3,-9.894768779749677,-9.894768779749677,-9.894846807724331,-9.894846807724331,1.1330974214146776,1.0,1.1330974214146776,1.0769230769230766,1.1696337370137733,-9.845706224783031,1.1696337370137733,-9.845706224783031,1.1694980173631992,-9.844817074221762,1.1694980173631992,-9.844817074221762,1.436917743136811,-10.887305324438712,1.436917743136811,-10.887305324438712,1.4126811375401005,-11.019822621696406,1.4126811375401005,-11.019822621696406,1.2189871722796648,-6.211556820786758,1.2189871722796648,-6.211556820786758,1.2147100597416955,-6.209830286109358,1.2147100597416955,-6.209830286109358,-10.732393988724386,-10.732393988724386,-10.748872339179787,-10.748872339179787,-5.45041966205852,-5.45041966205852,-5.454747537304984,-5.454747537304984,1.0730839223655437,-20.733011549221743,1.0730839223655437,-20.733011549221743,1.069071742432852,-20.899757120307775,1.069071742432852,-20.899757120307775,1.0132414913229697,-11.31750845580951,1.0132414913229697,-11.31750845580951,1.0125946479780026,-11.388881317762484,1.0125946479780026,-11.388881317762484,,,-28.478157287376227,-28.478157287376227,-5.45041966205852,-5.45041966205852,-5.454747537304984,-5.454747537304984
R IH TH,3,-11.235365038193912,-11.235365038193912,-11.234335540926057,-11.234335540926057,1.122441688358087,1.0,1.122441688358087,1.0769230769230766,1.1679921397014117,-10.050696581389698,1.1679921397014117,-10.050696581389698,1.1678588605759466,-10.048831455626976,1.1678588605759466,-10.048831455626976,1.4724655320328566,-10.762357675505582,1.4724655320328566,-10.762357675505582,1.438188167002913,-10.924703600090776,1.438188167002913,-10.924703600090776,1.2182502526039094,-6.291599528460296,1.2182502526039094,-6.291599528460296,1.213983579538281,-6.286791327245486,1.213983579538281,-6.286791327245486,-11.817393112867103,-11.817393112867103,-11.858571206856995,-11.858571206856995,-7.472702789898408,-7.472702789898408,-7.461129508115315,-7.461129508115315,1.073008544534164,-20.813054256895278,1.073008544534164,-20.813054256895278,1.0690006515431494,-20.976718161443902,1.0690006515431494,-20.976718161443902,1.013165137959604,-11.397551163483046,1.013165137959604,-11.397551163483046,1.0125224848894225,-11.465842358898614,1.0125224848894225,-11.465842358898614,,,-28.61036125917208,-28.61036125917208,-7.472702789898408,-7.472702789898408,-7.461129508115315,-7.461129508115315
R IH V,3,-9.916616719275547,-9.916616719275547,-9.916686071579502,-9.916686071579502,1.1327855186376086,1.0,1.1327855186376086,1.0769230769230766,1.1844462895067107,-8.862724118410203,1.1844462895067107,-8.862724118410203,1.1842885483737586,-8.864524445853984,1.1842885483737586,-8.864524445853984,1.3733091602423733,-10.393134287113112,1.3733091602423733,-10.393134287113112,1.3657762231242434,-10.460373932098744,1.3657762231242434,-10.460373932098744,1.2455162806068572,-4.884685880137669,1.2455162806068572,-4.884685880137669,1.240863347064616,-4.910547301979096,1.240863347064616,-4.910547301979096,-9.601403696965459,-9.601403696965459,-9.621181786914722,-9.621181786914722,-4.99709853277272,-4.99709853277272,-5.002317969110167,-5.002317969110167,1.0760265843853132,-19.255858405523316,1.0760265843853132,-19.255858405523316,1.0718468883917667,-19.453870661985636,1.0718468883917667,-19.453870661985636,1.0159902124041333,-9.99063751516042,1.0159902124041333,-9.99063751516042,1.0151925191668896,-10.089598333632225,1.0151925191668896,-10.089598333632225,,,-19.97012856138792,-19.97012856138792,-4.99709853277272,-4.99709853277272,-5.002317969110167,-5.002317969110167
R IH Z,3,-10.078427182572948,-10.078427182572948,-10.078426028573382,-10.078426028573382,1.1306759216727063,1.0,1.1306759216727063,1.0769230769230766,1.1807813280651591,-9.030951912128298,1.1807813280651591,-9.030951912128298,1.1806290355464037,-9.032457265195838,1.1806290355464037,-9.032457265195838,1.4553207759209543,-9.52678830011305,1.4553207759209543,-9.52678830011305,1.4417631456764053,-9.616258804627256,1.4417631456764053,-9.616258804627256,1.249937798661389,-4.769172993015824,1.249937798661389,-4.769172993015824,1.2452222282851027,-4.796136950801352,1.2452222282851027,-4.796136950801352,-9.128713299288808,-9.128713299288808,-9.151670100223686,-9.151670100223686,-5.368117066417546,-5.368117066417546,-5.372638130915561,-5.372638130915561,1.077776858550808,-18.55774021224135,1.077776858550808,-18.55774021224135,1.0734967193311904,-18.766941118036563,1.0734967193311904,-18.766941118036563,1.0164483325843272,-9.875124628038575,1.0164483325843272,-9.875124628038575,1.0156254976983707,-9.97518798245448,1.0156254976983707,-9.97518798245448,,,-22.535609741749482,-22.535609741749482,-5.368117066417546,-5.368117066417546,-5.372638130915561,-5.372638130915561
R IH ZH,3,-12.473964519829416,-12.473964519829416,-12.469267427778355,-12.469267427778355,1.1197593244752944,1.0,1.1197593244752944,1.0769230769230766,1.1623419908123531,-11.578871529745033,1.1623419908123531,-11.578871529745033,1.1622171116337745,-11.558185909504093,1.1622171116337745,-11.558185909504093,1.3432392337188344,-13.132782712246252,1.3432392337188344,-13.132782712246252,1.3150984431058705,-13.409688225628358,1.3150984431058705,-13.409688225628358,1.2116179755221113,-7.677893889580186,1.2116179755221113,-7.677893889580186,1.207445257707551,-7.559757003058373,1.207445257707551,-7.559757003058373,-13.3196336551568,-13.3196336551568,-13.428757431759875,-13.428757431759875,-8.060489454800527,-8.060489454800527,-8.03447548886264,-8.03447548886264,1.0710321368745297,-24.711654241991283,1.0710321368745297,-24.711654241991283,1.0671375479346181,-24.500975635863284,1.0671375479346181,-24.500975635863284,1.012477957689313,-12.783845524602937,1.012477957689313,-12.783845524602937,1.0118730170922008,-12.7388080347115,1.0118730170922008,-12.7388080347115,,,-26.88196707311936,-26.88196707311936,-8.060489454800527,-8.060489454800527,-8.03447548886264,-8.03447548886264
