connormayer/uci_phonotactic_calculator/src/output.csv
word,word_len,uni_prob,uni_prob_freq_weighted,uni_prob_smoothed,uni_prob_freq_weighted_smoothed,bi_cond_pos_wb,bi_cond_pos_wb_freq_weighted,bi_cond_pos_wb_smoothed,bi_cond_pos_wb_freq_weighted_smoothed,bi_cond_pos_noWB,bi_cond_pos_noWB_freq_weighted,bi_cond_pos_noWB_smoothed,bi_cond_pos_noWB_freq_weighted_smoothed,bi_cond_nonpos_wb,bi_cond_nonpos_wb_freq_weighted,bi_cond_nonpos_wb_smoothed,bi_cond_nonpos_wb_freq_weighted_smoothed,bi_cond_nonpos_noWB,bi_cond_nonpos_noWB_freq_weighted,bi_cond_nonpos_noWB_smoothed,bi_cond_nonpos_noWB_freq_weighted_smoothed,uni_joint_pos,uni_joint_pos_freq_weighted,uni_joint_pos_smoothed,uni_joint_pos_freq_weighted_smoothed,uni_joint_nonpos,uni_joint_nonpos_freq_weighted,uni_joint_nonpos_smoothed,uni_joint_nonpos_freq_weighted_smoothed,bi_joint_pos_wb,bi_joint_pos_wb_freq_weighted,bi_joint_pos_wb_smoothed,bi_joint_pos_wb_freq_weighted_smoothed,bi_joint_pos_noWB,bi_joint_pos_noWB_freq_weighted,bi_joint_pos_noWB_smoothed,bi_joint_pos_noWB_freq_weighted_smoothed,bi_joint_nonpos_wb,bi_joint_nonpos_wb_freq_weighted,bi_joint_nonpos_wb_smoothed,bi_joint_nonpos_wb_freq_weighted_smoothed,bi_joint_nonpos_noWB,bi_joint_nonpos_noWB_freq_weighted,bi_joint_nonpos_noWB_smoothed,bi_joint_nonpos_noWB_freq_weighted_smoothed
B AE L,3,-10.362046730148755,,-10.36212113478198,-10.990684938388938,-9.784131779711085,,-9.840536627746712,-14.755517816455745,-4.536972855239737,,-4.574513008095353,-7.327123292259293,-9.709414945226865,,-9.72608748163445,-14.755517816455745,-5.265809228395492,,-5.278168112908658,-7.327123292259293,1.1847428623894263,1,1.184583854156107,1.0769230769230766,1.1057974219817737,1,1.1057910373293418,1.0769230769230766,-18.164276543632695,,-18.38035186304493,-29.51103563291149,-10.204483761330346,,-10.304226468811017,-14.654246584518585,,,-21.97313471513801,-14.755517816455745,-5.265809228395492,,-5.278168112908658,-7.327123292259293
B AE P,3,-11.033268779328981,,-11.033252184777549,-10.990684938388938,-10.559719792755127,,-10.622803258857319,-14.755517816455745,-5.236126059859894,,-5.267660188655299,-7.327123292259293,-11.479829398108048,,-11.495553294614842,-14.755517816455745,-5.926695546737216,,-5.936505888802742,-7.327123292259293,1.1544305771332608,1,1.1543166334798596,1.0769230769230766,1.0766543606843715,1,1.0766544201025081,1.0769230769230766,-19.539769810496416,,-19.744423087380106,-29.51103563291149,-10.903636965950504,,-10.997373649370962,-14.654246584518585,,,-24.234719629309367,-14.755517816455745,-5.926695546737216,,-5.936505888802742,-7.327123292259293
B IH S,3,-9.40070769016222,,-9.400923081873046,-10.990684938388938,-9.894695479474237,,-9.938070100632665,-14.755517816455745,-3.9039958136461945,,-3.9367210158318002,-7.327123292259293,-9.145510714493625,,-9.159839514959963,-14.755517816455745,-4.601705471655466,,-4.611929181576418,-7.327123292259293,1.2362203888907237,1,1.2359855550255128,1.0769230769230766,1.145891106234086,1,1.1458758561255498,1.0769230769230766,-17.630438659080575,,-17.845640308865125,-29.51103563291149,-9.119468957488667,,-9.222460352568762,-14.654246584518585,,,-27.371278950849817,-14.755517816455745,-4.601705471655466,,-4.611929181576418,-7.327123292259293
CH AE L,3,-11.720820025288898,,-11.720126548210672,-10.990684938388938,-11.387097177639568,,-11.566325650319044,-14.755517816455745,-4.210427758645982,,-4.371569432451574,-7.327123292259293,-12.007373092699444,,-12.02952666084531,-14.755517816455745,-5.475399813304998,,-5.504558860861337,-7.327123292259293,1.1399628081562232,1,1.139869477111242,1.0769230769230766,1.089941418987507,1,1.089938540390983,1.0769230769230766,-21.696752436083415,,-21.883331939017026,-29.51103563291149,-11.807449159258828,,-11.881915682930536,-14.654246584518585,,,-20.229249885746377,-14.755517816455745,-5.475399813304998,,-5.504558860861337,-7.327123292259293
CH AE N,3,-11.517644275219581,,-11.516968289276718,-10.990684938388938,-11.12040970678979,,-11.296084362906566,-14.755517816455745,-3.5507692478400807,,-3.714789896062504,-7.327123292259293,-11.029984214242468,,-11.05322470999305,-14.755517816455745,-4.4864072496541105,,-4.517279067743819,-7.327123292259293,1.164434061114916,1,1.164304349218893,1.0769230769230766,1.1033702512802193,1,1.1033644033201795,1.0769230769230766,-21.119493457044577,,-21.30846952509584,-29.51103563291149,-11.147790648452926,,-11.225136146541466,-14.654246584518585,,,-19.82194498196366,-14.755517816455745,-4.4864072496541105,,-4.517279067743819,-7.327123292259293
CH EH N,3,-11.291310928537271,,-11.290681155793342,-10.990684938388938,-11.003931795007624,,-11.18335485098141,-14.755517816455745,-3.4349399671907763,,-3.6027601908161024,-7.327123292259293,-10.87173289652063,,-10.89779807996928,-14.755517816455745,-4.328248415222092,,-4.361988941648616,-7.327123292259293,1.1733663341334213,1,1.1732235122476449,1.0769230769230766,1.1096820292961773,1,1.1096747856851272,1.0769230769230766,-20.874557730238593,,-21.07001173880859,-29.51103563291149,-10.90285492164694,,-10.986678360254214,-14.654246584518585,,,-26.432608981048435,-14.755517816455745,-4.328248415222092,,-4.361988941648616,-7.327123292259293
CH IH S,3,-10.75948098530236,,-10.758928495301738,-10.990684938388938,-11.296027717958669,,-11.465084162907745,-14.755517816455745,-3.3758175576083875,,-3.53500247989077,-7.327123292259293,-11.436548419121632,,-11.46260350002686,-14.755517816455745,-4.804375613720398,,-4.837644735385137,-7.327123292259293,1.1914403346575209,1,1.191271177980648,1.0769230769230766,1.1300351032398193,1,1.1300233591871909,1.0769230769230766,-20.961281392087244,,-21.14984542453997,-29.51103563291149,-10.520801195973098,,-10.60137460639103,-14.654246584518585,,,-26.70100510792088,-14.755517816455745,-4.804375613720398,,-4.837644735385137,-7.327123292259293
D AE L,3,-9.87799134744737,,-9.878167702264115,-10.990684938388938,-10.949883371216824,,-10.987842902710902,-14.755517816455745,-5.874082698742161,,-5.893171911567139,-7.327123292259293,-11.189717236086626,,-11.192708725441033,-14.755517816455745,-6.636579472933876,,-6.637237408876026,-7.327123292259293,1.1945349684454671,1,1.194361598505699,1.0769230769230766,1.1190844802849091,1,1.1190751576178164,1.0769230769230766,-19.158669883141748,,-19.36071156866699,-29.51103563291149,-11.370235352836083,,-11.455831287619636,-14.654246584518585,,,-20.407682242074237,-14.755517816455745,-6.636579472933876,,-6.637237408876026,-7.327123292259293
D AE S,3,-9.868805241845081,,-9.868982466529236,-10.990684938388938,-11.768781823634416,,-11.798247436565603,-14.755517816455745,-5.948651394239669,,-5.967279883720861,-7.327123292259293,-11.279415535832442,,-11.282362600850902,-14.755517816455745,-6.625709800696972,,-6.626397194323161,-7.327123292259293,1.2088512240765277,1,1.208656570487554,1.0769230769230766,1.119634563364467,1,1.119625119063818,1.0769230769230766,-19.784415497928816,,-19.98187410288316,-29.51103563291149,-11.44480404833359,,-11.529939259773357,-14.654246584518585,,,-17.835614936487662,-14.755517816455745,-6.625709800696972,,-6.626397194323161,-7.327123292259293
D EH M,3,-10.26256207581497,,-10.262704538968423,-10.990684938388938,-10.313437709706482,,-10.366104433748662,-14.755517816455745,-5.013047103403924,,-5.042284558896059,-7.327123292259293,-10.68421610362182,,-10.697919420092093,-14.755517816455745,-5.62107361524721,,-5.630147156615644,-7.327123292259293,1.1843025472591928,1,1.184144559041408,1.0769230769230766,1.0981472975042108,1,1.0981426044359777,1.0769230769230766,-18.7295570573794,,-18.940206871962875,-29.51103563291149,-10.380093311341163,,-10.478515853907707,-14.654246584518585,,,-26.404658228001544,-14.755517816455745,-5.62107361524721,,-5.630147156615644,-7.327123292259293
D EH P,3,-10.322880049945287,,-10.32301161877631,-10.990684938388938,-10.708249399758591,,-10.763229490065642,-14.755517816455745,-5.556662549992906,,-5.580138855049969,-7.327123292259293,-11.788000138909974,,-11.798842666381553,-14.755517816455745,-6.125426724507583,,-6.132379816658802,-7.327123292259293,1.173154956207807,1,1.1730135408582036,1.0769230769230766,1.096253197003465,1,1.0962489227559304,1.0769230769230766,-19.388483350479373,,-19.592174474884203,-29.51103563291149,-10.923708757930145,,-11.016370150061617,-14.654246584518585,,,-23.524188941743454,-14.755517816455745,-6.125426724507583,,-6.132379816658802,-7.327123292259293
D EH S,3,-9.642471895162771,,-9.64269533304586,-10.990684938388938,-10.59021543424388,,-10.631961840144116,-14.755517816455745,-4.770733635981994,,-4.801694093978129,-7.327123292259293,-9.735690366360174,,-9.748328904254267,-14.755517816455745,-5.082077114514522,,-5.09250000165509,-7.327123292259293,1.217783497095033,1,1.217575733516306,1.0769230769230766,1.1259463413804252,1,1.1259355014287658,1.0769230769230766,-18.477391293514458,,-18.68986023209958,-29.51103563291149,-10.137779843919233,,-10.237925388989776,-14.654246584518585,,,-24.296338788281524,-14.755517816455745,-5.082077114514522,,-5.09250000165509,-7.327123292259293
D IH DH,3,-12.90281229114849,,-12.898160595119919,-10.990684938388938,-10.555011146392307,,-10.857276059166068,-14.755517816455745,-5.867376340054966,,-5.846493370030744,-7.327123292259293,-12.907148344888142,,-13.011565180624611,-14.755517816455745,-7.47644848674721,,-7.448491724638294,-7.327123292259293,1.1675975907702358,1,1.1674649728398248,1.0769230769230766,1.1001378043178687,1,1.1001326711117156,1.0769230769230766,-21.391168844992244,,-21.48689309598244,-29.51103563291149,-10.911491231900753,,-10.96517862210454,-14.654246584518585,,,-26.94009075397954,-14.755517816455745,-7.47644848674721,,-7.448491724638294,-7.327123292259293
D IH JH,3,-10.815785378079395,,-10.815567459277737,-10.990684938388938,-9.899814139214662,,-10.017967588812343,-14.755517816455745,-4.987017617406874,,-4.999195509643541,-7.327123292259293,-9.819156107753692,,-9.847130174178941,-14.755517816455745,-5.185935974987434,,-5.193159516494794,-7.327123292259293,1.1751565737434357,1,1.1750127180462442,1.0769230769230766,1.1080261090979204,1,1.108019231641493,1.0769230769230766,-19.499209210665676,,-19.678184068440615,-29.51103563291149,-10.03113250925266,,-10.117880761717336,-14.654246584518585,,,-20.566708067106955,-14.755517816455745,-5.185935974987434,,-5.193159516494794,-7.327123292259293
D IH T,3,-8.783981484869674,,-8.78431053827356,-10.990684938388938,-8.668253674832169,,-8.717951595794515,-14.755517816455745,-3.657164567191935,,-3.6870091206773723,-7.327123292259293,-8.381970065695505,,-8.393769527515962,-14.755517816455745,-4.037313265744663,,-4.047294342976139,-7.327123292259293,1.2286039280993952,1,1.2283806134451694,1.0769230769230766,1.1677129587097432,1,1.1676928833854945,1.0769230769230766,-16.472906871027007,,-16.693861172824782,-29.51103563291149,-8.701279459037721,,-8.805694372751168,-14.654246584518585,,,-26.074014798231637,-14.755517816455745,-4.037313265744663,,-4.047294342976139,-7.327123292259293
D IH TH,3,-11.684726349346088,,-11.683637579898829,-10.990684938388938,-9.931457257631559,,-10.094066647886683,-14.755517816455745,-5.522535853763236,,-5.517989303058709,-7.327123292259293,-11.256139927241662,,-11.29975989607619,-14.755517816455745,-6.706340265051137,,-6.699255077427305,-7.327123292259293,1.1717206723919813,1,1.171581924770599,1.0769230769230766,1.102797484362329,1,1.1027917630516622,1.0769230769230766,-19.92031709584429,,-20.085752226745555,-29.51103563291149,-10.566650745609024,,-10.636674555132503,-14.654246584518585,,,-27.62186534315991,-14.755517816455745,-6.706340265051137,,-6.699255077427305,-7.327123292259293
D IH V,3,-10.365978030427723,,-10.365988110552273,-10.990684938388938,-9.562233869239087,,-9.62973697989465,-14.755517816455745,-4.1156222054406095,,-4.141745277792319,-7.327123292259293,-9.040150511340018,,-9.062370476133916,-14.755517816455745,-4.230736007925449,,-4.2404435384221575,-7.327123292259293,1.1881748221972803,1,1.188011612568411,1.0769230769230766,1.1131413146418505,1,1.113133306118746,1.0769230769230766,-18.363121244472328,,-18.56290472728729,-29.51103563291149,-9.159737097286397,,-9.260430529866115,-14.654246584518585,,,-18.98163264537575,-14.755517816455745,-4.230736007925449,,-4.2404435384221575,-7.327123292259293
D IH Z,3,-10.527788493725126,,-10.527728067546153,-10.990684938388938,-8.695887882239028,,-8.785621852423162,-14.755517816455745,-4.000109318318765,,-4.027334926614575,-7.327123292259293,-8.567460113663367,,-8.59285878944288,-14.755517816455745,-4.6017545415702745,,-4.610763700227551,-7.327123292259293,1.1845098607557287,1,1.1843520997410562,1.0769230769230766,1.1110317176769482,1,1.1110241756248014,1.0769230769230766,-17.66500305119036,,-17.87597518333822,-29.51103563291149,-9.044224210164552,,-9.14602017868837,-14.654246584518585,,,-21.547113825737313,-14.755517816455745,-4.6017545415702745,,-4.610763700227551,-7.327123292259293
D IH ZH,3,-12.923325830981591,,-12.918569466751126,-10.990684938388938,-12.301882294372227,,-12.579051273424266,-14.755517816455745,-6.908830214883126,,-6.790954978871596,-7.327123292259293,-12.75838046953136,,-12.869946120979069,-14.755517816455745,-7.294126929953255,,-7.27260105817463,-7.327123292259293,1.1660705235029227,1,1.165940175828427,1.0769230769230766,1.1001151204795363,1,1.1001099922892001,1.0769230769230766,-23.818917080940295,,-23.610009701164937,-29.51103563291149,-11.952945106728915,,-11.909640230945392,-14.654246584518585,,,-25.89347115710719,-14.755517816455745,-7.294126929953255,,-7.27260105817463,-7.327123292259293
F AE L,3,-10.541131437123969,,-10.541153738422842,-10.990684938388938,-10.490351041838384,,-10.542841513665424,-14.755517816455745,-5.149031528147714,,-5.182661299663756,-7.327123292259293,-10.304392781280896,,-10.318755995658446,-14.755517816455745,-5.740941744272508,,-5.751407575682228,-7.327123292259293,1.1800351190932525,1,1.1798830155264954,1.0769230769230766,1.1022984399190188,1,1.1022928289563205,1.0769230769230766,-18.964656394979315,,-19.17406121868372,-29.51103563291149,-10.910703023457643,,-11.00384616387658,-14.654246584518585,,,-22.694335063288968,-14.755517816455745,-5.740941744272508,,-5.751407575682228,-7.327123292259293
F AE S,3,-10.53194533152168,,-10.531968502687963,-10.990684938388938,-11.309249494255976,,-11.353246047520125,-14.755517816455745,-5.223600223645223,,-5.256769271817479,-7.327123292259293,-10.394091081026712,,-10.408409871068315,-14.755517816455745,-5.730072072035604,,-5.740567361129363,-7.327123292259293,1.194351374724313,1,1.1941779875083505,1.0769230769230766,1.1028485229985767,1,1.1028427904023221,1.0769230769230766,-19.590402009766382,,-19.79522375289989,-29.51103563291149,-10.98527171895515,,-11.0779541360303,-14.654246584518585,-21.006342909223388,,-20.122267757702392,-14.755517816455745,-5.730072072035604,,-5.740567361129363,-7.327123292259293
F EH K,3,-10.541491842651727,,-10.54153615218773,-10.990684938388938,-10.541386148480509,,-10.595457917581937,-14.755517816455745,-5.242840192223373,,-5.273998060893336,-7.327123292259293,-9.84655250686965,,-9.864518333478784,-14.755517816455745,-4.763265356377549,,-4.776868412141986,-7.327123292259293,1.1763690871564245,1,1.176222603211215,1.0769230769230766,1.0965197321038693,1,1.096515398920488,1.0769230769230766,-19.094873051375863,,-19.30347361234961,-29.51103563291149,-10.875405241376619,,-10.968754844065309,-14.654246584518585,,,-23.55477668559903,-14.755517816455745,-4.763265356377549,,-4.776868412141986,-7.327123292259293
F EH S,3,-10.30561198483937,,-10.305681369204587,-10.990684938388938,-11.418537393172079,,-11.459926126911526,-14.755517816455745,-5.333536753694185,,-5.364149157887634,-7.327123292259293,-9.733171438972198,,-9.7500555553423,-14.755517816455745,-5.069244913270909,,-5.08234954933191,-7.327123292259293,1.2032836477428184,1,1.2030971505371024,1.0769230769230766,1.1091603010145348,1,1.1091531727672699,1.0769230769230766,-19.57123209365866,,-19.776175557929196,-29.51103563291149,-10.966101802847431,,-11.058905941059606,-14.654246584518585,-23.67250015636769,,-22.622178439898672,-14.755517816455745,-5.069244913270909,,-5.08234954933191,-7.327123292259293
F IH K,3,-9.81567225494979,,-9.815810468497052,-10.990684938388938,-10.120893343321761,,-10.175883633813154,-14.755517816455745,-4.822487771495154,,-4.8546950669972695,-7.327123292259293,-9.218679756687743,,-9.235909452170446,-14.755517816455745,-4.135668568881758,,-4.148626152210069,-7.327123292259293,1.2045980850081563,1,1.204410169070014,1.0769230769230766,1.1297515552606656,1,1.1297398739057467,1.0769230769230766,-18.351589314556193,,-18.56662457551569,-29.51103563291149,-10.132121504556949,,-10.231905807231389,-14.654246584518585,,,-26.134705786804965,-14.755517816455745,-4.135668568881758,,-4.148626152210069,-7.327123292259293
F IH S,3,-9.579792397137433,,-9.579955685513909,-10.990684938388938,-9.940505015505531,,-9.986217665562574,-14.755517816455745,-3.8556447604581674,,-3.8907119864113984,-7.327123292259293,-8.997785695498703,,-9.014291565346936,-14.755517816455745,-4.334135132483526,,-4.346952180712965,-7.327123292259293,1.2315126455945502,1,1.2312847163959013,1.0769230769230766,1.142392124171331,1,1.1423776477525285,1.0769230769230766,-17.770408784331188,,-17.985192343515106,-29.51103563291149,-9.165278493519962,,-9.26792272664552,-14.654246584518585,,,-26.300719829772717,-14.755517816455745,-4.334135132483526,,-4.346952180712965,-7.327123292259293
G AE N,3,-10.753162946796763,,-10.753039204894124,-10.990684938388938,-10.411262184883403,,-10.481650143200074,-14.755517816455745,-4.078703688866909,,-4.136716281224741,-7.327123292259293,-9.746453363515743,,-9.76538221687807,-14.755517816455745,-4.566899698733923,,-4.583541750563092,-7.327123292259293,1.183039062621394,1,1.1828820634831176,1.0769230769230766,1.1096650164174282,1,1.1096577765682405,1.0769230769230766,-19.17326397220498,,-19.38174291281716,-29.51103563291149,-10.438643126546541,,-10.53198896598152,-14.654246584518585,,,-20.325489362858477,-14.755517816455745,-4.566899698733923,,-4.583541750563092,-7.327123292259293
G EH N,3,-10.526829600114453,,-10.526752071410748,-10.990684938388938,-11.777121683241106,,-11.806508286782357,-14.755517816455745,-5.445211818357473,,-5.46227423148578,-7.327123292259293,-10.602073106006923,,-10.605693965390685,-14.755517816455745,-5.422611924514924,,-5.42399000300427,-7.327123292259293,1.1919713356398993,1,1.1918012265118696,1.0769230769230766,1.1159767944333863,1,1.1159681589331882,1.0769230769230766,-20.41066565553886,,-20.58087278203735,-29.51103563291149,-11.676044809880421,,-11.731118835201709,-14.654246584518585,,,-26.25558496359017,-14.755517816455745,-5.422611924514924,,-5.42399000300427,-7.327123292259293
G IH N,3,-9.801010012412517,,-9.801026387720071,-10.990684938388938,-11.72961141925153,,-11.78018312437737,-14.755517816455745,-5.397841938798428,,-5.436220358953512,-7.327123292259293,-10.370102230927953,,-10.381671513452982,-14.755517816455745,-5.190917012122068,,-5.200334172442984,-7.327123292259293,1.2202003334916312,1,1.2199887923706685,1.0769230769230766,1.1492086175901826,1,1.1491926339184468,1.0769230769230766,-20.040364459888362,,-20.237272866567228,-29.51103563291149,-11.305743614229923,,-11.387518919731589,-14.654246584518585,,,-28.024583848579777,-14.755517816455745,-5.190917012122068,,-5.200334172442984,-7.327123292259293
G IH S,3,-9.994999656879543,,-9.994999410919146,-10.990684938388938,-11.154949119698763,,-11.206596002247714,-14.755517816455745,-4.471820922281697,,-4.512874924099466,-7.327123292259293,-10.706902681621344,,-10.718852550343815,-14.755517816455745,-5.4387531760266485,,-5.447998961636341,-7.327123292259293,1.210045336163999,1,1.2098488922448727,1.0769230769230766,1.1363298683770282,1,1.1363167324352519,1.0769230769230766,-19.58312083089412,,-19.779064871307746,-29.51103563291149,-10.379722597713192,,-10.464173484877545,-14.654246584518585,,,-26.92944619857078,-14.755517816455745,-5.4387531760266485,,-5.447998961636341,-7.327123292259293
HH AE N,3,-11.183982899240402,,-11.183600038593097,-10.990684938388938,-9.75037586654168,,-9.811068993020339,-14.755517816455745,-3.8088104460248156,,-3.8570875295192986,-7.327123292259293,-8.294551290979665,,-8.329218370871374,-14.755517816455745,-3.57113926282764,,-3.6015679696627334,-7.327123292259293,1.1955804907624004,1,1.1954050975924029,1.0769230769230766,1.1055422288005354,1,1.105535900576042,1.0769230769230766,-18.121384578363624,,-18.337912970341257,-29.51103563291149,-9.777756808204817,,-9.878687693968775,-14.654246584518585,,,-19.625920943735323,-14.755517816455745,-3.57113926282764,,-3.6015679696627334,-7.327123292259293
HH AE S,3,-11.377972543707427,,-11.37757306179217,-10.990684938388938,-10.835961789809051,,-10.891714814287518,-14.755517816455745,-4.543037652328225,,-4.5879750380620905,-7.327123292259293,-9.361638469182457,,-9.395174197133505,-14.755517816455745,-4.549262154241623,,-4.5780075482273865,-7.327123292259293,1.185425493434768,1,1.185265197466607,1.0769230769230766,1.092663479587381,1,1.092659999092847,1.0769230769230766,-19.324389172189527,,-19.533937918478614,-29.51103563291149,-10.511984014508226,,-10.609575202511568,-14.654246584518585,,,-17.46115854193147,-14.755517816455745,-4.549262154241623,,-4.5780075482273865,-7.327123292259293
HH EH S,3,-11.151639197025117,,-11.151285928308795,-10.990684938388938,-10.874073410257257,,-10.927777326464966,-14.755517816455745,-4.581797903909293,,-4.624737356918294,-7.327123292259293,-9.163780221454026,,-9.196679061581452,-14.755517816455745,-4.351496389803009,,-4.379648916603898,-7.327123292259293,1.1943577664532734,1,1.194184360495359,1.0769230769230766,1.0989752576033391,1,1.0989703814577947,1.0769230769230766,-19.234042977613914,,-19.444272156293966,-29.51103563291149,-10.421637819932611,,-10.51990944032692,-14.654246584518585,,,-25.039363166697825,-14.755517816455745,-4.351496389803009,,-4.379648916603898,-7.327123292259293
JH IH S,3,-10.263448838948575,,-10.263300416041602,-10.990684938388938,-11.237187217935736,,-11.331385797499399,-14.755517816455745,-3.930287779828065,,-4.014070481909693,-7.327123292259293,-10.122217481751445,,-10.146777590498873,-14.755517816455745,-4.0545122037186,,-4.0827371274926225,-7.327123292259293,1.1978805274866864,1,1.1977019252259566,1.0769230769230766,1.1335567691409063,1,1.1335442463827277,1.0769230769230766,-20.2891301698217,,-20.481637192327277,-29.51103563291149,-10.461960695950165,,-10.54421619255108,-14.654246584518585,,,-23.847266108239694,-14.755517816455745,-4.0545122037186,,-4.0827371274926225,-7.327123292259293
K AE DH,3,-13.538508544214272,,-13.533761152040977,-10.990684938388938,-12.125152271570236,,-12.349331109633255,-14.755517816455745,-7.805803480261867,,-7.706645111720015,-7.327123292259293,-14.142933318510895,,-14.183126404061309,-14.755517816455745,-9.246604976704669,,-9.152548546500768,-7.327123292259293,1.1581931743742377,1,1.1580743885124634,1.0769230769230766,1.0734842942774347,1,1.0734850546559622,1.0769230769230766,-23.043483686262554,,-23.060203370596046,-29.51103563291149,-12.932881103763425,,-12.907377089963031,-14.654246584518585,,,-21.742882539654477,-14.755517816455745,-9.246604976704669,,-9.152548546500768,-7.327123292259293
K AE G,3,-11.183032449076148,,-11.18286701107634,-10.990684938388938,-10.25149652601932,,-10.335365805144182,-14.755517816455745,-5.657369067095079,,-5.67521278922654,-7.327123292259293,-11.830401713819835,,-11.846694555413404,-14.755517816455745,-6.509355620910197,,-6.51349121688551,-7.327123292259293,1.1727384900953952,1,1.172598080046028,1.0769230769230766,1.0841456982936084,1,1.0841441012382638,1.0769230769230766,-19.42871220430234,,-19.623428492011985,-29.51103563291149,-10.784446690596639,,-10.875944767469555,-14.654246584518585,,,-22.282098045666068,-14.755517816455745,-6.509355620910197,,-6.51349121688551,-7.327123292259293
K AE K,3,-9.788228418338974,,-9.788424989259383,-10.990684938388938,-9.268819868085355,,-9.320377711637963,-14.755517816455745,-4.6042191525037275,,-4.632795058902072,-7.327123292259293,-9.705512462314886,,-9.719522813452357,-14.755517816455745,-5.167186064699244,,-5.176612215328969,-7.327123292259293,1.2096935179643729,1,1.2094981677218561,1.0769230769230766,1.119884085586122,1,1.1198745861114892,1.0769230769230766,-17.316170714196158,,-17.534022838424715,-29.51103563291149,-9.731296776005285,,-9.833527037145089,-14.654246584518585,,,-21.054738042712096,-14.755517816455745,-5.167186064699244,,-5.176612215328969,-7.327123292259293
K AE NG,3,-11.49393173453063,,-11.49359082984035,-10.990684938388938,-9.830763945780369,,-9.949062439832815,-14.755517816455745,-5.187365437849344,,-5.211375674896469,-7.327123292259293,-9.29732943412365,,-9.328860424987173,-14.755517816455745,-6.202082538981246,,-6.208109567334327,-7.327123292259293,1.1668592811162397,1,1.1667276115521463,1.0769230769230766,1.0809983157250038,1,1.0809974146142332,1.0769230769230766,-19.41344473217155,,-19.603522766617875,-29.51103563291149,-10.314443061350902,,-10.412107653139483,-14.654246584518585,,,-19.831883328446317,-14.755517816455745,-6.202082538981246,,-6.208109567334327,-7.327123292259293
K AE TH,3,-12.32042260241187,,-12.319238136819887,-10.990684938388938,-10.57347319328833,,-10.735970768984256,-14.755517816455745,-6.532837804448979,,-6.52799011537837,-7.327123292259293,-11.848339787252485,,-11.885556699991534,-14.755517816455745,-7.832911641396664,,-7.817547479768428,-7.327123292259293,1.1623162559959832,1,1.1621913404432376,1.0769230769230766,1.076143974321895,1,1.0761441465959087,1.0769230769230766,-20.64450674759344,,-20.80891157198955,-29.51103563291149,-11.659915427950537,,-11.728722093621386,-14.654246584518585,,,-22.13117793869874,-14.755517816455745,-7.832911641396664,,-7.817547479768428,-7.327123292259293
K AE Z,3,-11.163484746790909,,-11.163328624467212,-10.990684938388938,-11.245992834152252,,-11.285905130090185,-14.755517816455745,-6.918500285260963,,-6.895714895503687,-7.327123292259293,-11.186284155685339,,-11.191161063580058,-14.755517816455745,-7.754950099926952,,-7.7415615727905065,-7.327123292259293,1.1751054443597306,1,1.1749615154136948,1.0769230769230766,1.0843782076365143,1,1.084376559169048,1.0769230769230766,-20.297281719195965,,-20.45751368515166,-29.51103563291149,-12.045577908762521,,-12.096446873746702,-14.654246584518585,,,-24.99390764969218,-14.755517816455745,-7.754950099926952,,-7.7415615727905065,-7.327123292259293
K AE ZH,3,-13.559022084047374,,-13.554170023672185,-10.990684938388938,-12.378584420978939,,-12.721179606942432,-14.755517816455745,-7.3538183565188096,,-7.301180003611852,-7.327123292259293,-13.888804927496288,,-13.955033746411937,-14.755517816455745,-8.958922904252887,,-8.890184282033278,-7.327123292259293,1.1566661071069246,1,1.1565495915010655,1.0769230769230766,1.0734616104391024,1,1.0734623758334467,1.0769230769230766,-23.977792923639385,,-23.833393258829528,-29.51103563291149,-12.480895980020367,,-12.501911981854867,-14.654246584518585,,,-22.09033944434407,-14.755517816455745,-8.958922904252887,,-8.890184282033278,-7.327123292259293
K EH K,3,-9.561895071656664,,-9.562137855776008,-10.990684938388938,-10.846767798031692,,-10.882087946939414,-14.755517816455745,-6.182815713582926,,-6.195205100882277,-7.327123292259293,-11.016762308629353,,-11.02067247365202,-14.755517816455745,-6.478528394303531,,-6.477898379457198,-7.327123292259293,1.2186257909828782,1,1.218417330750608,1.0769230769230766,1.1261958636020801,1,1.126184968476437,1.0769230769230766,-18.765660829118673,,-18.970004799364073,-29.51103563291149,-11.180786890927802,,-11.269508998084444,-14.654246584518585,,,-25.709313687825805,-14.755517816455745,-6.478528394303531,,-6.477898379457198,-7.327123292259293
K EH L,3,-9.335201319446597,,-9.335468308527744,-10.990684938388938,-10.724064324985925,,-10.756153817649848,-14.755517816455745,-6.017987314236489,,-6.031250420958399,-7.327123292259293,-11.029276718773062,,-11.031698723375092,-14.755517816455745,-7.01097140122077,,-7.00936263446941,-7.327123292259293,1.2312240959382115,1,1.2309969060946404,1.0769230769230766,1.1382863494331876,1,1.138272780877217,1.0769230769230766,-18.435317991294664,,-18.641546405963034,-29.51103563291149,-11.015958491581365,,-11.105554318160564,-14.654246584518585,,,-27.352452476600984,-14.755517816455745,-7.01097140122077,,-7.00936263446941,-7.327123292259293
K EH S,3,-9.326015213844308,,-9.326283072792865,-10.990684938388938,-11.72391904272326,,-11.746556156269003,-14.755517816455745,-6.273512275053738,,-6.285356197876575,-7.327123292259293,-10.903381240731902,,-10.906209695515539,-14.755517816455745,-6.78450795119689,,-6.783379516647123,-7.327123292259293,1.245540351569272,1,1.2452918780764954,1.0769230769230766,1.1388364325127456,1,1.1388227423232187,1.0769230769230766,-19.24201987140147,,-19.44270674494366,-29.51103563291149,-11.271483452398613,,-11.359660095078741,-14.654246584518585,,,-24.776715442125447,-14.755517816455745,-6.78450795119689,,-6.783379516647123,-7.327123292259293
L AE L,3,-9.334840913918837,,-9.335085894762859,-10.990684938388938,-10.167124031967191,,-10.239355293617761,-14.755517816455745,-4.39027099942547,,-4.443673407136542,-7.327123292259293,-10.656549297906261,,-10.667966874525936,-14.755517816455745,-5.452461258177256,,-5.461004780915816,-7.327123292259293,1.1632002290661358,1,1.1630728165870046,1.0769230769230766,1.144065057248337,1,1.1440502109130495,1.0769230769230766,-19.076962903959174,,-19.289530386488174,-29.51103563291149,-10.587476013586452,,-10.684212491618196,-14.654246584518585,,,-19.75504389628906,-14.755517816455745,-5.452461258177256,,-5.461004780915816,-7.327123292259293
L AE N,3,-9.131665163849522,,-9.131927635828905,-10.990684938388938,-9.900436561117413,,-9.969114006205281,-14.755517816455745,-3.7306124886195686,,-3.7868938707474706,-7.327123292259293,-9.679160419449286,,-9.691664923673674,-14.755517816455745,-4.463468694526369,,-4.473724987798297,-7.327123292259293,1.1876714820248286,1,1.1875076886946554,1.0769230769230766,1.1574938895410494,1,1.157476073842246,1.0769230769230766,-18.49970392492034,,-18.714667972566993,-29.51103563291149,-9.927817502780549,,-10.027432955229125,-14.654246584518585,,,-19.34773899250634,-14.755517816455745,-4.463468694526369,,-4.473724987798297,-7.327123292259293
L AE T,3,-9.19298398572539,,-9.193241547946357,-10.990684938388938,-10.330846166891154,,-10.40272205359496,-14.755517816455745,-4.6179156836204704,,-4.6697975865888885,-7.327123292259293,-10.501745334134792,,-10.512633236085833,-14.755517816455745,-5.5057698116317635,,-5.514164149195912,-7.327123292259293,1.1601079178498268,1,1.159985102638924,1.0769230769230766,1.1531499345004168,1,1.1531330793305212,1.0769230769230766,-19.28780046983779,,-19.49894108496678,-29.51103563291149,-10.815120697781452,,-10.910336671070542,-14.654246584518585,,,-20.57283223043466,-14.755517816455745,-5.5057698116317635,,-5.514164149195912,-7.327123292259293
L EH L,3,-9.108507567236527,,-9.108798761279482,-10.990684938388938,-10.114687027491438,,-10.185085763215403,-14.755517816455745,-4.338482626082579,,-4.390103683412937,-7.327123292259293,-10.849855263859723,,-10.859522992856723,-14.755517816455745,-5.645859707420537,,-5.652697403175166,-7.327123292259293,1.1721325020846411,1,1.1719919796157565,1.0769230769230766,1.1503768352642951,1,1.1503605932779972,1.0769230769230766,-18.8960680844596,,-19.10953258172372,-29.51103563291149,-10.406581194086879,,-10.50421468685374,-14.654246584518585,,,-28.99559126537616,-14.755517816455745,-5.645859707420537,,-5.652697403175166,-7.327123292259293
L IH S,3,-8.373501873932302,,-8.373887841853925,-10.990684938388938,-9.872554353597025,,-9.93492383697776,-14.755517816455745,-3.352160579698608,,-3.4039164853470343,-7.327123292259293,-9.553637383822595,,-9.562792845187973,-14.755517816455745,-4.249349818086804,,-4.2558397869201,-7.327123292259293,1.2146777555674335,1,1.2144745174564104,1.0769230769230766,1.1841587415006494,1,1.1841350297092574,1.0769230769230766,-18.137991641273732,,-18.352853902782414,-29.51103563291149,-9.097327831611453,,-9.200481445849986,-14.654246584518585,,,-26.984880311564293,-14.755517816455745,-4.249349818086804,,-4.2558397869201,-7.327123292259293
M AE B,3,-10.972950805198664,,-10.972945104969662,-10.990684938388938,-10.87908344039451,,-10.945942330175221,-14.755517816455745,-5.303845933032443,,-5.330887552665037,-7.327123292259293,-12.375520158419942,,-12.385828893179088,-14.755517816455745,-5.858741470602309,,-5.866486572194502,-7.327123292259293,1.1431277056785765,1,1.143030569514275,1.0769230769230766,1.0785484611851173,1,1.0785481017825553,1.0769230769230766,-20.22892216029359,,-20.419613736493705,-29.51103563291149,-10.967768747724175,,-11.057110608440933,-14.654246584518585,,,-25.337415688314138,-14.755517816455745,-5.858741470602309,,-5.866486572194502,-7.327123292259293
M AE L,3,-9.945744988968746,,-9.945909864950542,-10.990684938388938,-9.418407000252436,,-9.47669242489496,-14.755517816455745,-4.174836167179961,,-4.214256758494249,-7.327123292259293,-9.536814119251268,,-9.551863627048576,-14.755517816455745,-4.97998865804722,,-4.991562645532367,-7.327123292259293,1.1849311721212732,1,1.1847718877012914,1.0769230769230766,1.1168160964516807,1,1.116807275366263,1.0769230769230766,-17.794963672775168,,-18.01301969014146,-29.51103563291149,-9.838758981871695,,-9.940479814270144,-14.654246584518585,,,-20.95098316627775,-14.755517816455745,-4.97998865804722,,-4.991562645532367,-7.327123292259293
M AE V,3,-11.385884606333349,,-11.385743090412753,-10.990684938388938,-11.123811185638136,,-11.18828572203794,-14.755517816455745,-5.508640345678456,,-5.5315582481271885,-7.327123292259293,-11.230184520235802,,-11.246847407076675,-14.755517816455745,-6.416713872794002,,-6.41958767910873,-7.327123292259293,1.1414097550028492,1,1.1413151728764526,1.0769230769230766,1.0713293296358677,1,1.0713305665169863,1.0769230769230766,-20.54371746815393,,-20.727915096148223,-29.51103563291149,-11.172563160370188,,-11.257781303903084,-14.654246584518585,,,-21.58314412621602,-14.755517816455745,-6.416713872794002,,-6.41958767910873,-7.327123292259293
M AE Z,3,-11.547695069630748,,-11.547483047406633,-10.990684938388938,-11.323954375621964,,-11.374871677618351,-14.755517816455745,-6.459616635540501,,-6.447848980001343,-7.327123292259293,-11.163504253454972,,-11.170780306354143,-14.755517816455745,-7.19374253733465,,-7.18335242688263,-7.327123292259293,1.1377447935612977,1,1.1376556600490977,1.0769230769230766,1.0692197326709654,1,1.0692214360230416,1.0769230769230766,-20.912088451855855,,-21.071686635251048,-29.51103563291149,-12.123539450232233,,-12.17407203577724,-14.654246584518585,,,-24.636978074491513,-14.755517816455745,-7.19374253733465,,-7.18335242688263,-7.327123292259293
M EH K,3,-9.946105394496504,,-9.946292278715429,-10.990684938388938,-9.868173182821383,,-9.925845306175336,-14.755517816455745,-4.667375907182441,,-4.702129997087692,-7.327123292259293,-9.690470013826188,,-9.705324664761417,-14.755517816455745,-4.613808439138429,,-4.6247221818846285,-7.327123292259293,1.181265140184445,1,1.181111475386011,1.0769230769230766,1.1110373886365312,1,1.1110298453304306,1.0769230769230766,-18.323911405098542,,-18.538968561171213,-29.51103563291149,-10.202192275717492,,-10.301924971822736,-14.654246584518585,,,-26.885034881845463,-14.755517816455745,-4.613808439138429,,-4.6247221818846285,-7.327123292259293
M EH M,3,-10.330315717336346,,-10.330446701654848,-10.990684938388938,-10.468546702975553,,-10.52445610910947,-14.755517816455745,-5.000385936075183,,-5.03287155899992,-7.327123292259293,-10.525614683190383,,-10.54045240246276,-14.755517816455745,-5.4587844967644745,,-5.4678504740351075,-7.327123292259293,1.1746987509349986,1,1.1745548482370003,1.0769230769230766,1.0958789136709823,1,1.0958747221844243,1.0769230769230766,-19.052436211246278,,-19.262017146614095,-29.51103563291149,-10.535202304610234,,-10.632666533734966,-14.654246584518585,,,-28.06075607586513,-14.755517816455745,-5.4587844967644745,,-5.4678504740351075,-7.327123292259293
M IH M,3,-9.60449612963441,,-9.604721017964172,-10.990684938388938,-10.088093301825971,,-10.142734156825767,-14.755517816455745,-4.62007291935613,,-4.6514208965889345,-7.327123292259293,-10.298629546745074,,-10.311987234076748,-14.755517816455745,-5.232075323005281,,-5.239751927025516,-7.327123292259293,1.2029277487867305,1,1.2027424140957992,1.0769230769230766,1.1291107368277786,1,1.1290991971696829,1.0769230769230766,-18.34919187843577,,-18.563020441265255,-29.51103563291149,-9.831957971799728,,-9.933669828386128,-14.654246584518585,,,-28.81815404917625,-14.755517816455745,-5.232075323005281,,-5.239751927025516,-7.327123292259293
M IH P,3,-9.664814103764726,,-9.665028097772058,-10.990684938388938,-10.042607159317123,,-10.104659071048921,-14.755517816455745,-4.723390533384157,,-4.754075050649019,-7.327123292259293,-11.314889339531334,,-11.326535086198827,-14.755517816455745,-5.64890418976376,,-5.655609192901295,-7.327123292259293,1.1917801577353446,1,1.191611395912595,1.0769230769230766,1.1272166363270328,1,1.1272055154896357,1.0769230769230766,-18.56782033897479,,-18.77978790209276,-29.51103563291149,-9.935275585827753,,-10.036323982446213,-14.654246584518585,,,-24.551390401798272,-14.755517816455745,-5.64890418976376,,-5.655609192901295,-7.327123292259293
N AE L,3,-9.131665163849522,,-9.131927635828905,-10.990684938388938,-10.743546938218994,,-10.827943211573569,-14.755517816455745,-4.605999031480215,,-4.671622796705902,-7.327123292259293,-12.004538880938307,,-12.011865125292859,-14.755517816455745,-6.443235760464875,,-6.448016661297755,-7.327123292259293,1.153860066366528,1,1.1537463527458554,1.0769230769230766,1.1574938895410494,1,1.157476073842246,1.0769230769230766,-20.014080684408036,,-20.218790267256644,-29.51103563291149,-11.163898919838257,,-11.253307023508162,-14.654246584518585,,,-19.10061482578385,-14.755517816455745,-6.443235760464875,,-6.448016661297755,-7.327123292259293
N EH N,3,-8.702156067097896,,-8.702482243411575,-10.990684938388938,-10.62444217330272,,-10.702017515225823,-14.755517816455745,-4.094571857740679,,-4.159858658060321,-7.327123292259293,-10.947610528793975,,-10.954973527173493,-14.755517816455745,-5.37479620641645,,-5.380283724841695,-7.327123292259293,1.1872635923437258,1,1.1871003878822581,1.0769230769230766,1.1772344998497197,1,1.1772123191363904,1.0769230769230766,-19.455946596278885,,-19.6625151700381,-29.51103563291149,-10.523365299942036,,-10.61511480382173,-14.654246584518585,,,-25.7467104239913,-14.755517816455745,-5.37479620641645,,-5.380283724841695,-7.327123292259293
N IH N,3,-7.976336479395959,,-7.976756559720899,-10.990684938388938,-11.415953860396488,,-11.484966116778342,-14.755517816455745,-4.886223929264977,,-4.943078549485557,-7.327123292259293,-10.23479161145514,,-10.241778014055793,-14.755517816455745,-4.662253251763729,,-4.667454833100413,-7.327123292259293,1.2154925901954576,1,1.215287953741057,1.0769230769230766,1.210466323006516,1,1.210436794121649,1.0769230769230766,-19.92466735171173,,-20.12818901852548,-29.51103563291149,-10.992086055374882,,-11.080788652309113,-14.654246584518585,,,-27.292565757666697,-14.755517816455745,-4.662253251763729,,-4.667454833100413,-7.327123292259293
N IH S,3,-8.170326123862985,,-8.170729582919972,-10.990684938388938,-10.841291560843722,,-10.911378994648683,-14.755517816455745,-3.960202912748246,,-4.019733114631512,-7.327123292259293,-10.57159206214853,,-10.578959050946626,-14.755517816455745,-4.91008941566831,,-4.915119622293769,-7.327123292259293,1.2053375928678254,1,1.2051480536152612,1.0769230769230766,1.1975875737933617,1,1.197560892638454,1.0769230769230766,-19.46742372271749,,-19.669981023265997,-29.51103563291149,-10.06606503885815,,-10.157443217455068,-14.654246584518585,,,-26.1974281076577,-14.755517816455745,-4.91008941566831,,-4.915119622293769,-7.327123292259293
P AE B,3,-11.033268779328981,,-11.033252184777549,-10.990684938388938,-11.311947522690788,,-11.36759201168461,-14.755517816455745,-6.12580499379003,,-6.141621773331493,-7.327123292259293,-12.502572066308066,,-12.511620859449133,-14.755517816455745,-6.445336077343862,,-6.451078346200101,-7.327123292259293,1.1681352380678505,1,1.1680014243147714,1.0769230769230766,1.0766543606843715,1,1.0766544201025081,1.0769230769230766,-20.27269126412856,,-20.461187543899754,-29.51103563291149,-11.400632830020454,,-11.487548637480476,-14.654246584518585,,,-27.12509138720553,-14.755517816455745,-6.445336077343862,,-6.451078346200101,-7.327123292259293
P AE G,3,-11.627560746046306,,-11.627328513823647,-10.990684938388938,-10.762322149785312,,-10.845982034181738,-14.755517816455745,-6.0204444781322035,,-6.038081094390653,-7.327123292259293,-11.93467371947759,,-11.952105764457535,-14.755517816455745,-6.534742665059447,,-6.539873844983232,-7.327123292259293,1.1603853716862362,1,1.1602630794819273,1.0769230769230766,1.0670931228273137,1,1.0670952964122102,1.0769230769230766,-20.087288040797198,,-20.27917524951742,-29.51103563291149,-11.295272314362627,,-11.384007958539636,-14.654246584518585,,,-23.712844169356792,-14.755517816455745,-6.534742665059447,,-6.539873844983232,-7.327123292259293
P AE JH,3,-11.896009928115337,,-11.895629518946103,-10.990684938388938,-12.098999558759777,,-12.174789548144341,-14.755517816455745,-7.406738839252094,,-7.376366236324182,-7.327123292259293,-11.695706457548768,,-11.711727994245193,-14.755517816455745,-7.517972879608711,,-7.511224354040415,-7.327123292259293,1.1533990389382787,1,1.153287133154782,1.0769230769230766,1.0643200235911918,1,1.064322810359686,1.0769230769230766,-21.928318559032036,,-22.06139178038691,-29.51103563291149,-12.681566675482518,,-12.722293100473166,-14.654246584518585,,,-24.898736832998665,-14.755517816455745,-7.517972879608711,,-7.511224354040415,-7.327123292259293
P AE V,3,-11.446202580463666,,-11.446050170220639,-10.990684938388938,-11.556675267934413,,-11.60993540354733,-14.755517816455745,-6.330599406436043,,-6.342292468793644,-7.327123292259293,-11.357236428123922,,-11.37263937334672,-14.755517816455745,-7.003308479535555,,-7.004179453114331,-7.327123292259293,1.1664172873921232,1,1.1662860276769489,1.0769230769230766,1.069435229135122,1,1.069436884836939,1.0769230769230766,-20.5874865719889,,-20.76948890355427,-29.51103563291149,-11.605427242666467,,-11.688219332942626,-14.654246584518585,,,-23.37081982510741,-14.755517816455745,-7.003308479535555,,-7.004179453114331,-7.327123292259293
P AE Z,3,-11.608013043761066,,-11.607790127214521,-10.990684938388938,-11.756818457918243,,-11.796521359127741,-14.755517816455745,-7.281575696298088,,-7.258583200667799,-7.327123292259293,-11.290556161343094,,-11.29657227262419,-14.755517816455745,-7.780337144076202,,-7.767944200888229,-7.327123292259293,1.1627523259505717,1,1.162626514849594,1.0769230769230766,1.0673256321702196,1,1.0673277543429944,1.0769230769230766,-20.955857555690823,,-21.113260442657094,-29.51103563291149,-12.556403532528513,,-12.604510064816782,-14.654246584518585,,,-26.424653773382904,-14.755517816455745,-7.780337144076202,,-7.767944200888229,-7.327123292259293
P EH L,3,-9.779729616416754,,-9.779929811275052,-10.990684938388938,-9.82216233056387,,-9.86728419032118,-14.755517816455745,-4.968335107085567,,-4.9946328697562885,-7.327123292259293,-9.28904585957193,,-9.302979281684085,-14.755517816455745,-5.191855580511132,,-5.201614611831993,-7.327123292259293,1.2188709775290523,1,1.2186619055305397,1.0769230769230766,1.121233773966893,1,1.1212239760511635,1.0769230769230766,-17.681166209601475,,-17.89780730710224,-29.51103563291149,-10.114056497159309,,-10.21413165286442,-14.654246584518585,,,-25.64770438436256,-14.755517816455745,-5.191855580511132,,-5.201614611831993,-7.327123292259293
P EH M,3,-10.390633691466663,,-10.390753781462735,-10.990684938388938,-10.545239323763807,,-10.591829122544883,-14.755517816455745,-5.466173535324747,,-5.4893291115923954,-7.327123292259293,-10.111676118792417,,-10.127080769662358,-14.755517816455745,-5.504388631219939,,-5.51327864897026,-7.327123292259293,1.1997062833242726,1,1.1995257030374966,1.0769230769230766,1.0939848131702365,1,1.093981040504377,1.0769230769230766,-18.740033853573223,,-18.949314285946162,-29.51103563291149,-10.611894925398488,,-10.70882789470053,-14.654246584518585,,,-25.180286789607038,-14.755517816455745,-5.504388631219939,,-5.51327864897026,-7.327123292259293
P EH S,3,-9.770543510814464,,-9.77074457554017,-10.990684938388938,-10.822017048301205,,-10.857686528940336,-14.755517816455745,-5.223860067902817,,-5.2487386466744645,-7.327123292259293,-9.16315038153077,,-9.177490253824532,-14.755517816455745,-4.965392130487253,,-4.975631494009706,-7.327123292259293,1.2331872331601128,1,1.2329568775123947,1.0769230769230766,1.121783857046451,1,1.1217739374971651,1.0769230769230766,-18.487868089708282,,-18.698967646082867,-29.51103563291149,-10.369581457976558,,-10.468237429782597,-14.654246584518585,,,-23.07196734988702,-14.755517816455745,-4.965392130487253,,-4.975631494009706,-7.327123292259293
P IH M,3,-9.664814103764726,,-9.665028097772058,-10.990684938388938,-10.887086317150573,,-10.92763421907744,-14.755517816455745,-5.808160913142043,,-5.825405497997669,-7.327123292259293,-10.442365202196953,,-10.454946699909152,-14.755517816455745,-5.835353677310589,,-5.841511200593475,-7.327123292259293,1.2279352811760045,1,1.2277132688962955,1.0769230769230766,1.1272166363270328,1,1.1272055154896357,1.0769230769230766,-18.759089915299064,,-18.967844629413584,-29.51103563291149,-10.630950987124333,,-10.72735823816795,-14.654246584518585,,,-26.949285674596645,-14.755517816455745,-5.835353677310589,,-5.841511200593475,-7.327123292259293
R AE L,3,-9.428630036295193,,-9.428865663291344,-10.990684938388938,-10.093696563412374,,-10.144933900865018,-14.755517816455745,-4.956059147760747,,-4.988427981703937,-7.327123292259293,-9.510060161365027,,-9.523242952055572,-14.755517816455745,-5.162031737434107,,-5.17083475539777,-7.327123292259293,1.1908064357548975,1,1.1906385343110466,1.0769230769230766,1.1387286842806672,1,1.1387150179162697,1.0769230769230766,-18.36431981851426,,-18.57813154931536,-29.51103563291149,-10.514048545031635,,-10.611453137335769,-14.654246584518585,,,-19.885771626258485,-14.755517816455745,-5.162031737434107,,-5.17083475539777,-7.327123292259293
R EH L,3,-9.202296689612883,,-9.202578529807967,-10.990684938388938,-9.294094900363373,,-9.3482291097423,-14.755517816455745,-4.157106115844607,,-4.192422997259975,-7.327123292259293,-9.537462229389986,,-9.549258469776541,-14.755517816455745,-5.189526288748885,,-5.196986777047304,-7.327123292259293,1.1997387087734028,1,1.1995576973397986,1.0769230769230766,1.1450404622966253,1,1.1450254002812175,1.0769230769230766,-17.43626034044144,,-17.65569848383054,-29.51103563291149,-9.585989066958813,,-9.689020071850955,-14.654246584518585,,,-28.553718919329174,-14.755517816455745,-5.189526288748885,,-5.196986777047304,-7.327123292259293
R EH M,3,-9.813200764662792,,-9.81340249999565,-10.990684938388938,-10.01717189356331,,-10.072774041966001,-14.755517816455745,-4.654944544083787,,-4.6871192390960825,-7.327123292259293,-10.360092488610473,,-10.373359957754817,-14.755517816455745,-5.502059339457693,,-5.50865081418557,-7.327123292259293,1.1805740145686232,1,1.1804214948467555,1.0769230769230766,1.1177915014999689,1,1.117782464734431,1.0769230769230766,-18.49512798441319,,-18.707205462674466,-29.51103563291149,-10.08382749519799,,-10.183716313687063,-14.654246584518585,,,-28.08630132457366,-14.755517816455745,-5.502059339457693,,-5.50865081418557,-7.327123292259293
R EH P,3,-9.87351873879311,,-9.873709579803537,-10.990684938388938,-10.411983583615418,,-10.469899098282982,-14.755517816455745,-5.198559990672769,,-5.224973535249992,-7.327123292259293,-11.463876523898627,,-11.474283204044276,-14.755517816455745,-6.006412448718066,,-6.010883474228729,-7.327123292259293,1.1694264235172374,1,1.1692904766635512,1.0769230769230766,1.115897400999223,1,1.1158887830543838,1.0769230769230766,-19.154054277513165,,-19.359173065595797,-29.51103563291149,-10.627442941786974,,-10.721570609840972,-14.654246584518585,,,-25.20583203831557,-14.755517816455745,-6.006412448718066,,-6.010883474228729,-7.327123292259293
R EH S,3,-9.193110584010594,,-9.193393294073086,-10.990684938388938,-10.293949618100708,,-10.338631448361456,-14.755517816455745,-4.4126310766618575,,-4.446528774178152,-7.327123292259293,-9.411566751348825,,-9.42376944191699,-14.755517816455745,-4.963062838725006,,-4.971003659225016,-7.327123292259293,1.2140549644044634,1,1.2138526693216536,1.0769230769230766,1.1455905453761832,1,1.145575361727219,1.0769230769230766,-18.24296222054825,,-18.45685882281117,-29.51103563291149,-9.84151402777606,,-9.943125848769132,-14.654246584518585,,,-25.97798188485364,-14.755517816455745,-4.963062838725006,,-4.971003659225016,-7.327123292259293
R IH DH,3,-12.453450979996312,,-12.448858556147147,-10.990684938388938,-11.38591156426633,,-11.687913011370163,-14.755517816455745,-6.636440014752025,,-6.615295394217521,-7.327123292259293,-13.468401530513582,,-13.570376491405419,-14.755517816455745,-8.242811011594481,,-8.210366155326303,-7.327123292259293,1.1638690580796662,1,1.1637419086451724,1.0769230769230766,1.1197820083136267,1,1.119772531410169,1.0769230769230766,-22.28390600604323,,-22.37785903068079,-29.51103563291149,-11.742391649774776,,-11.79434642587065,-14.654246584518585,,,-27.92858666999171,-14.755517816455745,-8.242811011594481,,-8.210366155326303,-7.327123292259293
R IH N,3,-8.27330135184163,,-8.273694587183337,-10.990684938388938,-9.58337239664818,,-9.627205224427598,-14.755517816455745,-4.053552956603821,,-4.085132152841401,-7.327123292259293,-8.418498978793336,,-8.428284515875772,-14.755517816455745,-4.059235315644438,,-4.065401602257696,-7.327123292259293,1.2524389595838274,1,1.2521801353062483,1.0769230769230766,1.1917011177461339,1,1.1916757381956726,1.0769230769230766,-17.092175396876264,,-17.312778718942006,-29.51103563291149,-9.159504591626572,,-9.264183184494527,-14.654246584518585,,,-27.861289166840514,-14.755517816455745,-4.059235315644438,,-4.065401602257696,-7.327123292259293
R IH S,3,-8.467290996308655,,-8.46766761038241,-10.990684938388938,-9.008710097095411,,-9.053618102297941,-14.755517816455745,-3.1275319400870893,,-3.1617867179873556,-7.327123292259293,-8.755299429486726,,-8.765465552766607,-14.755517816455745,-4.307071479549019,,-4.313066391451052,-7.327123292259293,1.2422839622561952,1,1.2420402351804525,1.0769230769230766,1.1788223685329795,1,1.1787998367124777,1.0769230769230766,-16.634931767882026,,-16.854570723682524,-29.51103563291149,-8.23348357510984,,-8.340837749640484,-14.654246584518585,,,-26.766151516831517,-14.755517816455745,-4.307071479549019,,-4.313066391451052,-7.327123292259293
R IH SH,3,-9.894768779749677,,-9.894846807724331,-10.990684938388938,-10.887305324438712,,-11.019822621696406,-14.755517816455745,-6.211556820786758,,-6.209830286109357,-7.327123292259293,-10.732393988724386,,-10.748872339179787,-14.755517816455745,-5.45041966205852,,-5.454747537304984,-7.327123292259293,1.1696337370137733,1,1.1694980173631992,1.0769230769230766,1.1330974214146776,1,1.133085000226788,1.0769230769230766,-20.733011549221743,,-20.899757120307775,-29.51103563291149,-11.31750845580951,,-11.388881317762486,-14.654246584518585,,,-28.478157287376227,-14.755517816455745,-5.45041966205852,,-5.454747537304984,-7.327123292259293
R IH TH,3,-11.235365038193912,,-11.234335540926057,-10.990684938388938,-10.762357675505582,,-10.924703600090776,-14.755517816455745,-6.291599528460295,,-6.286791327245486,-7.327123292259293,-11.817393112867103,,-11.858571206856995,-14.755517816455745,-7.472702789898408,,-7.461129508115315,-7.327123292259293,1.1679921397014117,1,1.1678588605759466,1.0769230769230766,1.122441688358087,1,1.1224316233501155,1.0769230769230766,-20.813054256895278,,-20.976718161443905,-29.51103563291149,-11.397551163483048,,-11.465842358898612,-14.654246584518585,,,-28.61036125917208,-14.755517816455745,-7.472702789898408,,-7.461129508115315,-7.327123292259293
R IH V,3,-9.916616719275547,,-9.916686071579502,-10.990684938388938,-10.39313428711311,,-10.460373932098744,-14.755517816455745,-4.884685880137669,,-4.910547301979096,-7.327123292259293,-9.601403696965459,,-9.621181786914722,-14.755517816455745,-4.99709853277272,,-5.002317969110167,-7.327123292259293,1.1844462895067107,1,1.1842885483737586,1.0769230769230766,1.1327855186376086,1,1.1327731664171994,1.0769230769230766,-19.255858405523316,,-19.453870661985636,-29.51103563291149,-9.99063751516042,,-10.089598333632225,-14.654246584518585,,,-19.97012856138792,-14.755517816455745,-4.99709853277272,,-5.002317969110167,-7.327123292259293
R IH Z,3,-10.078427182572948,,-10.078426028573382,-10.990684938388938,-9.52678830011305,,-9.616258804627256,-14.755517816455745,-4.769172993015824,,-4.796136950801352,-7.327123292259293,-9.128713299288808,,-9.151670100223686,-14.755517816455745,-5.368117066417546,,-5.372638130915561,-7.327123292259293,1.1807813280651591,1,1.1806290355464037,1.0769230769230766,1.1306759216727063,1,1.1306640359232547,1.0769230769230766,-18.55774021224135,,-18.766941118036563,-29.51103563291149,-9.875124628038575,,-9.97518798245448,-14.654246584518585,,,-22.535609741749482,-14.755517816455745,-5.368117066417546,,-5.372638130915561,-7.327123292259293
R IH ZH,3,-12.473964519829416,,-12.469267427778355,-10.990684938388938,-13.13278271224625,,-13.409688225628358,-14.755517816455745,-7.677893889580186,,-7.559757003058373,-7.327123292259293,-13.3196336551568,,-13.428757431759875,-14.755517816455745,-8.060489454800527,,-8.03447548886264,-7.327123292259293,1.1623419908123531,1,1.1622171116337745,1.0769230769230766,1.1197593244752944,1,1.1197498525876535,1.0769230769230766,-24.711654241991283,,-24.500975635863284,-29.51103563291149,-12.783845524602938,,-12.738808034711502,-14.654246584518585,,,-26.88196707311936,-14.755517816455745,-8.060489454800527,,-8.03447548886264,-7.327123292259293
S AE N,3,-9.122479058247233,,-9.122742400094024,-10.990684938388938,-9.85391654548252,,-9.89042520614749,-14.755517816455745,-4.9105218530138695,,-4.934583949171142,-7.327123292259293,-9.627970714486022,,-9.635993206694767,-14.755517816455745,-5.6672075304415825,,-5.671976478533061,-7.327123292259293,1.261978502211632,1,1.2617057256244437,1.0769230769230766,1.1580439726206073,1,1.1580260352882477,1.0769230769230766,-17.22675452925625,,-17.443009639679843,-29.51103563291149,-9.881297487145657,,-9.981341848028858,-14.654246584518585,,,-20.205751942730707,-14.755517816455745,-5.6672075304415825,,-5.671976478533061,-7.327123292259293
S EH B,3,-10.126527277864156,,-10.126648765563724,-10.990684938388938,-12.07510892240448,,-12.089989771657496,-14.755517816455745,-7.19366722673522,,-7.16876745922702,-7.327123292259293,-14.030694153242742,,-14.005694864705214,-14.755517816455745,-8.121673911068445,,-8.09375114326895,-7.327123292259293,1.2046360558287477,1,1.2044486983585285,1.0769230769230766,1.1126592830772897,1,1.1126513811402912,1.0769230769230766,-20.603342646719792,,-20.758811198408445,-29.51103563291149,-12.035336414710326,,-12.089097277043887,-14.654246584518585,,,-24.72681132850631,-14.755517816455745,-8.121673911068445,,-8.09375114326895,-7.327123292259293
S EH CH,3,-11.485300573004299,,-11.484654178992416,-10.990684938388938,-11.322839749912637,,-11.420202673840425,-14.755517816455745,-7.599132334843384,,-7.548257080931924,-7.327123292259293,-12.245007206586951,,-12.256002862392466,-14.755517816455745,-8.012474619103454,,-7.988390627611123,-7.327123292259293,1.1877237858432548,1,1.1875615714572973,1.0769230769230766,1.096803280083023,1,1.0967988842019323,1.0769230769230766,-20.948183133011522,,-21.078877399642547,-29.51103563291149,-12.44080152281849,,-12.46858689874879,-14.654246584518585,,,-26.253762062913594,-14.755517816455745,-8.012474619103454,,-7.988390627611123,-7.327123292259293
S EH DH,3,-13.076295339719604,,-13.07161923557446,-10.990684938388938,-11.47384843319734,,-11.765679090201282,-14.755517816455745,-7.311450262391603,,-7.279993094337243,-7.327123292259293,-13.071273789685602,,-13.172541825619515,-14.755517816455745,-8.244276233160779,,-8.211534178925334,-7.327123292259293,1.182340873725976,1,1.1821866619921197,1.0769230769230766,1.0924366412040583,1,1.0924332108676917,1.0769230769230766,-22.107420043496067,,-22.19690777416776,-29.51103563291149,-12.15311945036671,,-12.20032291215411,-14.654246584518585,,,-25.124335385241665,-14.755517816455745,-8.244276233160779,,-8.211534178925334,-7.327123292259293
S EH G,3,-10.720819244581481,,-10.720725094609822,-10.990684938388938,-10.807643756348687,,-10.878689833978534,-14.755517816455745,-6.370466917927077,,-6.375536820110092,-7.327123292259293,-12.249459122044282,,-12.258771982262374,-14.755517816455745,-6.9977438144160455,,-6.995138854600841,-7.327123292259293,1.1968861894471334,1,1.1967103535256844,1.0769230769230766,1.103098045220232,1,1.1030922574499933,1.0769230769230766,-19.700099630238114,,-19.88710894385002,-29.51103563291149,-11.212136105902182,,-11.29586663792696,-14.654246584518585,,,-26.07673804545533,-14.755517816455745,-6.9977438144160455,,-6.995138854600841,-7.327123292259293
S EH M,3,-9.710225536684147,,-9.710437495732286,-10.990684938388938,-10.038771005366772,,-10.083344592799756,-14.755517816455745,-5.263757419026348,,-5.284892701091159,-7.327123292259293,-10.108834890188742,,-10.121586565183426,-14.755517816455745,-5.649670666116354,,-5.656246732375534,-7.327123292259293,1.2272748280666648,1,1.2270538140525018,1.0769230769230766,1.1236779575471967,1,1.1236676191772124,1.0769230769230766,-17.92951333307755,,-18.141783925098938,-29.51103563291149,-10.105426607001453,,-10.205222518908027,-14.654246584518585,,,-26.581045295567478,-14.755517816455745,-5.649670666116354,,-5.656246732375534,-7.327123292259293
S EH NG,3,-11.031718530035961,,-11.031448913373833,-10.990684938388938,-12.267901779065731,,-12.295997928482237,-14.755517816455745,-7.781453891637339,,-7.7153111655950894,-7.327123292259293,-11.633097836711148,,-11.607555312003552,-14.755517816455745,-8.607181726850147,,-8.556374665217062,-7.327123292259293,1.191006980467978,1,1.1908398850318027,1.0769230769230766,1.0999506626516273,1,1.0999455708259627,1.0769230769230766,-21.565822761063323,,-21.67081467827098,-29.51103563291149,-12.623123079612444,,-12.635640983411957,-14.654246584518585,,,-25.68491146071758,-14.755517816455745,-8.607181726850147,,-8.556374665217062,-7.327123292259293
S EH P,3,-9.770543510814464,,-9.770744575540173,-10.990684938388938,-10.43358269541888,,-10.480469649116737,-14.755517816455745,-5.80737286561533,,-5.822746997245069,-7.327123292259293,-11.212618925476896,,-11.222509811472886,-14.755517816455745,-6.154023775376727,,-6.158479392418692,-7.327123292259293,1.216127237015279,1,1.2159227958692975,1.0769230769230766,1.121783857046451,1,1.1217739374971651,1.0769230769230766,-18.588439626177525,,-18.79375152802027,-29.51103563291149,-10.649042053590435,,-10.743076815061936,-14.654246584518585,,,-23.700576009309394,-14.755517816455745,-6.154023775376727,,-6.158479392418692,-7.327123292259293
S EH R,3,-9.193110584010594,,-9.193393294073086,-10.990684938388938,-9.394084778453035,,-9.432904476228341,-14.755517816455745,-4.240494567600026,,-4.266767663335735,-7.327123292259293,-10.162021664439397,,-10.173060345635317,-14.755517816455745,-4.596445248485968,,-4.605130946635635,-7.327123292259293,1.257014463097588,1,1.2567492358494752,1.0769230769230766,1.1455905453761832,1,1.145575361727219,1.0769230769230766,-16.802872127197393,,-17.021243881915446,-29.51103563291149,-9.082163755575131,,-9.187097481152602,-14.654246584518585,,,-26.606590544276013,-14.755517816455745,-4.596445248485968,,-4.605130946635635,-7.327123292259293
S EH S,3,-9.090135356031949,,-9.090428289809722,-10.990684938388938,-10.315548729904169,,-10.34920199919521,-14.755517816455745,-5.021443951604418,,-5.044302236173229,-7.327123292259293,-9.160309152927095,,-9.171996049345601,-14.755517816455745,-5.110674165383666,,-5.1185995774149795,-7.327123292259293,1.260755777902505,1,1.2604849885273999,1.0769230769230766,1.151477001423411,1,1.1514605161700004,1.0769230769230766,-17.67734756921261,,-17.891437285235646,-29.51103563291149,-9.863113139579523,,-9.964632053990094,-14.654246584518585,,,-24.47272585584746,-14.755517816455745,-5.110674165383666,,-5.1185995774149795,-7.327123292259293
S EH SH,3,-10.51761313947297,,-10.517607487151642,-10.990684938388938,-12.563276197140668,,-12.544507683463848,-14.755517816455745,-8.474601072197284,,-8.321446969165404,-7.327123292259293,-11.668031963226927,,-11.679539935775058,-14.755517816455745,-6.784650598955338,,-6.784417823285187,-7.327123292259293,1.188105552660083,1,1.1879427707101466,1.0769230769230766,1.1057520543051091,1,1.1057456796843108,1.0769230769230766,-22.144559590445525,,-22.16572484673107,-29.51103563291149,-13.316270260172391,,-13.241776786982271,-14.654246584518585,,,-26.590196734500335,-14.755517816455745,-6.784650598955338,,-6.784417823285187,-7.327123292259293
S EH V,3,-10.53946107899884,,-10.539446751006814,-10.990684938388938,-10.701348919694087,,-10.758613333688192,-14.755517816455745,-5.779973891427215,,-5.79571832485715,-7.327123292259293,-10.658228965731183,,-10.67497520456221,-14.755517816455745,-6.4525167639327226,,-6.455114076142587,-7.327123292259293,1.2029181051530204,1,1.202733301720706,1.0769230769230766,1.10544015152804,1,1.1054338458747222,1.0769230769230766,-19.299650206626115,,-19.49339272823094,-29.51103563291149,-10.621643079402322,,-10.716048142674016,-14.654246584518585,,,-22.071152055076304,-14.755517816455745,-6.4525167639327226,,-6.455114076142587,-7.327123292259293
S EH ZH,3,-13.096808879552707,,-13.092028107205666,-10.990684938388938,-13.005944279533567,,-13.296764497995007,-14.755517816455745,-8.138128835576072,,-8.033764896713624,-7.327123292259293,-13.349949929155759,,-13.44042828361914,-14.755517816455745,-8.489398691193763,,-8.445149030106839,-7.327123292259293,1.1808138064586629,1,1.180661864980722,1.0769230769230766,1.0924139573657259,1,1.0924105320451762,1.0769230769230766,-24.320392977800424,,-24.12933457288578,-29.51103563291149,-12.979798023551176,,-12.954094714530491,-14.654246584518585,,,-24.994006520243467,-14.755517816455745,-8.489398691193763,,-8.445149030106839,-7.327123292259293
S IH JH,3,-10.263448838948575,,-10.2633004160416,-10.990684938388938,-10.985110651907002,,-11.091176779268418,-14.755517816455745,-6.597691150061347,,-6.597772683243619,-7.327123292259293,-10.207659798285473,,-10.23273602891079,-14.755517816455745,-6.178417929821437,,-6.181197801895198,-7.327123292259293,1.2181288545509077,1,1.217921973057338,1.0769230769230766,1.1335567691409063,1,1.1335442463827277,1.0769230769230766,-20.059128703395878,,-20.23573015298166,-29.51103563291149,-11.116429021944999,,-11.200556458122634,-14.654246584518585,,,-21.810935764674248,-14.755517816455745,-6.178417929821437,,-6.181197801895198,-7.327123292259293
S IH M,3,-8.98440594898221,,-8.984711812041608,-10.990684938388938,-9.992386217868788,,-10.03375647553867,-14.755517816455745,-5.217513015958891,,-5.235575873702788,-7.327123292259293,-9.87193250659375,,-9.882956270150009,-14.755517816455745,-5.413044245207475,,-5.417983058718536,-7.327123292259293,1.2555038259183966,1,1.2552413799113007,1.0769230769230766,1.156909780703993,1,1.156892094162471,1.0769230769230766,-17.56033761391864,,-17.77492105477272,-29.51103563291149,-9.736250887842544,,-9.838359648581804,-14.654246584518585,,,-28.7247376299985,-14.755517816455745,-5.413044245207475,,-5.417983058718536,-7.327123292259293
S IH Z,3,-9.975451954594305,,-9.975461024310018,-10.990684938388938,-9.781184394931365,,-9.858831042879237,-14.755517816455745,-5.610782850973238,,-5.625912100214652,-7.327123292259293,-8.955963804195148,,-8.978464644174728,-14.755517816455745,-5.594236496404278,,-5.598801985627956,-7.327123292259293,1.2274821415632007,1,1.22726135475215,1.0769230769230766,1.136562377719934,1,1.136549190366036,1.0769230769230766,-18.224922543920563,,-18.433521267879264,-29.51103563291149,-10.129520722856888,,-10.228695875093667,-14.654246584518585,,,-22.79134152330461,-14.755517816455745,-5.594236496404278,,-5.598801985627956,-7.327123292259293
SH AE N,3,-10.549956841688253,,-10.549921597435944,-10.990684938388938,-11.187101081288462,,-11.311067964714088,-14.755517816455745,-3.9721534050734943,,-4.084491654606674,-7.327123292259293,-11.802031586560343,,-11.797523665493177,-14.755517816455745,-5.713118243933516,,-5.708700311487755,-7.327123292259293,1.167710650449053,1,1.1675761329051026,1.0769230769230766,1.1123190255023054,1,1.112311198802558,1.0769230769230766,-20.828025840832026,,-21.01633310229468,-29.51103563291149,-11.2144820229516,,-11.289674667679037,-14.654246584518585,,,-21.27939287890768,-14.755517816455745,-5.713118243933516,,-5.708700311487755,-7.327123292259293
SH EH N,3,-10.323623495005943,,-10.323634463952569,-10.990684938388938,-11.448617616269068,,-11.564582847743814,-14.755517816455745,-4.234318571186963,,-4.338706344315154,-7.327123292259293,-11.762163724807134,,-11.758309875956279,-14.755517816455745,-5.673342865470124,,-5.669623025879418,-7.327123292259293,1.1766429234675582,1,1.1764952959338546,1.0769230769230766,1.1186308035182635,1,1.1186215811675058,1.0769230769230766,-20.961084560788812,,-21.14411971096231,-29.51103563291149,-11.347540742908386,,-11.417461276346668,-14.654246584518585,,,-27.462190833195127,-14.755517816455745,-5.673342865470124,,-5.669623025879418,-7.327123292259293
SH IH S,3,-9.791793551771033,,-9.791881803460964,-10.990684938388938,-11.181617366780925,,-11.304303608467475,-14.755517816455745,-3.616099989165385,,-3.728940082187144,-7.327123292259293,-11.063094755568905,,-11.076359886968278,-14.755517816455745,-4.885585572129202,,-4.898523410570363,-7.327123292259293,1.1947169239916577,1,1.1945429616668577,1.0769230769230766,1.1389838774619054,1,1.1389701546695694,1.0769230769230766,-20.48871205019827,,-20.681944845491014,-29.51103563291149,-10.406390844795354,,-10.490148971280805,-14.654246584518585,,,-26.386852213366474,-14.755517816455745,-4.885585572129202,,-4.898523410570363,-7.327123292259293
T AE L,3,-9.192983985725391,,-9.193241547946357,-10.990684938388938,-10.288484888971459,,-10.348157949607183,-14.755517816455745,-4.797480747799857,,-4.838301183640304,-7.327123292259293,-10.86166950628662,,-10.871882550893503,-14.755517816455745,-5.870962654773793,,-5.8781775344965626,-7.327123292259293,1.17340661653224,1,1.1732642347360025,1.0769230769230766,1.1531499345004168,1,1.1531330793305212,1.0769230769230766,-18.91247486959332,,-19.124129052755464,-29.51103563291149,-10.70883687059072,,-10.804356803460259,-14.654246584518585,,,-20.993757192359467,-14.755517816455745,-5.870962654773793,,-5.8781775344965626,-7.327123292259293
T EH M,3,-9.57755471409299,,-9.577778384650664,-10.990684938388938,-10.530850586311708,,-10.593920048349666,-14.755517816455745,-4.81525651131221,,-4.854914398673948,-7.327123292259293,-11.338139831412319,,-11.34954532613007,-14.755517816455745,-5.83742825467763,,-5.843539362821685,-7.327123292259293,1.1631741953459658,1,1.1630471952717114,1.0769230769230766,1.1322127517197185,1,1.1322005261486825,1.0769230769230766,-19.362173402681563,,-19.571124923756074,-29.51103563291149,-10.597506187946388,,-10.694541937453053,-14.654246584518585,,,-27.34740812222551,-14.755517816455745,-5.83742825467763,,-5.843539362821685,-7.327123292259293
T EH T,3,-8.824793710849633,,-8.825110067646479,-10.990684938388938,-10.28284754457342,,-10.34213593300718,-14.755517816455745,-4.8564145838057176,,-4.895736393194204,-7.327123292259293,-10.550937234187712,,-10.559837770090546,-14.755517816455745,-5.7684353831906785,,-5.7747622643423675,-7.327123292259293,1.1792465783344364,1,1.179095683816674,1.0769230769230766,1.1685465897684546,1,1.1685263301129407,1.0769230769230766,-18.82549514112612,,-19.038422700294774,-29.51103563291149,-10.638664260439896,,-10.735363931973307,-14.654246584518585,,,-26.63406016858589,-14.755517816455745,-5.7684353831906785,,-5.7747622643423675,-7.327123292259293
T IH S,3,-8.231644945738854,,-8.232043495037423,-10.990684938388938,-10.55842877482789,,-10.602340624232964,-14.755517816455745,-4.323883892299593,,-4.357158393116579,-7.327123292259293,-9.048869308962976,,-9.058122598150554,-14.755517816455745,-3.9579629314433613,,-3.96442661709586,-7.327123292259293,1.2248841430335378,1,1.2246659356054084,1.0769230769230766,1.193243618752729,1,1.1932178981267292,1.0769230769230766,-18.53801717113448,,-18.746066700315488,-29.51103563291149,-9.783202252842319,,-9.879239888957832,-14.654246584518585,,,-28.106699856163203,-14.755517816455745,-3.9579629314433613,,-3.96442661709586,-7.327123292259293
TH AE N,3,-11.890553100132486,,-11.889410330637672,-10.990684938388938,-12.474955369595099,,-12.601038461198808,-14.755517816455745,-4.6969136410683845,,-4.811710267077144,-7.327123292259293,-12.25177102002646,,-12.22104635381487,-14.755517816455745,-5.4269626035278975,,-5.413050069386797,-7.327123292259293,1.1630029071528794,1,1.162875294275491,1.0769230769230766,1.1016632924457148,1,1.1016578219258855,1.0769230769230766,-22.682440389426894,,-22.784241355700555,-29.51103563291149,-12.502336311258237,,-12.493647472004973,-14.654246584518585,,,-20.864542288641083,-14.755517816455745,-5.4269626035278975,,-5.413050069386797,-7.327123292259293
TH IH S,3,-11.132389810215267,,-11.131370536662693,-10.990684938388938,-11.657041063495999,,-11.849833630004698,-14.755517816455745,-3.5284296335687118,,-3.711718219710118,-7.327123292259293,-11.420460868904005,,-11.460460161124141,-14.755517816455745,-4.507056611592567,,-4.563450754303572,-7.327123292259293,1.1900091806954842,1,1.189842123037246,1.0769230769230766,1.1283281444053148,1,1.1283167777928969,1.0769230769230766,-21.53069600720158,,-21.705412623949393,-29.51103563291149,-10.881814541510428,,-10.949681300659245,-14.654246584518585,,,-26.358713535087148,-14.755517816455745,-4.507056611592567,,-4.563450754303572,-7.327123292259293
V AE S,3,-10.76579442568115,,-10.765733884490189,-10.990684938388938,-11.748162536431682,,-11.841917396517527,-14.755517816455745,-4.57567967634543,,-4.658779002611868,-7.327123292259293,-11.329313674579712,,-11.344639981310413,-14.755517816455745,-5.43951524239232,,-5.455111797586152,-7.327123292259293,1.1627530017203962,1,1.1626259586263978,1.0769230769230766,1.099128373512082,1,1.0991234635097744,1.0769230769230766,-21.116148641417585,,-21.31229015406477,-29.51103563291149,-11.424184761130856,,-11.509736552455838,-14.654246584518585,-17.650421031593883,,-17.41038443971468,-14.755517816455745,-5.43951524239232,,-5.455111797586152,-7.327123292259293
V EH L,3,-10.54864718460113,,-10.548631986741693,-10.990684938388938,-10.48673613867976,,-10.593552023701864,-14.755517816455745,-4.059231666646454,,-4.147409998175938,-7.327123292259293,-10.88615937058595,,-10.903414789932315,-14.755517816455745,-5.097021393671099,,-5.114517200099353,-7.327123292259293,1.157369019107841,1,1.1572501496732948,1.0769230769230766,1.1048900684484821,1,1.1048838844287205,1.0769230769230766,-19.919417266272365,,-20.127438506525536,-29.51103563291149,-10.778630305275197,,-10.871939466979057,-14.654246584518585,,,-22.737346584667403,-14.755517816455745,-5.097021393671099,,-5.114517200099353,-7.327123292259293
V EH R,3,-10.642436306977483,,-10.642411755270178,-10.990684938388938,-10.565126904965958,,-10.667656839354148,-14.755517816455745,-3.533807243459311,,-3.623981202256622,-7.327123292259293,-11.761976404057092,,-11.77899005836248,-14.755517816455745,-4.3563290267495205,,-4.375065451497721,-7.327123292259293,1.1679439599339845,1,1.167809368977225,1.0769230769230766,1.0995536954808123,1,1.0995486914319408,1.0769230769230766,-19.851643704363955,,-20.05840544218597,-29.51103563291149,-10.253205882088054,,-10.348510671059742,-14.654246584518585,,,-22.295474238620418,-14.755517816455745,-4.3563290267495205,,-4.375065451497721,-7.327123292259293
V EH S,3,-10.53946107899884,,-10.539446751006814,-10.990684938388938,-11.486590856417093,,-11.583954362321018,-14.755517816455745,-4.314756627463704,,-4.401515775094114,-7.327123292259293,-10.760263892544792,,-10.777925762072764,-14.755517816455745,-4.870557943647219,,-4.888534082277065,-7.327123292259293,1.1716852747389015,1,1.1715451216551498,1.0769230769230766,1.10544015152804,1,1.1054338458747222,1.0769230769230766,-20.726119146379173,,-20.928598845506166,-29.51103563291149,-11.034155266092448,,-11.126045243897234,-14.654246584518585,-20.604260351189964,,-20.161609550191866,-14.755517816455745,-4.870557943647219,,-4.888534082277065,-7.327123292259293
V IH L,3,-9.822827596899192,,-9.822906303051017,-10.990684938388938,-10.40387786797574,,-10.508165958343163,-14.755517816455745,-3.9765137803729638,,-4.062295222689956,-7.327123292259293,-10.798240221537185,,-10.814670425374825,-14.755517816455745,-5.009378207308448,,-5.026139456918282,-7.327123292259293,1.1855980169595728,1,1.1854377155320936,1.0769230769230766,1.1381218916052784,1,1.1381083594139791,1.0769230769230766,-19.51376806390742,,-19.724777688101703,-29.51103563291149,-10.372981102910256,,-10.469278648555225,-14.654246584518585,,,-25.35364333004421,-14.755517816455745,-5.009378207308448,,-5.026139456918282,-7.327123292259293
V IH N,3,-9.619651846829877,,-9.619748044117063,-10.990684938388938,-10.960478331713663,,-11.057665516829168,-14.755517816455745,-4.140143204154766,,-4.22525653219937,-7.327123292259293,-9.82412466842518,,-9.840952112486203,-14.755517816455745,-4.023658969002529,,-4.041443301764403,-7.327123292259293,1.2100692699182656,1,1.2098725876397445,1.0769230769230766,1.1515507238979907,1,1.1515342223431757,1.0769230769230766,-19.75979701945629,,-19.969656120079005,-29.51103563291149,-10.536610526692057,,-10.632239958064638,-14.654246584518585,,,-24.97165623424578,-14.755517816455745,-4.023658969002529,,-4.041443301764403,-7.327123292259293
V IH S,3,-9.813641491296902,,-9.813721067316138,-10.990684938388938,-10.385816032160896,,-10.484078394699509,-14.755517816455745,-3.2141221876380346,,-3.3019110973453243,-7.327123292259293,-10.16092511911857,,-10.178133149377038,-14.755517816455745,-4.271495132907111,,-4.289108090957759,-7.327123292259293,1.1999142725906333,1,1.1997326875139487,1.0769230769230766,1.1386719746848364,1,1.1386583208599808,1.0769230769230766,-19.30255339046205,,-19.511448124819523,-29.51103563291149,-9.610589510175325,,-9.708894523210592,-14.654246584518585,,,-23.876518584236784,-14.755517816455745,-4.271495132907111,,-4.289108090957759,-7.327123292259293
W AE N,3,-10.99734966345384,,-10.99709282999081,-10.990684938388938,-11.915339581659676,,-11.94101311665057,-14.755517816455745,-5.432693023424213,,-5.446016947614155,-7.327123292259293,-10.819959869232699,,-10.819827260568754,-14.755517816455745,-5.555466703362072,,-5.551912056698965,-7.327123292259293,1.1793858538235635,1,1.1792342127065392,1.0769230769230766,1.107113084605046,1,1.1071064090352427,1.0769230769230766,-20.827429431200223,,-20.982431550618998,-29.51103563291149,-11.942720523322816,,-11.982821848238983,-14.654246584518585,,,-20.626821487073876,-14.755517816455745,-5.555466703362072,,-5.551912056698965,-7.327123292259293
W IH S,3,-10.239186373536619,,-10.239053036015832,-10.990684938388938,-9.932722875063478,,-10.011153289114812,-14.755517816455745,-3.0995066154274404,,-3.1673699039054837,-7.327123292259293,-9.209980364112138,,-9.236882155838073,-14.755517816455745,-3.856891357428635,,-3.879953829575789,-7.327123292259293,1.2063921273661682,1,1.2062010414682942,1.0769230769230766,1.133777936564646,1,1.133765364902254,1.0769230769230766,-18.510982648477807,,-18.72494782252619,-29.51103563291149,-9.157496353077907,,-9.260200680551609,-14.654246584518585,,,-28.08519365094224,-14.755517816455745,-3.856891357428635,,-3.879953829575789,-7.327123292259293
Y AE N,3,-11.3101341845673,,-11.309651807197996,-10.990684938388938,-12.608486762219622,,-12.674060450617226,-14.755517816455745,-5.091870771578134,,-5.145716411203163,-7.327123292259293,-12.676124713364246,,-12.611480203371148,-14.755517816455745,-6.377662115087594,,-6.312398080530641,-7.327123292259293,1.1648483425249794,1,1.1647180230182987,1.0769230769230766,1.1046348752672441,1,1.1046287476754206,1.0769230769230766,-22.554546044166194,,-22.641993850235668,-29.51103563291149,-12.63586770388276,,-12.611430507661357,-14.654246584518585,,,-16.645202508462575,-14.755517816455745,-6.377662115087594,,-6.312398080530641,-7.327123292259293
Y IH S,3,-10.551970894650081,,-10.551612013223018,-10.990684938388938,-12.713093737745313,,-12.785901836778457,-14.755517816455745,-4.845908045703252,,-4.90877058119148,-7.327123292259293,-13.572035510332276,,-13.490184886264197,-14.755517816455745,-7.1849770712427485,,-7.102089641031197,-7.327123292259293,1.1918546160675842,1,1.1916848517800538,1.0769230769230766,1.1312997272268441,1,1.131287703542432,1.0769230769230766,-22.32532294356567,,-22.426211335839845,-29.51103563291149,-11.937867215759743,,-11.930510553670972,-14.654246584518585,,,-25.365414858977424,-14.755517816455745,-7.1849770712427485,,-7.102089641031197,-7.327123292259293
Z AE N,3,-10.733615244511526,,-10.733500818284996,-10.990684938388938,-13.455784622606826,,-13.714062125428466,-14.755517816455745,-4.620927734090463,,-4.873782695719521,-7.327123292259293,-13.36691174696896,,-13.347778793807095,-14.755517816455745,-5.209996929121416,,-5.216171458030911,-7.327123292259293,1.158973078891355,1,1.1588513764085435,1.0769230769230766,1.109897525760334,1,1.1098902344990247,1.0769230769230766,-24.72008480242827,,-24.640674035271047,-29.51103563291149,-13.483165564269964,,-13.3045776882213,-14.654246584518585,,,-19.843740950000686,-14.755517816455745,-5.209996929121416,,-5.216171458030911,-7.327123292259293
Z IH S,3,-9.975451954594305,,-9.975461024310018,-10.990684938388938,-12.307628629637149,,-12.765031550904435,-14.755517816455745,-3.122202039720213,,-3.575964905022576,-7.327123292259293,-12.522356369096487,,-12.524672244135031,-14.755517816455745,-4.276845710436065,,-4.304051785966353,-7.327123292259293,1.1859793524339597,1,1.1858182051702986,1.0769230769230766,1.136562377719934,1,1.136549190366036,1.0769230769230766,-23.23809873333238,,-23.364019560189963,-29.51103563291149,-11.532402107651578,,-11.562785773545654,-14.654246584518585,,,-26.670841337027195,-14.755517816455745,-4.276845710436065,,-4.304051785966353,-7.327123292259293
B AO CH,3,-13.47081854647399,,-13.469712638187069,-10.990684938388938,-14.644710696133,,-14.148368674018293,-14.755517816455745,-10.212642053042686,,-9.568014816247999,-7.327123292259293,-15.09165332250706,,-14.742649177853203,-14.755517816455745,-10.350833766239504,,-9.966289811144332,-7.327123292259293,1.095235281842592,1,1.095208758458195,1.0769230769230766,1.0388857698611182,1,1.0388941806141425,1.0769230769230766,-25.734905661823486,,-25.234986008808086,-29.51103563291149,-16.530788779671635,,-15.92832078286352,-14.654246584518585,,,-19.341259291004953,-14.755517816455745,-10.350833766239504,,-9.966289811144332,-7.327123292259293
B AO TH,3,-13.843727371386896,,-13.84215467954802,-10.990684938388938,-13.706075760732356,,-13.63425655210653,-14.755517816455745,-9.114029764374576,,-8.874867635688053,-7.327123292259293,-12.407322822799612,,-12.436594025167567,-14.755517816455745,-7.952938493441134,,-7.929407883883293,-7.327123292259293,1.0939754513470585,1,1.0939508009237917,1.0769230769230766,1.0371788110266138,1,1.0371875992198485,1.0769230769230766,-24.957201093235483,,-24.85549638710318,-29.51103563291149,-15.432176491003526,,-15.235173602303572,-14.654246584518585,,,-20.086665846658647,-14.755517816455745,-7.952938493441134,,-7.929407883883293,-7.327123292259293
B AW JH,3,-14.15567708604401,,-14.153915057931265,-10.990684938388938,-14.875464095029647,,-14.407210878046875,-14.755517816455745,-9.734519299358446,,-9.164819856674374,-7.327123292259293,-15.42072647162485,,-14.797859762827676,-14.755517816455745,-10.843654599397121,,-10.199791516099825,-7.327123292259293,1.0732150688256,1,1.0732208234633236,1.0769230769230766,1.0340484413367586,1,1.0340579217127046,1.0769230769230766,-26.954342691847007,,-26.418974351125097,-29.51103563291149,-17.314907738437306,,-16.687425931215262,-14.654246584518585,,,-26.53619702527337,-14.755517816455745,-10.843654599397121,,-10.199791516099825,-7.327123292259293
CH AO B,3,-13.47081854647399,,-13.469712638187067,-10.990684938388938,-16.298881863046905,,-16.200160530149144,-14.755517816455745,-8.77956844483434,,-8.641797354640769,-7.327123292259293,-19.051856767954895,,-18.79990899296943,-14.755517816455745,-10.546181994433468,,-10.30216970834746,-7.327123292259293,1.067367497594882,1,1.0673815083145615,1.0769230769230766,1.0388857698611182,1,1.0388941806141425,1.0769230769230766,-28.221477664476048,,-28.074115619287536,-29.51103563291149,-17.027225665985526,,-16.782736111019588,-14.654246584518585,,,-24.607590807400065,-14.755517816455745,-10.546181994433468,,-10.30216970834746,-7.327123292259293
CH AO CH,3,-14.829591841614132,,-14.827718051615761,-10.990684938388938,-17.087057731502206,,-16.537178171747062,-14.755517816455745,-10.725478593889651,,-10.02809171576066,-7.327123292259293,-19.08011720550252,,-18.5418718674344,-14.755517816455745,-12.250930086671893,,-11.68846406946735,-7.327123292259293,1.050455227609389,1,1.0504943814133303,1.0769230769230766,1.0230297668668515,1,1.0230416836757836,1.0769230769230766,-30.10676319171493,,-29.400986559936626,-29.51103563291149,-18.97313581504084,,-18.169030472139475,-14.654246584518585,,,-18.1565734486788,-14.755517816455745,-12.250930086671893,,-11.68846406946735,-7.327123292259293
CH AO D,3,-12.986763163772602,,-12.985759205669204,-10.990684938388938,-15.24481748062681,,-15.193231358456265,-14.755517816455745,-8.240571944101653,,-8.156289538859067,-7.327123292259293,-15.65100894347612,,-15.464825646242689,-14.755517816455745,-9.255197813117903,,-9.073504291431153,-7.327123292259293,1.0795840357333868,1,1.0795798844057443,1.0769230769230766,1.0521728281642537,1,1.052178300902617,1.0769230769230766,-26.774558681539723,,-26.692936358834412,-29.51103563291149,-16.48822916525284,,-16.297228295237886,-14.654246584518585,,,-19.835913627021647,-14.755517816455745,-9.255197813117903,,-9.073504291431153,-7.327123292259293
CH AO G,3,-14.065110513191314,,-14.063788967233165,-10.990684938388938,-14.756004717131141,,-14.770490319908628,-14.755517816455745,-7.680956156166229,,-7.630196442962289,-7.327123292259293,-16.86062147348288,,-16.685261330401275,-14.755517816455745,-9.012251634507512,,-8.835832639554033,-7.327123292259293,1.0596176312132677,1,1.0596431634817174,1.0769230769230766,1.0293245320040605,1,1.0293350569238446,1.0769230769230766,-27.042822668134406,,-26.98404309216756,-29.51103563291149,-15.928613377317417,,-15.771135199341106,-14.654246584518585,,,-18.81627240199859,-14.755517816455745,-9.012251634507512,,-8.835832639554033,-7.327123292259293
CH AO NG,3,-14.376009798645795,,-14.374512785997176,-10.990684938388938,-14.482502373874873,,-14.537869140623496,-14.755517816455745,-7.358182763903178,,-7.320041514658449,-7.327123292259293,-14.577663861875699,,-14.416719382875183,-14.755517816455745,-8.955093220667564,,-8.77974317290299,-7.327123292259293,1.0537384222341122,1,1.0537726949878357,1.0769230769230766,1.026177149435456,1,1.026188370299814,1.0769230769230766,-27.1747854329863,,-27.11781955279968,-29.51103563291149,-15.605839985054367,,-15.460980271037267,-14.654246584518585,,,-16.583067058919497,-14.755517816455745,-8.955093220667564,,-8.77974317290299,-7.327123292259293
CH AO SH,3,-13.861904408082804,,-13.860671359774987,-10.990684938388938,-15.506115292321025,,-15.501998932017113,-14.755517816455745,-8.77956844483434,,-8.641797354640769,-7.327123292259293,-18.121528069856517,,-17.870098761012667,-14.755517816455745,-10.641492174237793,,-10.38918108533709,-7.327123292259293,1.0508369944262173,1,1.0508755806661796,1.0769230769230766,1.0319785410889377,1,1.0319884791581622,1.0769230769230766,-28.481760762739718,,-28.328349757671774,-29.51103563291149,-17.027225665985526,,-16.782736111019588,-14.654246584518585,,,-18.536104647448912,-14.755517816455745,-10.641492174237793,,-10.38918108533709,-7.327123292259293
CH AO TH,3,-15.202500666527037,,-15.200160092976713,-10.990684938388938,-16.14842279610156,,-16.023066049835304,-14.755517816455745,-9.626866305221544,,-9.334944535200714,-7.327123292259293,-16.395786705795075,,-16.235816714748765,-14.755517816455745,-9.853034813873522,,-9.651582142206312,-7.327123292259293,1.0491953971138557,1,1.049236423878927,1.0769230769230766,1.021322808032347,1,1.0213351022814896,1.0769230769230766,-29.32905862312692,,-29.02149693823172,-29.51103563291149,-17.87452352637273,,-17.47588329157953,-14.654246584518585,,,-18.901980004332493,-14.755517816455745,-9.853034813873522,,-9.651582142206312,-7.327123292259293
CH AO Z,3,-14.045562810906073,,-14.044250580624038,-10.990684938388938,-14.894834915206351,,-14.883519790833596,-14.755517816455745,-8.086421264274392,,-8.013188695218394,-7.327123292259293,-15.858212631332531,,-15.661858747886043,-14.755517816455745,-9.899554829508414,,-9.696033904777146,-7.327123292259293,1.061984585477603,1,1.062006598849384,1.0769230769230766,1.0295570413469664,1,1.0295675148546288,1.0769230769230766,-27.055726072970312,,-26.980618431286196,-29.51103563291149,-16.334078485425582,,-16.154127451597212,-14.654246584518585,,,-23.90715319357744,-14.755517816455745,-9.899554829508414,,-9.696033904777146,-7.327123292259293
CH UW DH,3,-16.48666211946548,,-16.480726520514793,-10.990684938388938,-16.33692993068443,,-16.32213695132135,-14.755517816455745,-9.49116565696475,,-9.156339467951314,-7.327123292259293,-15.261459747629953,,-15.28820099229679,-14.755517816455745,-7.761662318510241,,-7.666778941666573,-7.327123292259293,1.03425559668911,1,1.0343186289555288,1.0769230769230766,1.017891877484589,1,1.0179049303760148,1.0769230769230766,-30.74275195843493,,-30.317277291810782,-29.51103563291149,-18.16220559882451,,-17.69902684289374,-14.654246584518585,,,-20.112473944652933,-14.755517816455745,-7.761662318510241,,-7.666778941666573,-7.327123292259293
CH UW SH,3,-13.927979919218846,,-13.926714772091977,-10.990684938388938,-15.975524812370297,,-15.836368118441548,-14.755517816455745,-9.20348358451297,,-8.933195916637104,-7.327123292259293,-13.084251333869625,,-13.125174339313242,-14.755517816455745,-5.528070097003146,,-5.569637822887336,-7.327123292259293,1.040020275623217,1,1.0400747376735557,1.0769230769230766,1.03120729058564,1,1.0312173991926339,1.0769230769230766,-29.329058623126926,,-29.02149693823172,-29.51103563291149,-17.874523526372727,,-17.475883291579528,-14.654246584518585,,,-23.03362252651845,-14.755517816455745,-5.528070097003146,,-5.569637822887336,-7.327123292259293
CH UW TH,3,-15.268576177663078,,-15.266203505293706,-10.990684938388938,-14.323615472827305,,-14.383354210237727,-14.755517816455745,-7.756564601576644,,-7.6522620711750395,-7.327123292259293,-12.914222482886121,,-12.97570563801034,-14.755517816455745,-6.2953252497168135,,-6.316852224717557,-7.327123292259293,1.0383786783108555,1,1.038435580886303,1.0769230769230766,1.0205515575290494,1,1.0205640223159613,1.0769230769230766,-27.882139640190594,,-27.740563092769655,-29.51103563291149,-16.427604543436402,,-16.194949446117466,-14.654246584518585,,,-21.71053926570746,-14.755517816455745,-6.2953252497168135,,-6.316852224717557,-7.327123292259293
CH UW V,3,-13.949827858744715,,-13.948554035947149,-10.990684938388938,-15.486468875711466,,-15.413051603168466,-14.755517816455745,-7.88172774453065,,-7.770045106831423,-7.327123292259293,-12.694264243848277,,-12.731764507383982,-14.755517816455745,-5.815752169454927,,-5.851488975028324,-7.327123292259293,1.0548328281161545,1,1.0548652686841151,1.0769230769230766,1.030895387808571,1,1.0309055653830452,1.0769230769230766,-27.857020580095263,,-27.711742654234165,-29.51103563291149,-16.55276768639041,,-16.31273248177385,-14.654246584518585,,,-19.767340815589787,-14.755517816455745,-5.815752169454927,,-5.851488975028324,-7.327123292259293
CH UW ZH,3,-16.507175659298582,,-16.501135392146,-10.990684938388938,-16.349200023276246,,-16.539834768803274,-14.755517816455745,-8.798018476404806,,-8.596723680015891,-7.327123292259293,-13.560412373679021,,-13.713034686680809,-14.755517816455745,-6.027061263122134,,-6.0573410292324725,-7.327123292259293,1.032728529421797,1,1.032793831944131,1.0769230769230766,1.0178691936462567,1,1.0178822515534993,1.0769230769230766,-31.43589913899487,,-30.936316500217004,-29.51103563291149,-17.469058418264567,,-17.139411054958316,-14.654246584518585,,,-22.69019528075695,-14.755517816455745,-6.027061263122134,,-6.0573410292324725,-7.327123292259293
D AO TH,3,-13.359671988685509,,-13.358201247030156,-10.990684938388938,-13.821145090517144,,-13.742435991688792,-14.755517816455745,-9.400457346156049,,-9.15439970377791,-7.327123292259293,-13.233581557089177,,-13.253479408911428,-14.755517816455745,-8.669665181409322,,-8.63874131978794,-7.327123292259293,1.1037675574030996,1,1.1037285452733838,1.0769230769230766,1.0504658693297493,1,1.050471719508323,1.0769230769230766,-24.900912171023585,,-24.796729257343316,-29.51103563291149,-15.547245820788312,,-15.347651585730263,-14.654246584518585,,,-19.286903652789952,-14.755517816455745,-8.669665181409322,,-8.63874131978794,-7.327123292259293
F AW JH,3,-14.334761793019224,,-14.332947661572128,-10.990684938388938,-15.522091259954701,,-15.016031872470341,-14.755517816455745,-10.286985875064177,,-9.679484256747529,-7.327123292259293,-16.075469550063794,,-15.43054544235464,-14.755517816455745,-11.37855235765905,,-10.713048144376364,-7.327123292259293,1.0685073255294264,1,1.0685199848337121,1.0769230769230766,1.0305494592740037,1,1.0305597133396833,1.0769230769230766,-27.695130445991378,,-27.119199815268637,-29.51103563291149,-17.96153490336236,,-17.293561734785577,-14.654246584518585,,,-25.75331997664805,-14.755517816455745,-11.37855235765905,,-10.713048144376364,-7.327123292259293
F UW DH,3,-15.30697353130055,,-15.301753710726965,-10.990684938388938,-15.132957126358495,,-15.16512142204321,-14.755517816455745,-10.122542757941732,,-9.833899942538974,-7.327123292259293,-16.675578061260065,,-16.614123958294982,-14.755517816455745,-11.144302874526408,,-10.95032128767252,-7.327123292259293,1.0743279076261394,1,1.0743321673707822,1.0769230769230766,1.030248898416101,1,1.0302592189413524,1.0769230769230766,-27.703429248806074,,-27.47447517885295,-29.51103563291149,-16.958232794498574,,-16.687425931215262,-14.654246584518585,,,-23.481110828292245,-14.755517816455745,-11.144302874526408,,-10.95032128767252,-7.327123292259293
F UW SH,3,-12.748291331053917,,-12.747741962304147,-10.990684938388938,-14.771552008044361,,-14.679352589163406,-14.755517816455745,-9.83486068548995,,-9.610756391224765,-7.327123292259293,-14.498369647499734,,-14.451097305311434,-14.755517816455745,-8.910710653019315,,-8.853180168893283,-7.327123292259293,1.0800925865602464,1,1.080088276088809,1.0769230769230766,1.0435643115171518,1,1.0435716877579715,1.0769230769230766,-26.28973591349807,,-26.178694825273887,-29.51103563291149,-16.670550722046794,,-16.46428237990105,-14.654246584518585,,,-26.40225941015776,-14.755517816455745,-8.910710653019315,,-8.853180168893283,-7.327123292259293
F UW TH,3,-14.08888758949815,,-14.087230695505877,-10.990684938388938,-13.119642668501369,,-13.226338680959584,-14.755517816455745,-8.387941702553626,,-8.329822545762699,-7.327123292259293,-14.328340796516231,,-14.301628604008533,-14.755517816455745,-9.677965805732981,,-9.600394570723504,-7.327123292259293,1.0784509892478849,1,1.0784491193015564,1.0769230769230766,1.0329085784605612,1,1.032918310881299,1.0769230769230766,-24.842816930561746,,-24.89776097981182,-29.51103563291149,-15.223631739110468,,-15.183348534438988,-14.654246584518585,,,-25.07917614934677,-14.755517816455745,-9.677965805732981,,-9.600394570723504,-7.327123292259293
F UW V,3,-12.770139270579786,,-12.76958122615932,-10.990684938388938,-14.28249607138553,,-14.256036073890325,-14.755517816455745,-8.51310484550763,,-8.447605581419083,-7.327123292259293,-14.108382557478388,,-14.057687473382174,-14.755517816455745,-9.198392725471095,,-9.13503132103427,-7.327123292259293,1.0949051390531839,1,1.0948788070993685,1.0769230769230766,1.0432524087400827,1,1.0432598539483828,1.0769230769230766,-24.817697870466414,,-24.86894054127633,-29.51103563291149,-15.348794882064475,,-15.301131570095372,-14.654246584518585,,,-23.135977699229098,-14.755517816455745,-9.198392725471095,,-9.13503132103427,-7.327123292259293
F UW ZH,3,-15.327487071133653,,-15.322162582358171,-10.990684938388938,-15.14522721895031,,-15.38281923952513,-14.755517816455745,-9.429395577381786,,-9.274284154603551,-7.327123292259293,-14.97453068730913,,-15.038957652679004,-14.755517816455745,-9.409701819138302,,-9.34088337523842,-7.327123292259293,1.0728008403588263,1,1.0728073703593843,1.0769230769230766,1.0302262145777685,1,1.030236540118837,1.0769230769230766,-28.39657642936602,,-28.09351438725917,-29.51103563291149,-16.26508561393863,,-16.127810143279838,-14.654246584518585,,,-26.05883216439626,-14.755517816455745,-9.409701819138302,,-9.34088337523842,-7.327123292259293
G AO B,3,-12.706337218051171,,-12.705783553804471,-10.990684938388938,-14.6894439506128,,-14.643788965713277,-14.755517816455745,-8.407212495333454,,-8.321786395073627,-7.327123292259293,-16.38203155610828,,-16.307873939456872,-14.755517816455745,-9.24038008239339,,-9.164239830769151,-7.327123292259293,1.08597249910136,1,1.0859592225787862,1.0769230769230766,1.0451805349983272,1,1.0451875538622035,1.0769230769230766,-25.374957789108734,,-25.405451662279475,-29.51103563291149,-15.417787753551426,,-15.347651585730263,-14.654246584518585,,,-25.043487692382534,-14.755517816455745,-9.24038008239339,,-9.164239830769151,-7.327123292259293
G AO CH,3,-14.065110513191314,,-14.063788967233165,-10.990684938388938,-15.477619819068106,,-14.980806607311195,-14.755517816455745,-10.353122644388765,,-9.708080756193517,-7.327123292259293,-16.410291993655907,,-16.04983681392184,-14.755517816455745,-10.945128174631815,,-10.550534191889042,-7.327123292259293,1.069060229115867,1,1.069072095677555,1.0769230769230766,1.0293245320040605,1,1.0293350569238446,1.0769230769230766,-27.260243316347616,,-26.732322602928562,-29.51103563291149,-17.363697902606738,,-16.733945946850156,-14.654246584518585,,,-18.592470333661268,-14.755517816455745,-10.945128174631815,,-10.550534191889042,-7.327123292259293
G AO TH,3,-14.438019338104219,,-14.436231008594117,-10.990684938388938,-14.53898488366746,,-14.466694485399431,-14.755517816455745,-9.254510355720658,,-9.014933575633572,-7.327123292259293,-13.725961493948457,,-13.743781661236206,-14.755517816455745,-8.547232901833445,,-8.513652264628004,-7.327123292259293,1.0678003986203337,1,1.0678141381431516,1.0769230769230766,1.027617573169556,1,1.0276284755295506,1.0769230769230766,-26.482538747759605,,-26.352832981223656,-29.51103563291149,-16.26508561393863,,-16.04079876629021,-14.654246584518585,,,-19.337876889314963,-14.755517816455745,-8.547232901833445,,-8.513652264628004,-7.327123292259293
G AW CH,3,-15.24600119911512,,-15.2436194662375,-10.990684938388938,-14.260401787992148,,-14.195286106620234,-14.755517816455745,-9.090880931938855,,-8.882252884889363,-7.327123292259293,-15.31641268472173,,-15.188481214044408,-14.755517816455745,-9.811981793404122,,-9.651762325603295,-7.327123292259293,1.044863945242954,1,1.0449113249414417,1.0769230769230766,1.0209655375786137,1,1.02097791082687,1.0769230769230766,-27.260243316347616,,-27.068794839549774,-29.51103563291149,-17.363697902606738,,-17.070418183471368,-14.654246584518585,,,-21.423908314984793,-14.755517816455745,-9.811981793404122,,-9.651762325603295,-7.327123292259293
G AW D,3,-13.403172521273591,,-13.401660620290944,-10.990684938388938,-13.724413190563109,,-13.693522053049868,-14.755517816455745,-7.912225935597209,,-7.8526334677082055,-7.327123292259293,-13.879734587385531,,-13.77731421619175,-14.755517816455745,-8.808679684540337,,-8.70268177090615,-7.327123292259293,1.0739927533669518,1,1.0739968279338556,1.0769230769230766,1.050108598876016,1,1.0501145280537034,1.0769230769230766,-25.234290459618762,,-25.202927398168,-29.51103563291149,-16.185042906265092,,-16.04079876629021,-14.654246584518585,,,-21.481388060894986,-14.755517816455745,-8.808679684540337,,-8.70268177090615,-7.327123292259293
G AW R,3,-12.953811210121415,,-12.952358581318173,-10.990684938388938,-15.130668795840485,,-15.019473697358599,-14.755517816455745,-8.531265144003433,,-8.412249255643628,-7.327123292259293,-16.33930158488782,,-16.201116305810967,-14.755517816455745,-9.501826865100282,,-9.364080253151513,-7.327123292259293,1.1141546224972871,1,1.1140989893336195,1.0769230769230766,1.069752802871774,1,1.0697543883521567,1.0769230769230766,-25.913954289841424,,-25.82264711017313,-29.51103563291149,-16.804082114671317,,-16.60041455422563,-14.654246584518585,,,-21.776736796347212,-14.755517816455745,-9.501826865100282,,-9.364080253151513,-7.327123292259293
G AW TH,3,-15.618910024028025,,-15.616061507598456,-10.990684938388938,-13.321766852591503,,-13.418809720240981,-14.755517816455745,-7.992268643270745,,-7.926741439861926,-7.327123292259293,-14.942966080823021,,-14.839265280946275,-14.755517816455745,-9.724970416414491,,-9.571719617929759,-7.327123292259293,1.0436041147474207,1,1.0436533674070383,1.0769230769230766,1.0192585787441093,1,1.019271329432576,1.0769230769230766,-26.482538747759605,,-26.426940953377382,-29.51103563291149,-16.26508561393863,,-16.11490673844393,-14.654246584518585,,,-20.548812211666295,-14.755517816455745,-9.724970416414491,,-9.571719617929759,-7.327123292259293
G AW Z,3,-14.461972168407062,,-14.46015199524578,-10.990684938388938,-13.790945569437397,,-13.76807338588476,-14.755517816455745,-8.1745902000647,,-8.093795524525094,-7.327123292259293,-13.953406882617422,,-13.841365929807818,-14.755517816455745,-9.319505308306328,,-9.192229996224855,-7.327123292259293,1.056393303111168,1,1.0564235423774955,1.0769230769230766,1.0274928120587286,1,1.0275037420057151,1.0769230769230766,-25.9319727953441,,-25.874872371077345,-29.51103563291149,-16.447407170732582,,-16.281960823107095,-14.654246584518585,,,-21.681426616542886,-14.755517816455745,-9.319505308306328,,-9.192229996224855,-7.327123292259293
G UW DH,3,-15.72218079104266,,-15.7167974361322,-10.990684938388938,-14.95063556956454,,-15.022194915833158,-14.755517816455745,-9.341953258778075,,-9.092758037331851,-7.327123292259293,-16.784530771733934,,-16.733986637033517,-14.755517816455745,-10.648756642420759,,-10.46666976233755,-7.327123292259293,1.052860598195588,1,1.0528963432197536,1.0769230769230766,1.024186642621798,1,1.0241983036240758,1.0769230769230766,-28.119375634381825,,-27.905042863750396,-29.51103563291149,-16.77591123770462,,-16.520371846552095,-14.654246584518585,,,-20.472251037363918,-14.755517816455745,-10.648756642420759,,-10.46666976233755,-7.327123292259293
G UW SH,3,-13.163498590796028,,-13.162785687709384,-10.990684938388938,-14.589230451250407,,-14.536426082953355,-14.755517816455745,-9.054271186326293,,-8.86961448601764,-7.327123292259293,-14.607322357973606,,-14.570959984049969,-14.755517816455745,-8.415164420913666,,-8.369528643558315,-7.327123292259293,1.0586252771296951,1,1.0586524519377805,1.0769230769230766,1.037502055722849,1,1.037510772440695,1.0769230769230766,-26.70568229907382,,-26.609262510171334,-29.51103563291149,-16.48822916525284,,-16.297228295237886,-14.654246584518585,,,-23.393399619229434,-14.755517816455745,-8.415164420913666,,-8.369528643558315,-7.327123292259293
