connormayer/uci_phonotactic_calculator/src/output.csv
word,word_len,uni_prob,uni_prob_freq_weighted,uni_prob_smoothed,uni_prob_freq_weighted_smoothed,bi_cond_pos_wb,bi_cond_pos_wb_freq_weighted,bi_cond_pos_wb_smoothed,bi_cond_pos_wb_freq_weighted_smoothed,bi_cond_pos_noWB,bi_cond_pos_noWB_freq_weighted,bi_cond_pos_noWB_smoothed,bi_cond_pos_noWB_freq_weighted_smoothed,bi_cond_nonpos_wb,bi_cond_nonpos_wb_freq_weighted,bi_cond_nonpos_wb_smoothed,bi_cond_nonpos_wb_freq_weighted_smoothed,bi_cond_nonpos_noWB,bi_cond_nonpos_noWB_freq_weighted,bi_cond_nonpos_noWB_smoothed,bi_cond_nonpos_noWB_freq_weighted_smoothed,uni_joint_pos,uni_joint_pos_freq_weighted,uni_joint_pos_smoothed,uni_joint_pos_freq_weighted_smoothed,uni_joint_nonpos,uni_joint_nonpos_freq_weighted,uni_joint_nonpos_smoothed,uni_joint_nonpos_freq_weighted_smoothed,bi_joint_pos_wb,bi_joint_pos_wb_freq_weighted,bi_joint_pos_wb_smoothed,bi_joint_pos_wb_freq_weighted_smoothed,bi_joint_pos_noWB,bi_joint_pos_noWB_freq_weighted,bi_joint_pos_noWB_smoothed,bi_joint_pos_noWB_freq_weighted_smoothed,bi_joint_nonpos_wb,bi_joint_nonpos_wb_freq_weighted,bi_joint_nonpos_wb_smoothed,bi_joint_nonpos_wb_freq_weighted_smoothed,bi_joint_nonpos_noWB,bi_joint_nonpos_noWB_freq_weighted,bi_joint_nonpos_noWB_smoothed,bi_joint_nonpos_noWB_freq_weighted_smoothed
B AE L,3,-10.36204673,nan,-10.36212113,nan,-9.78413178,,-9.840536628,-14.75551782,-4.536972855,,-4.574513008,-7.327123292,-9.709414945,nan,-9.726087482,nan,-5.265809228,nan,-5.278666159,nan,1.184742862,1,1.184583854,1,1.105797422,nan,1.105791037,nan,-18.16427654,,-18.38035186,-29.51103563,-10.20448376,,-10.30422647,-14.65424658,-22.52580192,#NAME?,-22.54893085,#NAME?,-12.51517869,#NAME?,-12.52822226,#NAME?
B AE P,3,-11.03326878,nan,-11.03325218,nan,-10.55971979,,-10.62280326,-14.75551782,-5.23612606,,-5.267660189,-7.327123292,-11.4798294,nan,-11.49555329,nan,-5.926695547,nan,-5.937003935,nan,1.154430577,1,1.154316633,1,1.076654361,nan,1.07665442,nan,-19.53976981,,-19.74442309,-29.51103563,-10.90363697,,-10.99737365,-14.65424658,-24.96743842,#NAME?,-24.98599859,#NAME?,-13.17606501,#NAME?,-13.18656004,#NAME?
B IH S,3,-9.40070769,nan,-9.400923082,nan,-9.894695479,,-9.938070101,-14.75551782,-3.903995814,,-3.936721016,-7.327123292,-9.145510714,nan,-9.159839515,nan,-4.601705472,nan,-4.612288727,nan,1.236220389,1,1.235985555,1,1.145891106,nan,1.145875856,nan,-17.63043866,,-17.84564031,-29.51103563,-9.119468957,,-9.222460353,-14.65424658,-21.00055865,#NAME?,-21.02694886,#NAME?,-10.89855355,#NAME?,-10.91489763,#NAME?
CH AE L,3,-11.72082003,nan,-11.72012655,nan,-11.38709718,,-11.56632565,-14.75551782,-4.210427759,,-4.371569432,-7.327123292,-12.00737309,nan,-12.02952666,nan,-5.475399813,nan,-5.505979161,nan,1.139962808,1,1.139869477,1,1.089941419,nan,1.08993854,nan,-21.69675244,,-21.88333194,-29.51103563,-11.80744916,,-11.88191568,-14.65424658,-26.18253336,#NAME?,-26.18118464,#NAME?,-14.24239964,#NAME?,-14.2351852,#NAME?
CH AE N,3,-11.51764428,nan,-11.51696829,nan,-11.12040971,,-11.29608436,-14.75551782,-3.550769248,,-3.714789896,-7.327123292,-11.02998421,nan,-11.05322471,nan,-4.48640725,nan,-4.518699368,nan,1.164434061,1,1.164304349,1,1.103370251,nan,1.103364403,nan,-21.11949346,,-21.30846953,-29.51103563,-11.14779065,,-11.22513615,-14.65424658,-25.00196873,#NAME?,-25.00240424,#NAME?,-13.25340707,#NAME?,-13.2479054,#NAME?
CH EH N,3,-11.29131093,nan,-11.29068116,nan,-11.0039318,,-11.18335485,-14.75551782,-3.434939967,,-3.602760191,-7.327123292,-10.8717329,nan,-10.89779808,nan,-4.328248415,nan,-4.363363722,nan,1.173366334,1,1.173223512,1,1.109682029,nan,1.109674786,nan,-20.87455773,,-21.07001174,-29.51103563,-10.90285492,,-10.98667836,-14.65424658,-24.61738407,#NAME?,-24.62247812,#NAME?,-12.86882241,#NAME?,-12.86797929,#NAME?
CH IH S,3,-10.75948099,nan,-10.7589285,nan,-11.29602772,,-11.46508416,-14.75551782,-3.375817558,,-3.53500248,-7.327123292,-11.43654842,nan,-11.4626035,nan,-4.804375614,nan,-4.838926535,nan,1.191440335,1,1.191271178,1,1.130035103,nan,1.130023359,nan,-20.96128139,,-21.14984542,-29.51103563,-10.5208012,,-10.60137461,-14.65424658,-24.65036965,#NAME?,-24.65852746,#NAME?,-12.61885406,#NAME?,-12.62118536,#NAME?
D AE L,3,-9.877991347,nan,-9.878167702,nan,-10.94988337,,-10.9878429,-14.75551782,-5.874082699,,-5.893171912,-7.327123292,-11.18971724,nan,-11.19270873,nan,-6.636579473,nan,-6.637685926,nan,1.194534968,1,1.194361599,1,1.11908448,nan,1.119075158,nan,-19.15866988,,-19.36071157,-29.51103563,-11.37023535,,-11.45583129,-14.65424658,-23.52204882,#NAME?,-23.53554086,#NAME?,-13.68278385,#NAME?,-13.68607739,#NAME?
D AE S,3,-9.868805242,nan,-9.868982467,nan,-11.76878182,,-11.79824744,-14.75551782,-5.948651394,,-5.967279884,-7.327123292,-11.27941554,nan,-11.2823626,nan,-6.625709801,nan,-6.626845711,nan,1.208851224,1,1.20865657,1,1.119634563,nan,1.119625119,nan,-19.7844155,,-19.9818741,-29.51103563,-11.44480405,,-11.52993926,-14.65424658,-23.60256102,#NAME?,-23.61604329,#NAME?,-13.67191418,#NAME?,-13.67523717,#NAME?
D EH M,3,-10.26256208,nan,-10.26270454,nan,-10.31343771,,-10.36610443,-14.75551782,-5.013047103,,-5.042284559,-7.327123292,-10.6842161,nan,-10.69791942,nan,-5.621073615,nan,-5.630550154,nan,1.184302547,1,1.184144559,1,1.098147298,nan,1.098142604,nan,-18.72955706,,-18.94020687,-29.51103563,-10.38009331,,-10.47851585,-14.65424658,-23.40111842,#NAME?,-23.42396875,#NAME?,-12.44085216,#NAME?,-12.45435115,#NAME?
D EH P,3,-10.32288005,nan,-10.32301162,nan,-10.7082494,,-10.76322949,-14.75551782,-5.55666255,,-5.580138855,-7.327123292,-11.78800014,nan,-11.79884267,nan,-6.125426725,nan,-6.132782814,nan,1.173154956,1,1.173013541,1,1.096253197,nan,1.096248923,nan,-19.38848335,,-19.59217447,-29.51103563,-10.92370876,,-11.01637015,-14.65424658,-24.56522043,#NAME?,-24.58477724,#NAME?,-12.94520527,#NAME?,-12.95658381,#NAME?
D EH S,3,-9.642471895,nan,-9.642695333,nan,-10.59021543,,-10.63196184,-14.75551782,-4.770733636,,-4.801694094,-7.327123292,-9.735690366,nan,-9.748328904,nan,-5.082077115,nan,-5.092902999,nan,1.217783497,1,1.217575734,1,1.125946341,nan,1.125935501,nan,-18.47739129,,-18.68986023,-29.51103563,-10.13777984,,-10.23792539,-14.65424658,-21.8325025,#NAME?,-21.85751011,#NAME?,-11.90185566,#NAME?,-11.91670399,#NAME?
D IH DH,3,-12.90281229,nan,-12.8981606,nan,-10.55501115,,-10.85727606,-14.75551782,-5.86737634,,-5.84649337,-7.327123292,-12.90714834,nan,-13.01156518,nan,-7.476448487,nan,-7.448801741,nan,1.167597591,1,1.167464973,1,1.100137804,nan,1.100132671,nan,-21.39116884,,-21.4868931,-29.51103563,-10.91149123,,-10.96517862,-14.65424658,-28.26430088,#NAME?,-28.20373051,#NAME?,-13.57013148,#NAME?,-13.550246,#NAME?
D IH JH,3,-10.81578538,nan,-10.81556746,nan,-9.899814139,,-10.01796759,-14.75551782,-4.987017617,,-4.99919551,-7.327123292,-9.819156108,nan,-9.847130174,nan,-5.185935975,nan,-5.193469533,nan,1.175156574,1,1.175012718,1,1.108026109,nan,1.108019232,nan,-19.49920921,,-19.67818407,-29.51103563,-10.03113251,,-10.11788076,-14.65424658,-23.08928173,#NAME?,-23.1122481,#NAME?,-11.27961897,#NAME?,-11.29491379,#NAME?
D IH T,3,-8.783981485,nan,-8.784310538,nan,-8.668253675,,-8.717951596,-14.75551782,-3.657164567,,-3.687009121,-7.327123292,-8.381970066,nan,-8.393769528,nan,-4.037313266,nan,-4.047604359,nan,1.228603928,1,1.228380613,1,1.167712959,nan,1.167692883,nan,-16.47290687,,-16.69386117,-29.51103563,-8.701279459,,-8.805694373,-14.65424658,-19.62029179,#NAME?,-19.64866367,#NAME?,-10.13099626,#NAME?,-10.14904861,#NAME?
D IH TH,3,-11.68472635,nan,-11.68363758,nan,-9.931457258,,-10.09406665,-14.75551782,-5.522535854,,-5.517989303,-7.327123292,-11.25613993,nan,-11.2997599,nan,-6.706340265,nan,-6.699565094,nan,1.171720672,1,1.171581925,1,1.102797484,nan,1.102791763,nan,-19.9203171,,-20.08575223,-29.51103563,-10.56665075,,-10.63667456,-14.65424658,-25.39520652,#NAME?,-25.40037013,#NAME?,-12.80002326,#NAME?,-12.80100935,#NAME?
D IH V,3,-10.36597803,nan,-10.36598811,nan,-9.562233869,,-9.62973698,-14.75551782,-4.115622205,,-4.141745278,-7.327123292,-9.040150511,nan,-9.062370476,nan,-4.230736008,nan,-4.240753555,nan,1.188174822,1,1.188011613,1,1.113141315,nan,1.113133306,nan,-18.36312124,,-18.56290473,-29.51103563,-9.159737097,,-9.26043053,-14.65424658,-21.86046878,#NAME?,-21.88662137,#NAME?,-10.324419,#NAME?,-10.34219781,#NAME?
D IH Z,3,-10.52778849,nan,-10.52772807,nan,-8.695887882,,-8.785621852,-14.75551782,-4.000109318,,-4.027334927,-7.327123292,-8.567460114,nan,-8.592858789,nan,-4.601754542,nan,-4.611073716,nan,1.184509861,1,1.1843521,1,1.111031718,nan,1.111024176,nan,-17.66500305,,-17.87597518,-29.51103563,-9.04422421,,-9.146020179,-14.65424658,-21.54958885,#NAME?,-21.57614711,#NAME?,-10.69543754,#NAME?,-10.71251797,#NAME?
D IH ZH,3,-12.92332583,nan,-12.91856947,nan,-12.30188229,,-12.57905127,-14.75551782,-6.908830215,,-6.790954979,-7.327123292,-12.75838047,nan,-12.86994612,nan,-7.29412693,nan,-7.272911074,nan,1.166070524,1,1.165940176,1,1.10011512,nan,1.100109992,nan,-23.81891708,,-23.6100097,-29.51103563,-11.95294511,,-11.90964023,-14.65424658,-28.13604654,#NAME?,-28.07913314,#NAME?,-13.38780992,#NAME?,-13.37435533,#NAME?
F AE L,3,-10.54113144,nan,-10.54115374,nan,-10.49035104,,-10.54284151,-14.75551782,-5.149031528,,-5.1826613,-7.327123292,-10.30439278,nan,-10.318756,nan,-5.740941744,nan,-5.751966569,nan,1.180035119,1,1.179883016,1,1.10229844,nan,1.102292829,nan,-18.96465639,,-19.17406122,-29.51103563,-10.91070302,,-11.00384616,-14.65424658,-23.29986446,#NAME?,-23.31862338,#NAME?,-13.19508064,#NAME?,-13.20382513,#NAME?
F AE S,3,-10.53194533,nan,-10.5319685,nan,-11.30924949,,-11.35324605,-14.75551782,-5.223600224,,-5.256769272,-7.327123292,-10.39409108,nan,-10.40840987,nan,-5.730072072,nan,-5.741126354,nan,1.194351375,1,1.194177988,1,1.102848523,nan,1.10284279,nan,-19.59040201,,-19.79522375,-29.51103563,-10.98527172,,-11.07795414,-14.65424658,-23.38037665,#NAME?,-23.39912581,#NAME?,-13.18421097,#NAME?,-13.19298492,#NAME?
F EH K,3,-10.54149184,nan,-10.54153615,nan,-10.54138615,,-10.59545792,-14.75551782,-5.242840192,,-5.273998061,-7.327123292,-9.846552507,nan,-9.864518333,nan,-4.763265356,nan,-4.777381886,nan,1.176369087,1,1.176222603,1,1.096519732,nan,1.096515399,nan,-19.09487305,,-19.30347361,-29.51103563,-10.87540524,,-10.96875484,-14.65424658,-22.84238459,#NAME?,-22.86561582,#NAME?,-11.99097842,#NAME?,-12.00464998,#NAME?
F EH S,3,-10.30561198,nan,-10.30568137,nan,-11.41853739,,-11.45992613,-14.75551782,-5.333536754,,-5.364149158,-7.327123292,-9.733171439,nan,-9.750055555,nan,-5.069244913,nan,-5.082863023,nan,1.203283648,1,1.203097151,1,1.109160301,nan,1.109153173,nan,-19.57123209,,-19.77617556,-29.51103563,-10.9661018,,-11.05890594,-14.65424658,-22.49312366,#NAME?,-22.51627202,#NAME?,-12.29695798,#NAME?,-12.31013112,#NAME?
F IH K,3,-9.815672255,nan,-9.815810468,nan,-10.12089334,,-10.17588363,-14.75551782,-4.822487771,,-4.854695067,-7.327123292,-9.218679757,nan,-9.235909452,nan,-4.135668569,nan,-4.149046645,nan,1.204598085,1,1.204410169,1,1.129751555,nan,1.129739874,nan,-18.35158931,,-18.56662458,-29.51103563,-10.1321215,,-10.23190581,-14.65424658,-21.48869225,#NAME?,-21.51492384,#NAME?,-10.63728609,#NAME?,-10.65395801,#NAME?
F IH S,3,-9.579792397,nan,-9.579955686,nan,-9.940505016,,-9.986217666,-14.75551782,-3.85564476,,-3.890711986,-7.327123292,-8.997785695,nan,-9.014291565,nan,-4.334135132,nan,-4.347372673,nan,1.231512646,1,1.231284716,1,1.142392124,nan,1.142377648,nan,-17.77040878,,-17.98519234,-29.51103563,-9.165278494,,-9.267922727,-14.65424658,-21.03191833,#NAME?,-21.05842493,#NAME?,-10.83575265,#NAME?,-10.85228403,#NAME?
G AE N,3,-10.75316295,nan,-10.7530392,nan,-10.41126218,,-10.48165014,-14.75551782,-4.078703689,,-4.136716281,-7.327123292,-9.746453364,nan,-9.765382217,nan,-4.566899699,nan,-4.584271672,nan,1.183039063,1,1.182882063,1,1.109665016,nan,1.109657777,nan,-19.17326397,,-19.38174291,-29.51103563,-10.43864313,,-10.53198897,-14.65424658,-22.95395655,#NAME?,-22.97153736,#NAME?,-12.44247686,#NAME?,-12.45061796,#NAME?
G EH N,3,-10.5268296,nan,-10.52675207,nan,-11.77712168,,-11.80650829,-14.75551782,-5.445211818,,-5.462274231,-7.327123292,-10.60207311,nan,-10.60569397,nan,-5.422611925,nan,-5.424674405,nan,1.191971336,1,1.191801227,1,1.115976794,nan,1.115968159,nan,-20.41066566,,-20.58087278,-29.51103563,-11.67604481,,-11.73111884,-14.65424658,-23.58324295,#NAME?,-23.58734963,#NAME?,-13.07176325,#NAME?,-13.06643023,#NAME?
G IH N,3,-9.801010012,nan,-9.801026388,nan,-11.72961142,,-11.78018312,-14.75551782,-5.397841939,,-5.436220359,-7.327123292,-10.37010223,nan,-10.38167151,nan,-5.190917012,nan,-5.200925593,nan,1.220200333,1,1.219988792,1,1.149208618,nan,1.149192634,nan,-20.04036446,,-20.23727287,-29.51103563,-11.30574361,,-11.38751892,-14.65424658,-22.62545248,#NAME?,-22.64124408,#NAME?,-12.11397279,#NAME?,-12.12032468,#NAME?
G IH S,3,-9.994999657,nan,-9.994999411,nan,-11.15494912,,-11.206596,-14.75551782,-4.471820922,,-4.512874924,-7.327123292,-10.70690268,nan,-10.71885255,nan,-5.438753176,nan,-5.448590382,nan,1.210045336,1,1.209848892,1,1.136329868,nan,1.136316732,nan,-19.58312083,,-19.77906487,-29.51103563,-10.3797226,,-10.46417348,-14.65424658,-23.15624258,#NAME?,-23.17175213,#NAME?,-12.36180895,#NAME?,-12.36798947,#NAME?
HH AE N,3,-11.1839829,nan,-11.18360004,nan,-9.750375867,,-9.811068993,-14.75551782,-3.808810446,,-3.85708753,-7.327123292,-8.294551291,nan,-8.329218371,nan,-3.571139263,nan,-3.602513923,nan,1.195580491,1,1.195405098,1,1.105542229,nan,1.105535901,nan,-18.12138458,,-18.33791297,-29.51103563,-9.777756808,,-9.878687694,-14.65424658,-21.93287443,#NAME?,-21.95606976,#NAME?,-11.81238781,#NAME?,-11.82567903,#NAME?
HH AE S,3,-11.37797254,nan,-11.37757306,nan,-10.83596179,,-10.89171481,-14.75551782,-4.543037652,,-4.587975038,-7.327123292,-9.361638469,nan,-9.395174197,nan,-4.549262154,nan,-4.578953502,nan,1.185425493,1,1.185265197,1,1.09266348,nan,1.092659999,nan,-19.32438917,,-19.53393792,-29.51103563,-10.51198401,,-10.6095752,-14.65424658,-23.19395125,#NAME?,-23.21535261,#NAME?,-12.7905107,#NAME?,-12.80211861,#NAME?
HH EH S,3,-11.1516392,nan,-11.15128593,nan,-10.87407341,,-10.92777733,-14.75551782,-4.581797904,,-4.624737357,-7.327123292,-9.163780221,nan,-9.196679062,nan,-4.35149639,nan,-4.38054935,nan,1.194357766,1,1.19418436,1,1.098975258,nan,1.098970381,nan,-19.23404298,,-19.44427216,-29.51103563,-10.42163782,,-10.51990944,-14.65424658,-22.76975966,#NAME?,-22.79235799,#NAME?,-12.36631911,#NAME?,-12.37912399,#NAME?
JH IH S,3,-10.26344884,nan,-10.26330042,nan,-11.23718722,,-11.3313858,-14.75551782,-3.93028778,,-4.014070482,-7.327123292,-10.12221748,nan,-10.14677759,nan,-4.054512204,nan,-4.083601596,nan,1.197880527,1,1.197701925,1,1.133556769,nan,1.133544246,nan,-20.28913017,,-20.48163719,-29.51103563,-10.4619607,,-10.54421619,-14.65424658,-22.84000656,#NAME?,-22.8623249,#NAME?,-11.42180169,#NAME?,-11.43603262,#NAME?
K AE DH,3,-13.53850854,nan,-13.53376115,nan,-12.12515227,,-12.34933111,-14.75551782,-7.80580348,,-7.706645112,-7.327123292,-14.14293332,nan,-14.1831264,nan,-9.246604977,nan,-9.15291251,nan,1.158193174,1,1.158074389,1,1.073484294,nan,1.073485055,nan,-23.04348369,,-23.06020337,-29.51103563,-12.9328811,,-12.90737709,-14.65424658,-30.1357821,#NAME?,-30.00718472,#NAME?,-15.81068774,#NAME?,-15.7225884,#NAME?
K AE G,3,-11.18303245,nan,-11.18286701,nan,-10.25149653,,-10.33536581,-14.75551782,-5.657369067,,-5.675212789,-7.327123292,-11.83040171,nan,-11.84669456,nan,-6.509355621,nan,-6.51385518,nan,1.17273849,1,1.17259808,1,1.084145698,nan,1.084144101,nan,-19.4287122,,-19.62342849,-29.51103563,-10.78444669,,-10.87594477,-14.65424658,-25.4677744,#NAME?,-25.48105774,#NAME?,-13.07343838,#NAME?,-13.08353107,#NAME?
K AE K,3,-9.788228418,nan,-9.788424989,nan,-9.268819868,,-9.320377712,-14.75551782,-4.604219153,,-4.632795059,-7.327123292,-9.705512462,nan,-9.719522813,nan,-5.167186065,nan,-5.176976179,nan,1.209693518,1,1.209498168,1,1.119884086,nan,1.119874586,nan,-17.31617071,,-17.53402284,-29.51103563,-9.731296776,,-9.833527037,-14.65424658,-21.94808112,#NAME?,-21.97339494,#NAME?,-11.73126883,#NAME?,-11.74665207,#NAME?
K AE NG,3,-11.49393173,nan,-11.49359083,nan,-9.830763946,,-9.94906244,-14.75551782,-5.187365438,,-5.211375675,-7.327123292,-9.297329434,nan,-9.328860425,nan,-6.202082539,nan,-6.208473531,nan,1.166859281,1,1.166727612,1,1.080998316,nan,1.080997415,nan,-19.41344473,,-19.60352277,-29.51103563,-10.31444306,,-10.41210765,-14.65424658,-23.24560141,#NAME?,-23.26725655,#NAME?,-12.7661653,#NAME?,-12.77814942,#NAME?
K AE TH,3,-12.3204226,nan,-12.31923814,nan,-10.57347319,,-10.73597077,-14.75551782,-6.532837804,,-6.527990115,-7.327123292,-11.84833979,nan,-11.8855567,nan,-7.832911641,nan,-7.817911443,nan,1.162316256,1,1.16219134,1,1.076143974,nan,1.076144147,nan,-20.64450675,,-20.80891157,-29.51103563,-11.65991543,,-11.72872209,-14.65424658,-26.62310263,#NAME?,-26.61805992,#NAME?,-14.3969944,#NAME?,-14.38758733,#NAME?
K AE Z,3,-11.16348475,nan,-11.16332862,nan,-11.24599283,,-11.28590513,-14.75551782,-6.918500285,,-6.895714896,-7.327123292,-11.18628416,nan,-11.19116106,nan,-7.7549501,nan,-7.741925536,nan,1.175105444,1,1.174961515,1,1.084378208,nan,1.084376559,nan,-20.29728172,,-20.45751369,-29.51103563,-12.04557791,,-12.09644687,-14.65424658,-24.80410914,#NAME?,-24.80634238,#NAME?,-14.31903286,#NAME?,-14.31160143,#NAME?
K AE ZH,3,-13.55902208,nan,-13.55417002,nan,-12.37858442,,-12.72117961,-14.75551782,-7.353818357,,-7.301180004,-7.327123292,-13.88880493,nan,-13.95503375,nan,-8.958922904,nan,-8.890548246,nan,1.156666107,1,1.156549592,1,1.07346161,nan,1.073462376,nan,-23.97779292,,-23.83339326,-29.51103563,-12.48089598,,-12.50191198,-14.65424658,-29.90216725,#NAME?,-29.79611375,#NAME?,-15.52300567,#NAME?,-15.46022414,#NAME?
K EH K,3,-9.561895072,nan,-9.562137856,nan,-10.8467678,,-10.88208795,-14.75551782,-6.182815714,,-6.195205101,-7.327123292,-11.01676231,nan,-11.02067247,nan,-6.478528394,nan,-6.478216823,nan,1.218625791,1,1.218417331,1,1.126195864,nan,1.126184968,nan,-18.76566083,,-18.9700048,-29.51103563,-11.18078689,,-11.269509,-14.65424658,-23.03299762,#NAME?,-23.05004511,#NAME?,-12.81618533,#NAME?,-12.82330225,#NAME?
K EH L,3,-9.335201319,nan,-9.335468309,nan,-10.72406432,,-10.75615382,-14.75551782,-6.017987314,,-6.031250421,-7.327123292,-11.02927672,nan,-11.03169872,nan,-7.010971401,nan,-7.009681078,nan,1.231224096,1,1.230996906,1,1.138286349,nan,1.138272781,nan,-18.43531799,,-18.64154641,-29.51103563,-11.01595849,,-11.10555432,-14.65424658,-22.81881828,#NAME?,-22.83534178,#NAME?,-13.34862833,#NAME?,-13.3547665,#NAME?
K EH S,3,-9.326015214,nan,-9.326283073,nan,-11.72391904,,-11.74655616,-14.75551782,-6.273512275,,-6.285356198,-7.327123292,-10.90338124,nan,-10.9062097,nan,-6.784507951,nan,-6.78369796,nan,1.245540352,1,1.245291878,1,1.138836433,nan,1.138822742,nan,-19.24201987,,-19.44270674,-29.51103563,-11.27148345,,-11.3596601,-14.65424658,-22.6837367,#NAME?,-22.70070131,#NAME?,-13.12216488,#NAME?,-13.12878338,#NAME?
L AE L,3,-9.334840914,nan,-9.335085895,nan,-10.16712403,,-10.23935529,-14.75551782,-4.390270999,,-4.443673407,-7.327123292,-10.6565493,nan,-10.66796687,nan,-5.452461258,nan,-5.461354333,nan,1.163200229,1,1.163072817,1,1.144065057,nan,1.144050211,nan,-19.0769629,,-19.28953039,-29.51103563,-10.58747601,,-10.68421249,-14.65424658,-22.44573045,#NAME?,-22.47037983,#NAME?,-11.90541312,#NAME?,-11.92047874,#NAME?
L AE N,3,-9.131665164,nan,-9.131927636,nan,-9.900436561,,-9.969114006,-14.75551782,-3.730612489,,-3.786893871,-7.327123292,-9.679160419,nan,-9.691664924,nan,-4.463468695,nan,-4.474074539,nan,1.187671482,1,1.187507689,1,1.15749389,nan,1.157476074,nan,-18.49970392,,-18.71466797,-29.51103563,-9.927817503,,-10.02743296,-14.65424658,-21.26516582,#NAME?,-21.29159942,#NAME?,-10.91642055,#NAME?,-10.93319895,#NAME?
L AE T,3,-9.192983986,nan,-9.193241548,nan,-10.33084617,,-10.40272205,-14.75551782,-4.617915684,,-4.669797587,-7.327123292,-10.50174533,nan,-10.51263324,nan,-5.505769812,nan,-5.514513701,nan,1.160107918,1,1.159985103,1,1.153149935,nan,1.153133079,nan,-19.28780047,,-19.49894108,-29.51103563,-10.8151207,,-10.91033667,-14.65424658,-22.14906956,#NAME?,-22.17369078,#NAME?,-11.95872167,#NAME?,-11.97363811,#NAME?
L EH L,3,-9.108507567,nan,-9.108798761,nan,-10.11468703,,-10.18508576,-14.75551782,-4.338482626,,-4.390103683,-7.327123292,-10.84985526,nan,-10.85952299,nan,-5.645859707,nan,-5.653001435,nan,1.172132502,1,1.17199198,1,1.150376835,nan,1.150360593,nan,-18.89606808,,-19.10953258,-29.51103563,-10.40658119,,-10.50421469,-14.65424658,-22.41270307,#NAME?,-22.43743646,#NAME?,-11.87238574,#NAME?,-11.88753538,#NAME?
L IH S,3,-8.373501874,nan,-8.373887842,nan,-9.872554354,,-9.934923837,-14.75551782,-3.35216058,,-3.403916485,-7.327123292,-9.553637384,nan,-9.562792845,nan,-4.249349818,nan,-4.256050838,nan,1.214677756,1,1.214474517,1,1.184158742,nan,1.18413503,nan,-18.13799164,,-18.3528539,-29.51103563,-9.097327832,,-9.200481446,-14.65424658,-20.3814795,#NAME?,-20.40947178,#NAME?,-9.749780295,#NAME?,-9.768228043,#NAME?
M AE B,3,-10.97295081,nan,-10.9729451,nan,-10.87908344,,-10.94594233,-14.75551782,-5.303845933,,-5.330887553,-7.327123292,-12.37552016,nan,-12.38582889,nan,-5.858741471,nan,-5.866914842,nan,1.143127706,1,1.14303057,1,1.078548461,nan,1.078548102,nan,-20.22892216,,-20.41961374,-29.51103563,-10.96776875,,-11.05711061,-14.65424658,-25.8028112,#NAME?,-25.81638894,#NAME?,-12.80861702,#NAME?,-12.81979412,#NAME?
M AE L,3,-9.945744989,nan,-9.945909865,nan,-9.418407,,-9.476692425,-14.75551782,-4.174836167,,-4.214256758,-7.327123292,-9.536814119,nan,-9.551863627,nan,-4.979988658,nan,-4.991990915,nan,1.184931172,1,1.184771888,1,1.116816096,nan,1.116807275,nan,-17.79496367,,-18.01301969,-29.51103563,-9.838758982,,-9.940479814,-14.65424658,-21.93689935,#NAME?,-21.96199326,#NAME?,-11.92986421,#NAME?,-11.9448702,#NAME?
M AE V,3,-11.38588461,nan,-11.38574309,nan,-11.12381119,,-11.18828572,-14.75551782,-5.508640346,,-5.531558248,-7.327123292,-11.23018452,nan,-11.24684741,nan,-6.416713873,nan,-6.420015949,nan,1.141409755,1,1.141315173,1,1.07132933,nan,1.071330567,nan,-20.54371747,,-20.7279151,-29.51103563,-11.17256316,,-11.2577813,-14.65424658,-25.07040937,#NAME?,-25.08497838,#NAME?,-13.36658943,#NAME?,-13.37289523,#NAME?
M AE Z,3,-11.54769507,nan,-11.54748305,nan,-11.32395438,,-11.37487168,-14.75551782,-6.459616636,,-6.44784898,-7.327123292,-11.16350425,nan,-11.17078031,nan,-7.193742537,nan,-7.183780697,nan,1.137744794,1,1.13765566,1,1.069219733,nan,1.069221436,nan,-20.91208845,,-21.07168664,-29.51103563,-12.12353945,,-12.17407204,-14.65424658,-25.16553956,#NAME?,-25.16794872,#NAME?,-14.14361809,#NAME?,-14.13665998,#NAME?
M EH K,3,-9.946105394,nan,-9.946292279,nan,-9.868173183,,-9.925845306,-14.75551782,-4.667375907,,-4.702129997,-7.327123292,-9.690470014,nan,-9.705324665,nan,-4.613808439,nan,-4.625104932,nan,1.18126514,1,1.181111475,1,1.111037389,nan,1.111029845,nan,-18.32391141,,-18.53896856,-29.51103563,-10.20219228,,-10.30192497,-14.65424658,-22.09091565,#NAME?,-22.1166844,#NAME?,-11.33725816,#NAME?,-11.35339374,#NAME?
M EH M,3,-10.33031572,nan,-10.3304467,nan,-10.4685467,,-10.52445611,-14.75551782,-5.000385936,,-5.032871559,-7.327123292,-10.52561468,nan,-10.5404524,nan,-5.458784497,nan,-5.468233224,nan,1.174698751,1,1.174554848,1,1.095878914,nan,1.095874722,nan,-19.05243621,,-19.26201715,-29.51103563,-10.5352023,,-10.63266653,-14.65424658,-23.31027064,#NAME?,-23.33379923,#NAME?,-12.18223422,#NAME?,-12.19652204,#NAME?
M IH M,3,-9.60449613,nan,-9.604721018,nan,-10.0880933,,-10.14273416,-14.75551782,-4.620072919,,-4.651420897,-7.327123292,-10.29862955,nan,-10.31198723,nan,-5.232075323,nan,-5.240041696,nan,1.202927749,1,1.202742414,1,1.129110737,nan,1.129099197,nan,-18.34919188,,-18.56302044,-29.51103563,-9.831957972,,-9.933669828,-14.65424658,-22.35746592,#NAME?,-22.38325097,#NAME?,-11.2294295,#NAME?,-11.24597377,#NAME?
M IH P,3,-9.664814104,nan,-9.665028098,nan,-10.04260716,,-10.10465907,-14.75551782,-4.723390533,,-4.754075051,-7.327123292,-11.31488934,nan,-11.32653509,nan,-5.64890419,nan,-5.655898962,nan,1.191780158,1,1.191611396,1,1.127216636,nan,1.127205515,nan,-18.56782034,,-18.7797879,-29.51103563,-9.935275586,,-10.03632398,-14.65424658,-23.43404368,#NAME?,-23.45768407,#NAME?,-11.64625836,#NAME?,-11.66183104,#NAME?
N AE L,3,-9.131665164,nan,-9.131927636,nan,-10.74354694,,-10.82794321,-14.75551782,-4.605999031,,-4.671622797,-7.327123292,-12.00453888,nan,-12.01186513,nan,-6.44323576,nan,-6.448343288,nan,1.153860066,1,1.153746353,1,1.15749389,nan,1.157476074,nan,-20.01408068,,-20.21879027,-29.51103563,-11.16389892,,-11.25330702,-14.65424658,-23.59054429,#NAME?,-23.61179962,#NAME?,-12.68953207,#NAME?,-12.70173319,#NAME?
N EH N,3,-8.702156067,nan,-8.702482243,nan,-10.62444217,,-10.70201752,-14.75551782,-4.094571858,,-4.159858658,-7.327123292,-10.94761053,nan,-10.95497353,nan,-5.374796206,nan,-5.380564831,nan,1.187263592,1,1.187100388,1,1.1772345,nan,1.177212319,nan,-19.4559466,,-19.66251517,-29.51103563,-10.5233653,,-10.6151148,-14.65424658,-22.10410684,#NAME?,-22.12793009,#NAME?,-11.39466669,#NAME?,-11.40936427,#NAME?
N IH N,3,-7.976336479,nan,-7.97675656,nan,-11.41595386,,-11.48496612,-14.75551782,-4.886223929,,-4.943078549,-7.327123292,-10.23479161,nan,-10.24177801,nan,-4.662253252,nan,-4.667642959,nan,1.21549259,1,1.215287954,1,1.210466323,nan,1.210436794,nan,-19.92466735,,-20.12818902,-29.51103563,-10.99208606,,-11.08078865,-14.65424658,-20.66546833,#NAME?,-20.69265148,#NAME?,-9.956028186,#NAME?,-9.974085657,#NAME?
N IH S,3,-8.170326124,nan,-8.170729583,nan,-10.84129156,,-10.91137899,-14.75551782,-3.960202913,,-4.019733115,-7.327123292,-10.57159206,nan,-10.57895905,nan,-4.910089416,nan,-4.915307748,nan,1.205337593,1,1.205148054,1,1.197587574,nan,1.197560893,nan,-19.46742372,,-19.66998102,-29.51103563,-10.06606504,,-10.15744322,-14.65424658,-21.19625843,#NAME?,-21.22315953,#NAME?,-10.20386435,#NAME?,-10.22175045,#NAME?
P AE B,3,-11.03326878,nan,-11.03325218,nan,-11.31194752,,-11.36759201,-14.75551782,-6.125804994,,-6.141621773,-7.327123292,-12.50257207,nan,-12.51162086,nan,-6.445336077,nan,-6.451504596,nan,1.168135238,1,1.168001424,1,1.076654361,nan,1.07665442,nan,-20.27269126,,-20.46118754,-29.51103563,-11.40063283,,-11.48754864,-14.65424658,-25.99018109,#NAME?,-26.00206616,#NAME?,-13.38508188,#NAME?,-13.39433556,#NAME?
P AE G,3,-11.62756075,nan,-11.62732851,nan,-10.76232215,,-10.84598203,-14.75551782,-6.020444478,,-6.038081094,-7.327123292,-11.93467372,nan,-11.95210576,nan,-6.534742665,nan,-6.540300095,nan,1.160385372,1,1.160263079,1,1.067093123,nan,1.067095296,nan,-20.08728804,,-20.27917525,-29.51103563,-11.29527231,,-11.38400796,-14.65424658,-26.01657471,#NAME?,-26.0283413,#NAME?,-13.47448847,#NAME?,-13.48313106,#NAME?
P AE JH,3,-11.89600993,nan,-11.89562952,nan,-12.09899956,,-12.17478955,-14.75551782,-7.406738839,,-7.376366236,-7.327123292,-11.69570646,nan,-11.71172799,nan,-7.51797288,nan,-7.511650604,nan,1.153399039,1,1.153287133,1,1.064320024,nan,1.06432281,nan,-21.92831856,,-22.06139178,-29.51103563,-12.68156668,,-12.7222931,-14.65424658,-26.04605663,#NAME?,-26.05061125,#NAME?,-14.45771869,#NAME?,-14.45448157,#NAME?
P AE V,3,-11.44620258,nan,-11.44605017,nan,-11.55667527,,-11.6099354,-14.75551782,-6.330599406,,-6.342292469,-7.327123292,-11.35723643,nan,-11.37263937,nan,-7.00330848,nan,-7.004605703,nan,1.166417287,1,1.166286028,1,1.069435229,nan,1.069436885,nan,-20.58748657,,-20.7694889,-29.51103563,-11.60542724,,-11.68821933,-14.65424658,-25.25777925,#NAME?,-25.2706556,#NAME?,-13.94305429,#NAME?,-13.94743667,#NAME?
P AE Z,3,-11.60801304,nan,-11.60779013,nan,-11.75681846,,-11.79652136,-14.75551782,-7.281575696,,-7.258583201,-7.327123292,-11.29055616,nan,-11.29657227,nan,-7.780337144,nan,-7.768370451,nan,1.162752326,1,1.162626515,1,1.067325632,nan,1.067327754,nan,-20.95585756,,-21.11326044,-29.51103563,-12.55640353,,-12.60451006,-14.65424658,-25.35290945,#NAME?,-25.35362593,#NAME?,-14.72008295,#NAME?,-14.71120141,#NAME?
P EH L,3,-9.779729616,nan,-9.779929811,nan,-9.822162331,,-9.86728419,-14.75551782,-4.968335107,,-4.99463287,-7.327123292,-9.28904586,nan,-9.302979282,nan,-5.191855581,nan,-5.201995342,nan,1.218870978,1,1.218661906,1,1.121233774,nan,1.121223976,nan,-17.68116621,,-17.89780731,-29.51103563,-10.1140565,,-10.21413165,-14.65424658,-21.52311572,#NAME?,-21.54849468,#NAME?,-11.90517556,#NAME?,-11.92023584,#NAME?
P EH M,3,-10.39063369,nan,-10.39075378,nan,-10.54523932,,-10.59182912,-14.75551782,-5.466173535,,-5.489329112,-7.327123292,-10.11167612,nan,-10.12708077,nan,-5.504388631,nan,-5.513659379,nan,1.199706283,1,1.199525703,1,1.093984813,nan,1.093981041,nan,-18.74003385,,-18.94931429,-29.51103563,-10.61189493,,-10.70882789,-14.65424658,-22.95665005,#NAME?,-22.98031285,#NAME?,-12.21770861,#NAME?,-12.23189988,#NAME?
P EH S,3,-9.770543511,nan,-9.770744576,nan,-10.82201705,,-10.85768653,-14.75551782,-5.223860068,,-5.248738647,-7.327123292,-9.163150382,nan,-9.177490254,nan,-4.96539213,nan,-4.976012224,nan,1.233187233,1,1.232956878,1,1.121783857,nan,1.121773937,nan,-18.48786809,,-18.69896765,-29.51103563,-10.36958146,,-10.46823743,-14.65424658,-21.38803413,#NAME?,-21.41385421,#NAME?,-11.67871211,#NAME?,-11.69425272,#NAME?
P IH M,3,-9.664814104,nan,-9.665028098,nan,-10.88708632,,-10.92763422,-14.75551782,-5.808160913,,-5.825405498,-7.327123292,-10.4423652,nan,-10.4549467,nan,-5.835353677,nan,-5.84179895,nan,1.227935281,1,1.227713269,1,1.127216636,nan,1.127205515,nan,-18.75908992,,-18.96784463,-29.51103563,-10.63095099,,-10.72735824,-14.65424658,-22.56151955,#NAME?,-22.58609568,#NAME?,-11.8225781,#NAME?,-11.83768271,#NAME?
R AE L,3,-9.428630036,nan,-9.428865663,nan,-10.09369656,,-10.1449339,-14.75551782,-4.956059148,,-4.988427982,-7.327123292,-9.510060161,nan,-9.523242952,nan,-5.162031737,nan,-5.171170094,nan,1.190806436,1,1.190638534,1,1.138728684,nan,1.138715018,nan,-18.36431982,,-18.57813155,-29.51103563,-10.51404855,,-10.61145314,-14.65424658,-21.39303044,#NAME?,-21.41907232,#NAME?,-11.49192872,#NAME?,-11.50781072,#NAME?
R EH L,3,-9.20229669,nan,-9.20257853,nan,-9.2940949,,-9.34822911,-14.75551782,-4.157106116,,-4.192422997,-7.327123292,-9.537462229,nan,-9.54925847,nan,-5.189526289,nan,-5.197276596,nan,1.199738709,1,1.199557697,1,1.145040462,nan,1.1450254,nan,-17.43626034,,-17.65569848,-29.51103563,-9.585989067,,-9.689020072,-14.65424658,-21.19409916,#NAME?,-21.22058836,#NAME?,-11.29299744,#NAME?,-11.30932676,#NAME?
R EH M,3,-9.813200765,nan,-9.8134025,nan,-10.01717189,,-10.07277404,-14.75551782,-4.654944544,,-4.687119239,-7.327123292,-10.36009249,nan,-10.37335996,nan,-5.502059339,nan,-5.508940633,nan,1.180574015,1,1.180421495,1,1.117791501,nan,1.117782465,nan,-18.49512798,,-18.70720546,-29.51103563,-10.0838275,,-10.18371631,-14.65424658,-22.62763349,#NAME?,-22.65240653,#NAME?,-11.60553049,#NAME?,-11.62099079,#NAME?
R EH P,3,-9.873518739,nan,-9.87370958,nan,-10.41198358,,-10.4698991,-14.75551782,-5.198559991,,-5.224973535,-7.327123292,-11.46387652,nan,-11.4742832,nan,-6.006412449,nan,-6.011173293,nan,1.169426424,1,1.169290477,1,1.115897401,nan,1.115888783,nan,-19.15405428,,-19.35917307,-29.51103563,-10.62744294,,-10.72157061,-14.65424658,-23.7917355,#NAME?,-23.81321502,#NAME?,-12.1098836,#NAME?,-12.12322345,#NAME?
R EH S,3,-9.193110584,nan,-9.193393294,nan,-10.29394962,,-10.33863145,-14.75551782,-4.412631077,,-4.446528774,-7.327123292,-9.411566751,nan,-9.423769442,nan,-4.963062839,nan,-4.971293478,nan,1.214054964,1,1.213852669,1,1.145590545,nan,1.145575362,nan,-18.24296222,,-18.45685882,-29.51103563,-9.841514028,,-9.943125849,-14.65424658,-21.05901758,#NAME?,-21.08594789,#NAME?,-11.06653399,#NAME?,-11.08334364,#NAME?
R IH DH,3,-12.45345098,nan,-12.44885856,nan,-11.38591156,,-11.68791301,-14.75551782,-6.636440015,,-6.615295394,-7.327123292,-13.46840153,nan,-13.57037649,nan,-8.242811012,nan,-8.210562994,nan,1.163869058,1,1.163741909,1,1.119782008,nan,1.119772531,nan,-22.28390601,,-22.37785903,-29.51103563,-11.74239165,,-11.79434643,-14.65424658,-28.37619275,#NAME?,-28.31553906,#NAME?,-13.62018661,#NAME?,-13.60025642,#NAME?
R IH N,3,-8.273301352,nan,-8.273694587,nan,-9.583372397,,-9.627205224,-14.75551782,-4.053552957,,-4.085132153,-7.327123292,-8.418498979,nan,-8.428284516,nan,-4.059235316,nan,-4.065598441,nan,1.25243896,1,1.252180135,1,1.191701118,nan,1.191675738,nan,-17.0921754,,-17.31277872,-29.51103563,-9.159504592,,-9.264183184,-14.65424658,-19.14614057,#NAME?,-19.17505285,#NAME?,-9.436610916,#NAME?,-9.455291863,#NAME?
R IH S,3,-8.467290996,nan,-8.46766761,nan,-9.008710097,,-9.053618102,-14.75551782,-3.12753194,,-3.161786718,-7.327123292,-8.755299429,nan,-8.765465553,nan,-4.30707148,nan,-4.31326323,nan,1.242283962,1,1.242040235,1,1.178822369,nan,1.178799837,nan,-16.63493177,,-16.85457072,-29.51103563,-8.233483575,,-8.34083775,-14.65424658,-19.67693067,#NAME?,-19.7055609,#NAME?,-9.68444708,#NAME?,-9.702956652,#NAME?
R IH SH,3,-9.89476878,nan,-9.894846808,nan,-10.88730532,,-11.01982262,-14.75551782,-6.211556821,,-6.209830286,-7.327123292,-10.73239399,nan,-10.74887234,nan,-5.450419662,nan,-5.454944376,nan,1.169633737,1,1.169498017,1,1.133097421,nan,1.133085,nan,-20.73301155,,-20.89975712,-29.51103563,-11.31750846,,-11.38888132,-14.65424658,-23.08150301,#NAME?,-23.10461426,#NAME?,-10.82779526,#NAME?,-10.8446378,#NAME?
R IH TH,3,-11.23536504,nan,-11.23433554,nan,-10.76235768,,-10.9247036,-14.75551782,-6.291599528,,-6.286791327,-7.327123292,-11.81739311,nan,-11.85857121,nan,-7.47270279,nan,-7.461326347,nan,1.16799214,1,1.167858861,1,1.122441688,nan,1.122431623,nan,-20.81305426,,-20.97671816,-29.51103563,-11.39755116,,-11.46584236,-14.65424658,-25.50709839,#NAME?,-25.51217868,#NAME?,-12.85007839,#NAME?,-12.85101977,#NAME?
R IH V,3,-9.916616719,nan,-9.916686072,nan,-10.39313429,,-10.46037393,-14.75551782,-4.88468588,,-4.910547302,-7.327123292,-9.601403697,nan,-9.621181787,nan,-4.997098533,nan,-5.002514808,nan,1.18444629,1,1.184288548,1,1.132785519,nan,1.132773166,nan,-19.25585841,,-19.45387066,-29.51103563,-9.990637515,,-10.08959833,-14.65424658,-21.97236066,#NAME?,-21.99842992,#NAME?,-10.37447413,#NAME?,-10.39220823,#NAME?
R IH Z,3,-10.07842718,nan,-10.07842603,nan,-9.5267883,,-9.616258805,-14.75551782,-4.769172993,,-4.796136951,-7.327123292,-9.128713299,nan,-9.1516701,nan,-5.368117066,nan,-5.372834969,nan,1.180781328,1,1.180629036,1,1.130675922,nan,1.130664036,nan,-18.55774021,,-18.76694112,-29.51103563,-9.875124628,,-9.975187982,-14.65424658,-21.66148072,#NAME?,-21.68795567,#NAME?,-10.74549267,#NAME?,-10.76252839,#NAME?
R IH ZH,3,-12.47396452,nan,-12.46926743,nan,-13.13278271,,-13.40968823,-14.75551782,-7.67789389,,-7.559757003,-7.327123292,-13.31963366,nan,-13.42875743,nan,-8.060489455,nan,-8.034672327,nan,1.162341991,1,1.162217112,1,1.119759324,nan,1.119749853,nan,-24.71165424,,-24.50097564,-29.51103563,-12.78384552,,-12.73880803,-14.65424658,-28.24793842,#NAME?,-28.19094169,#NAME?,-13.43786506,#NAME?,-13.42436575,#NAME?
S AE N,3,-9.122479058,nan,-9.1227424,nan,-9.853916545,,-9.890425206,-14.75551782,-4.910521853,,-4.934583949,-7.327123292,-9.627970714,nan,-9.635993207,nan,-5.66720753,nan,-5.672321492,nan,1.261978502,1,1.261705726,1,1.158043973,nan,1.158026035,nan,-17.22675453,,-17.44300964,-29.51103563,-9.881297487,,-9.981341848,-14.65424658,-21.20479001,#NAME?,-21.22677627,#NAME?,-12.08247412,#NAME?,-12.09394302,#NAME?
S EH B,3,-10.12652728,nan,-10.12664877,nan,-12.07510892,,-12.08998977,-14.75551782,-7.193667227,,-7.168767459,-7.327123292,-14.03069415,nan,-14.00569486,nan,-8.121673911,nan,-8.094050637,nan,1.204636056,1,1.204448698,1,1.112659283,nan,1.112651381,nan,-20.60334265,,-20.7588112,-29.51103563,-12.03533641,,-12.08909728,-14.65424658,-26.61156167,#NAME?,-26.59488731,#NAME?,-14.31051467,#NAME?,-14.2910817,#NAME?
S EH CH,3,-11.48530057,nan,-11.48465418,nan,-11.32283975,,-11.42020267,-14.75551782,-7.599132335,,-7.548257081,-7.327123292,-12.24500721,nan,-12.25600286,nan,-8.012474619,nan,-7.988690121,nan,1.187723786,1,1.187561571,1,1.09680328,nan,1.096798884,nan,-20.94818313,,-21.0788774,-29.51103563,-12.44080152,,-12.4685869,-14.65424658,-26.18464802,#NAME?,-26.17400992,#NAME?,-14.20131538,#NAME?,-14.18572118,#NAME?
S EH DH,3,-13.07629534,nan,-13.07161924,nan,-11.47384843,,-11.76567909,-14.75551782,-7.311450262,,-7.279993094,-7.327123292,-13.07127379,nan,-13.17254183,nan,-8.244276233,nan,-8.211833673,nan,1.182340874,1,1.182186662,1,1.092436641,nan,1.092433211,nan,-22.10742004,,-22.19690777,-29.51103563,-12.15311945,,-12.20032291,-14.65424658,-28.60190937,#NAME?,-28.53721963,#NAME?,-14.43311699,#NAME?,-14.40886473,#NAME?
S EH G,3,-10.72081924,nan,-10.72072509,nan,-10.80764376,,-10.87868983,-14.75551782,-6.370466918,,-6.37553682,-7.327123292,-12.24945912,nan,-12.25877198,nan,-6.997743814,nan,-6.995438348,nan,1.196886189,1,1.196710354,1,1.103098045,nan,1.103092257,nan,-19.70009963,,-19.88710894,-29.51103563,-11.21213611,,-11.29586664,-14.65424658,-25.42461861,#NAME?,-25.43375466,#NAME?,-13.18658458,#NAME?,-13.19246941,#NAME?
S EH M,3,-9.710225537,nan,-9.710437496,nan,-10.03877101,,-10.08334459,-14.75551782,-5.263757419,,-5.284892701,-7.327123292,-10.10883489,nan,-10.12158657,nan,-5.649670666,nan,-5.656546226,nan,1.227274828,1,1.227053814,1,1.123677958,nan,1.123667619,nan,-17.92951333,,-18.14178393,-29.51103563,-10.10542661,,-10.20522252,-14.65424658,-22.27340067,#NAME?,-22.29806528,#NAME?,-11.83851143,#NAME?,-11.85357729,#NAME?
S EH NG,3,-11.03171853,nan,-11.03144891,nan,-12.26790178,,-12.29599793,-14.75551782,-7.781453892,,-7.715311166,-7.327123292,-11.63309784,nan,-11.60755531,nan,-8.607181727,nan,-8.556674159,nan,1.19100698,1,1.190839885,1,1.099950663,nan,1.099945571,nan,-21.56582276,,-21.67081468,-29.51103563,-12.62312308,,-12.63564098,-14.65424658,-25.11915661,#NAME?,-25.08657093,#NAME?,-14.79602249,#NAME?,-14.75370522,#NAME?
S EH P,3,-9.770543511,nan,-9.770744576,nan,-10.4335827,,-10.48046965,-14.75551782,-5.807372866,,-5.822746997,-7.327123292,-11.21261893,nan,-11.22250981,nan,-6.154023775,nan,-6.158778886,nan,1.216127237,1,1.215922796,1,1.121783857,nan,1.121773937,nan,-18.58843963,,-18.79375153,-29.51103563,-10.64904205,,-10.74307682,-14.65424658,-23.43750268,#NAME?,-23.45887377,#NAME?,-12.34286454,#NAME?,-12.35580995,#NAME?
S EH R,3,-9.193110584,nan,-9.193393294,nan,-9.394084778,,-9.432904476,-14.75551782,-4.240494568,,-4.266767663,-7.327123292,-10.16202166,nan,-10.17306035,nan,-4.596445248,nan,-4.60543044,nan,1.257014463,1,1.256749236,1,1.145590545,nan,1.145575362,nan,-16.80287213,,-17.02124388,-29.51103563,-9.082163756,,-9.187097481,-14.65424658,-21.80947249,#NAME?,-21.83523879,#NAME?,-10.78528601,#NAME?,-10.8024615,#NAME?
S EH S,3,-9.090135356,nan,-9.09042829,nan,-10.31554873,,-10.349202,-14.75551782,-5.021443952,,-5.044302236,-7.327123292,-9.160309153,nan,-9.171996049,nan,-5.110674165,nan,-5.118899071,nan,1.260755778,1,1.260484989,1,1.151477001,nan,1.151460516,nan,-17.67734757,,-17.89143729,-29.51103563,-9.86311314,,-9.964632054,-14.65424658,-20.70478475,#NAME?,-20.73160664,#NAME?,-11.29951493,#NAME?,-11.31593013,#NAME?
S EH SH,3,-10.51761314,nan,-10.51760749,nan,-12.5632762,,-12.54450768,-14.75551782,-8.474601072,,-8.321446969,-7.327123292,-11.66803196,nan,-11.67953994,nan,-6.784650599,nan,-6.784717317,nan,1.188105553,1,1.187942771,1,1.105752054,nan,1.10574568,nan,-22.14455959,,-22.16572485,-29.51103563,-13.31627026,,-13.24177679,-14.65424658,-24.63998534,#NAME?,-24.6547971,#NAME?,-12.97349136,#NAME?,-12.98174838,#NAME?
S EH V,3,-10.53946108,nan,-10.53944675,nan,-10.70134892,,-10.75861333,-14.75551782,-5.779973891,,-5.795718325,-7.327123292,-10.65822897,nan,-10.6749752,nan,-6.452516764,nan,-6.45541357,nan,1.202918105,1,1.202733302,1,1.105440152,nan,1.105433846,nan,-19.29965021,,-19.49339273,-29.51103563,-10.62164308,,-10.71604814,-14.65424658,-23.65203029,#NAME?,-23.67173857,#NAME?,-12.64135753,#NAME?,-12.65244463,#NAME?
S EH ZH,3,-13.09680888,nan,-13.09202811,nan,-13.00594428,,-13.2967645,-14.75551782,-8.138128836,,-8.033764897,-7.327123292,-13.34994993,nan,-13.44042828,nan,-8.489398691,nan,-8.445448524,nan,1.180813806,1,1.180661865,1,1.092413957,nan,1.092410532,nan,-24.32039298,,-24.12933457,-29.51103563,-12.97979802,,-12.95409471,-14.65424658,-28.90109905,#NAME?,-28.82212778,#NAME?,-14.67823945,#NAME?,-14.64247958,#NAME?
S IH JH,3,-10.26344884,nan,-10.26330042,nan,-10.98511065,,-11.09117678,-14.75551782,-6.59769115,,-6.597772683,-7.327123292,-10.2076598,nan,-10.23273603,nan,-6.17841793,nan,-6.181404315,nan,1.218128855,1,1.217921973,1,1.133556769,nan,1.133544246,nan,-20.0591287,,-20.23573015,-29.51103563,-11.11642902,,-11.20055646,-14.65424658,-22.92544888,#NAME?,-22.94828334,#NAME?,-11.64116314,#NAME?,-11.65607864,#NAME?
S IH M,3,-8.984405949,nan,-8.984711812,nan,-9.992386218,,-10.03375648,-14.75551782,-5.217513016,,-5.235575874,-7.327123292,-9.871932507,nan,-9.88295627,nan,-5.413044245,nan,-5.418189572,nan,1.255503826,1,1.25524138,1,1.156909781,nan,1.156892094,nan,-17.56033761,,-17.77492105,-29.51103563,-9.736250888,,-9.838359649,-14.65424658,-21.3106787,#NAME?,-21.33735188,#NAME?,-10.87578946,#NAME?,-10.89286389,#NAME?
S IH Z,3,-9.975451955,nan,-9.975461024,nan,-9.781184395,,-9.858831043,-14.75551782,-5.610782851,,-5.6259121,-7.327123292,-8.955963804,nan,-8.978464644,nan,-5.594236496,nan,-5.599008499,nan,1.227482142,1,1.227261355,1,1.136562378,nan,1.13654919,nan,-18.22492254,,-18.43352127,-29.51103563,-10.12952072,,-10.22869588,-14.65424658,-21.385756,#NAME?,-21.41218235,#NAME?,-11.05698171,#NAME?,-11.07368282,#NAME?
SH AE N,3,-10.54995684,nan,-10.5499216,nan,-11.18710108,,-11.31106796,-14.75551782,-3.972153405,,-4.084491655,-7.327123292,-11.80203159,nan,-11.79752367,nan,-5.713118244,nan,-5.709351661,nan,1.16771065,1,1.167576133,1,1.112319026,nan,1.112311199,nan,-20.82802584,,-21.0163331,-29.51103563,-11.21448202,,-11.28967467,-14.65424658,-24.80632867,#NAME?,-24.8039533,#NAME?,-13.415926,#NAME?,-13.40612941,#NAME?
SH EH N,3,-10.3236235,nan,-10.32363446,nan,-11.44861762,,-11.56458285,-14.75551782,-4.234318571,,-4.338706344,-7.327123292,-11.76216372,nan,-11.75830988,nan,-5.673342865,nan,-5.670228856,nan,1.176642923,1,1.176495296,1,1.118630804,nan,1.118621581,nan,-20.96108456,,-21.14411971,-29.51103563,-11.34754074,,-11.41746128,-14.65424658,-24.54012746,#NAME?,-24.54024002,#NAME?,-13.14972479,#NAME?,-13.14241613,#NAME?
SH IH S,3,-9.791793552,nan,-9.791881803,nan,-11.18161737,,-11.30430361,-14.75551782,-3.616099989,,-3.728940082,-7.327123292,-11.06309476,nan,-11.07635989,nan,-4.885585572,nan,-4.89903626,nan,1.194716924,1,1.194542962,1,1.138983877,nan,1.138970155,nan,-20.48871205,,-20.68194485,-29.51103563,-10.40639084,,-10.49014897,-14.65424658,-23.30922855,#NAME?,-23.32953395,#NAME?,-11.63587195,#NAME?,-11.6488668,#NAME?
T AE L,3,-9.192983986,nan,-9.193241548,nan,-10.28848489,,-10.34815795,-14.75551782,-4.797480748,,-4.838301184,-7.327123292,-10.86166951,nan,-10.87188255,nan,-5.870962655,nan,-5.878518859,nan,1.173406617,1,1.173264235,1,1.153149935,nan,1.153133079,nan,-18.91247487,,-19.12412905,-29.51103563,-10.70883687,,-10.8043568,-14.65424658,-22.50899373,#NAME?,-22.53294009,#NAME?,-12.25452529,#NAME?,-12.26858465,#NAME?
T EH M,3,-9.577554714,nan,-9.577778385,nan,-10.53085059,,-10.59392005,-14.75551782,-4.815256511,,-4.854914399,-7.327123292,-11.33813983,nan,-11.34954533,nan,-5.837428255,nan,-5.843835168,nan,1.163174195,1,1.163047195,1,1.132212752,nan,1.132200526,nan,-19.3621734,,-19.57112492,-29.51103563,-10.59750619,,-10.69454194,-14.65424658,-23.37003479,#NAME?,-23.39382007,#NAME?,-11.99456506,#NAME?,-12.00931049,#NAME?
T EH T,3,-8.824793711,nan,-8.825110068,nan,-10.28284754,,-10.34213593,-14.75551782,-4.856414584,,-4.895736393,-7.327123292,-10.55093723,nan,-10.55983777,nan,-5.768435383,nan,-5.775058069,nan,1.179246578,1,1.179095684,1,1.16854659,nan,1.16852633,nan,-18.82549514,,-19.0384227,-29.51103563,-10.63866426,,-10.73536393,-14.65424658,-21.83007119,#NAME?,-21.85504042,#NAME?,-11.92557219,#NAME?,-11.9405334,#NAME?
T IH S,3,-8.231644946,nan,-8.232043495,nan,-10.55842877,,-10.60234062,-14.75551782,-4.323883892,,-4.357158393,-7.327123292,-9.048869309,nan,-9.058122598,nan,-3.957962931,nan,-3.964629441,nan,1.224884143,1,1.224665936,1,1.193243619,nan,1.193217898,nan,-18.53801717,,-18.7460667,-29.51103563,-9.783202253,,-9.879239889,-14.65424658,-19.7348545,#NAME?,-19.76344612,#NAME?,-9.389004184,#NAME?,-9.407748031,#NAME?
TH AE N,3,-11.8905531,nan,-11.88941033,nan,-12.47495537,,-12.60103846,-14.75551782,-4.696913641,,-4.811710267,-7.327123292,-12.25177102,nan,-12.22104635,nan,-5.426962604,nan,-5.41509287,nan,1.163002907,1,1.162875294,1,1.101663292,nan,1.101657822,nan,-22.68244039,,-22.78424136,-29.51103563,-12.50233631,,-12.49364747,-14.65424658,-26.59666436,#NAME?,-26.52534154,#NAME?,-14.63970143,#NAME?,-14.5635822,#NAME?
TH IH S,3,-11.13238981,nan,-11.13137054,nan,-11.65704106,,-11.84983363,-14.75551782,-3.528429634,,-3.71171822,-7.327123292,-11.42046087,nan,-11.46046016,nan,-4.507056612,nan,-4.565355055,nan,1.190009181,1,1.189842123,1,1.128328144,nan,1.128316778,nan,-21.53069601,,-21.70541262,-29.51103563,-10.88181454,,-10.9496813,-14.65424658,-25.00719092,#NAME?,-25.01149978,#NAME?,-12.76727406,#NAME?,-12.76689718,#NAME?
V AE S,3,-10.76579443,nan,-10.76573388,nan,-11.74816254,,-11.8419174,-14.75551782,-4.575679676,,-4.658779003,-7.327123292,-11.32931367,nan,-11.34463998,nan,-5.439515242,nan,-5.45581826,nan,1.162753002,1,1.162625959,1,1.099128374,nan,1.099123464,nan,-21.11614864,,-21.31229015,-29.51103563,-11.42418476,,-11.50973655,-14.65424658,-24.54944834,#NAME?,-24.56590283,#NAME?,-13.26644907,#NAME?,-13.27447795,#NAME?
V EH L,3,-10.54864718,nan,-10.54863199,nan,-10.48673614,,-10.59355202,-14.75551782,-4.059231667,,-4.147409998,-7.327123292,-10.88615937,nan,-10.90341479,nan,-5.097021394,nan,-5.115178142,nan,1.157369019,1,1.15725015,1,1.104890068,nan,1.104883884,nan,-19.91941727,,-20.12743851,-29.51103563,-10.77863031,,-10.87193947,-14.65424658,-23.8891468,#NAME?,-23.9093296,#NAME?,-12.69752939,#NAME?,-12.70924737,#NAME?
V EH R,3,-10.64243631,nan,-10.64241176,nan,-10.5651269,,-10.66765684,-14.75551782,-3.533807243,,-3.623981202,-7.327123292,-11.7619764,nan,-11.77899006,nan,-4.356329027,nan,-4.375726394,nan,1.16794396,1,1.167809369,1,1.099553695,nan,1.099548691,nan,-19.8516437,,-20.05840544,-29.51103563,-10.25320588,,-10.34851067,-14.65424658,-24.85875295,#NAME?,-24.87832129,#NAME?,-11.95683702,#NAME?,-11.96979562,#NAME?
V EH S,3,-10.53946108,nan,-10.53944675,nan,-11.48659086,,-11.58395436,-14.75551782,-4.314756627,,-4.401515775,-7.327123292,-10.76026389,nan,-10.77792576,nan,-4.870557944,nan,-4.889195024,nan,1.171685275,1,1.171545122,1,1.105440152,nan,1.105433846,nan,-20.72611915,,-20.92859885,-29.51103563,-11.03415527,,-11.12604524,-14.65424658,-23.75406521,#NAME?,-23.77468913,#NAME?,-12.47106594,#NAME?,-12.48326425,#NAME?
V IH L,3,-9.822827597,nan,-9.822906303,nan,-10.40387787,,-10.50816596,-14.75551782,-3.97651378,,-4.062295223,-7.327123292,-10.79824022,nan,-10.81467043,nan,-5.009378207,nan,-5.026707418,nan,1.185598017,1,1.185437716,1,1.138121892,nan,1.138108359,nan,-19.51376806,,-19.72477769,-29.51103563,-10.3729811,,-10.46927865,-14.65424658,-23.07540806,#NAME?,-23.09850214,#NAME?,-11.88379065,#NAME?,-11.89841991,#NAME?
V IH N,3,-9.619651847,nan,-9.619748044,nan,-10.96047833,,-11.05766552,-14.75551782,-4.140143204,,-4.225256532,-7.327123292,-9.824124668,nan,-9.840952112,nan,-4.023658969,nan,-4.042011263,nan,1.21006927,1,1.209872588,1,1.151550724,nan,1.151534222,nan,-19.75979702,,-19.96965612,-29.51103563,-10.53661053,,-10.63223996,-14.65424658,-21.89811676,#NAME?,-21.92230537,#NAME?,-10.89807141,#NAME?,-10.91372375,#NAME?
V IH S,3,-9.813641491,nan,-9.813721067,nan,-10.38581603,,-10.48407839,-14.75551782,-3.214122188,,-3.301911097,-7.327123292,-10.16092512,nan,-10.17813315,nan,-4.271495133,nan,-4.289676052,nan,1.199914273,1,1.199732688,1,1.138671975,nan,1.138658321,nan,-19.30255339,,-19.51144812,-29.51103563,-9.61058951,,-9.708894523,-14.65424658,-22.42890685,#NAME?,-22.45281342,#NAME?,-11.14590758,#NAME?,-11.16138854,#NAME?
W AE N,3,-10.99734966,nan,-10.99709283,nan,-11.91533958,,-11.94101312,-14.75551782,-5.432693023,,-5.446016948,-7.327123292,-10.81995987,nan,-10.81982726,nan,-5.555466703,nan,-5.552738387,nan,1.179385854,1,1.179234213,1,1.107113085,nan,1.107106409,nan,-20.82742943,,-20.98243155,-29.51103563,-11.94272052,,-11.98282185,-14.65424658,-24.27164977,#NAME?,-24.2649568,#NAME?,-13.61008202,#NAME?,-13.59418164,#NAME?
W IH S,3,-10.23918637,nan,-10.23905304,nan,-9.932722875,,-10.01115329,-14.75551782,-3.099506615,,-3.167369904,-7.327123292,-9.209980364,nan,-9.236882156,nan,-3.856891357,nan,-3.880641659,nan,1.206392127,1,1.206201041,1,1.133777937,nan,1.133765365,nan,-18.51098265,,-18.72494782,-29.51103563,-9.157496353,,-9.260200681,-14.65424658,-21.90350698,#NAME?,-21.92875613,#NAME?,-10.95898529,#NAME?,-10.97513771,#NAME?
Y AE N,3,-11.31013418,nan,-11.30965181,nan,-12.60848676,,-12.67406045,-14.75551782,-5.091870772,,-5.145716411,-7.327123292,-12.67612471,nan,-12.6114802,nan,-6.377662115,nan,-6.313437689,nan,1.164848343,1,1.164718023,1,1.104634875,nan,1.104628748,nan,-22.55454604,,-22.64199385,-29.51103563,-12.6358677,,-12.61143051,-14.65424658,-26.44059914,#NAME?,-26.36062117,#NAME?,-14.74506195,#NAME?,-14.65889238,#NAME?
Y IH S,3,-10.55197089,nan,-10.55161201,nan,-12.71309374,,-12.78590184,-14.75551782,-4.845908046,,-4.908770581,-7.327123292,-13.57203551,nan,-13.49018489,nan,-7.184977071,nan,-7.102990749,nan,1.191854616,1,1.191684852,1,1.131299727,nan,1.131287704,nan,-22.32532294,,-22.42621134,-29.51103563,-11.93786722,,-11.93051055,-14.65424658,-26.57834665,#NAME?,-26.48607029,#NAME?,-14.59985552,#NAME?,-14.50149823,#NAME?
Z AE N,3,-10.73361524,nan,-10.73350082,nan,-13.45578462,,-13.71406213,-14.75551782,-4.620927734,,-4.873782696,-7.327123292,-13.36691175,nan,-13.34777879,nan,-5.209996929,nan,-5.217182966,nan,1.158973079,1,1.158851376,1,1.109897526,nan,1.109890234,nan,-24.7200848,,-24.64067404,-29.51103563,-13.48316556,,-13.30457769,-14.65424658,-26.55486723,#NAME?,-26.53475207,#NAME?,-13.54108914,#NAME?,-13.52749026,#NAME?
Z IH S,3,-9.975451955,nan,-9.975461024,nan,-12.30762863,,-12.76503155,-14.75551782,-3.12220204,,-3.575964905,-7.327123292,-12.52235637,nan,-12.52467224,nan,-4.27684571,nan,-4.304924793,nan,1.185979352,1,1.185818205,1,1.136562378,nan,1.13654919,nan,-23.23809873,,-23.36401956,-29.51103563,-11.53240211,,-11.56278577,-14.65424658,-24.95214856,#NAME?,-24.95838995,#NAME?,-11.65541655,#NAME?,-11.66828489,#NAME?
B AO CH,3,-13.47081855,nan,-13.46971264,nan,-14.6447107,,-14.14836867,-14.75551782,-10.21264205,,-9.568014816,-7.327123292,-15.09165332,nan,-14.74264918,nan,-10.35083377,nan,-9.967029642,nan,1.095235282,1,1.095208758,1,1.03888577,nan,1.038894181,nan,-25.73490566,,-25.23498601,-29.51103563,-16.53078878,,-15.92832078,-14.65424658,-31.01681211,#NAME?,-30.62798593,#NAME?,-18.3367442,#NAME?,-17.94332247,#NAME?
B AO TH,3,-13.84372737,nan,-13.84215468,nan,-13.70607576,,-13.63425655,-14.75551782,-9.114029764,,-8.874867636,-7.327123292,-12.40732282,nan,-12.43659403,nan,-7.952938493,nan,-7.930147715,nan,1.093975451,1,1.093950801,1,1.037178811,nan,1.037187599,nan,-24.95720109,,-24.85549639,-29.51103563,-15.43217649,,-15.2351736,-14.65424658,-28.70539043,#NAME?,-28.67704643,#NAME?,-15.93884892,#NAME?,-15.90644054,#NAME?
B AW JH,3,-14.15567709,nan,-14.15391506,nan,-14.8754641,,-14.40721088,-14.75551782,-9.734519299,,-9.164819857,-7.327123292,-15.42072647,nan,-14.79785976,nan,-10.8436546,nan,-10.2015819,nan,1.073215069,1,1.073220823,1,1.034048441,nan,1.034057922,nan,-26.95434269,,-26.41897435,-29.51103563,-17.31490774,,-16.68742593,-14.65424658,-32.0307438,#NAME?,-31.34288886,#NAME?,-20.04972279,#NAME?,-19.35430944,#NAME?
CH AO B,3,-13.47081855,nan,-13.46971264,nan,-16.29888186,,-16.20016053,-14.75551782,-8.779568445,,-8.641797355,-7.327123292,-19.05185677,nan,-18.79990899,nan,-10.54618199,nan,-10.30383179,nan,1.067367498,1,1.067381508,1,1.03888577,nan,1.038894181,nan,-28.22147766,,-28.07411562,-29.51103563,-17.02722567,,-16.78273611,-14.65424658,-34.97701556,#NAME?,-34.68524575,#NAME?,-20.04972279,#NAME?,-19.75977455,#NAME?
CH AO CH,3,-14.82959184,nan,-14.82771805,nan,-17.08705773,,-16.53717817,-14.75551782,-10.72547859,,-10.02809172,-7.327123292,-19.08011721,nan,-18.54187187,nan,-12.25093009,nan,-11.69012615,nan,1.050455228,1,1.050494381,1,1.023029767,nan,1.023041684,nan,-30.10676319,,-29.40098656,-29.51103563,-18.97313582,,-18.16903047,-14.65424658,-36.36404929,#NAME?,-35.75602324,#NAME?,-21.75447088,#NAME?,-21.14606891,#NAME?
CH AO D,3,-12.98676316,nan,-12.98575921,nan,-15.24481748,,-15.19323136,-14.75551782,-8.240571944,,-8.156289539,-7.327123292,-15.65100894,nan,-15.46482565,nan,-9.255197813,nan,-9.075166377,nan,1.079584036,1,1.079579884,1,1.052172828,nan,1.052178301,nan,-26.77455868,,-26.69293636,-29.51103563,-16.48822917,,-16.2972283,-14.65424658,-31.09211235,#NAME?,-30.87015116,#NAME?,-18.75873861,#NAME?,-18.53110913,#NAME?
CH AO G,3,-14.06511051,nan,-14.06378897,nan,-14.75600472,,-14.77049032,-14.75551782,-7.680956156,,-7.630196443,-7.327123292,-16.86062147,nan,-16.68526133,nan,-9.012251635,nan,-8.837494725,nan,1.059617631,1,1.059643163,1,1.029324532,nan,1.029335057,nan,-27.04282267,,-26.98404309,-29.51103563,-15.92861338,,-15.7711352,-14.65424658,-33.38007223,#NAME?,-33.15638832,#NAME?,-18.51579243,#NAME?,-18.29343748,#NAME?
CH AO NG,3,-14.3760098,nan,-14.37451279,nan,-14.48250237,,-14.53786914,-14.75551782,-7.358182764,,-7.320041515,-7.327123292,-14.57766386,nan,-14.41671938,nan,-8.955093221,nan,-8.781405258,nan,1.053738422,1,1.053772695,1,1.026177149,nan,1.02618837,nan,-27.17478543,,-27.11781955,-29.51103563,-15.60583999,,-15.46098027,-14.65424658,-31.4080139,#NAME?,-31.19187931,#NAME?,-18.45863402,#NAME?,-18.23734801,#NAME?
CH AO SH,3,-13.86190441,nan,-13.86067136,nan,-15.50611529,,-15.50199893,-14.75551782,-8.779568445,,-8.641797355,-7.327123292,-18.12152807,nan,-17.87009876,nan,-10.64149217,nan,-10.39084317,nan,1.050836994,1,1.050875581,1,1.031978541,nan,1.031988479,nan,-28.48176076,,-28.32834976,-29.51103563,-17.02722567,,-16.78273611,-14.65424658,-34.43777272,#NAME?,-34.14150024,#NAME?,-20.14503297,#NAME?,-19.84678593,#NAME?
CH AO TH,3,-15.20250067,nan,-15.20016009,nan,-16.1484228,,-16.02306605,-14.75551782,-9.626866305,,-9.334944535,-7.327123292,-16.39578671,nan,-16.23581671,nan,-9.853034814,nan,-9.653244227,nan,1.049195397,1,1.049236424,1,1.021322808,nan,1.021335102,nan,-29.32905862,,-29.02149694,-29.51103563,-17.87452353,,-17.47588329,-14.65424658,-34.05262761,#NAME?,-33.80508374,#NAME?,-19.35657561,#NAME?,-19.10918698,#NAME?
CH AO Z,3,-14.04556281,nan,-14.04425058,nan,-14.89483492,,-14.88351979,-14.75551782,-8.086421264,,-8.013188695,-7.327123292,-15.85821263,nan,-15.66185875,nan,-9.89955483,nan,-9.69769599,nan,1.061984585,1,1.062006599,1,1.029557041,nan,1.029567515,nan,-27.05572607,,-26.98061843,-29.51103563,-16.33407849,,-16.15412745,-14.65424658,-32.35811568,#NAME?,-32.11380386,#NAME?,-19.40309562,#NAME?,-19.15363874,#NAME?
CH UW DH,3,-16.48666212,nan,-16.48072652,nan,-16.33692993,,-16.32213695,-14.75551782,-9.491165657,,-9.156339468,-7.327123292,-15.26145975,nan,-15.28820099,nan,-7.761662319,nan,-7.66851104,nan,1.034255597,1,1.034318629,1,1.017891877,nan,1.01790493,nan,-30.74275196,,-30.31727729,-29.51103563,-18.1622056,,-17.69902684,-14.65424658,-34.20246211,#NAME?,-34.01383855,#NAME?,-17.40742397,#NAME?,-17.26381806,#NAME?
CH UW SH,3,-13.92797992,nan,-13.92671477,nan,-15.97552481,,-15.83636812,-14.75551782,-9.203483585,,-8.933195917,-7.327123292,-13.08425133,nan,-13.12517434,nan,-5.528070097,nan,-5.571369921,nan,1.040020276,1,1.040074738,1,1.031207291,nan,1.031217399,nan,-29.32905862,,-29.02149694,-29.51103563,-17.87452353,,-17.47588329,-14.65424658,-29.46657149,#NAME?,-29.46139125,#NAME?,-15.17383174,#NAME?,-15.16667694,#NAME?
CH UW TH,3,-15.26857618,nan,-15.26620351,nan,-14.32361547,,-14.38335421,-14.75551782,-7.756564602,,-7.652262071,-7.327123292,-12.91422248,nan,-12.97570564,nan,-6.29532525,nan,-6.318584323,nan,1.038378678,1,1.038435581,1,1.020551558,nan,1.020564022,nan,-27.88213964,,-27.74056309,-29.51103563,-16.42760454,,-16.19494945,-14.65424658,-30.6371389,#NAME?,-30.6097881,#NAME?,-15.9410869,#NAME?,-15.91389135,#NAME?
CH UW V,3,-13.94982786,nan,-13.94855404,nan,-15.48646888,,-15.4130516,-14.75551782,-7.881727745,,-7.770045107,-7.327123292,-12.69426424,nan,-12.73176451,nan,-5.815752169,nan,-5.853221073,nan,1.054832828,1,1.054865269,1,1.030895388,nan,1.030905565,nan,-27.85702058,,-27.71174265,-29.51103563,-16.55276769,,-16.31273248,-14.65424658,-29.09843234,#NAME?,-29.08948763,#NAME?,-15.46151382,#NAME?,-15.4485281,#NAME?
CH UW ZH,3,-16.50717566,nan,-16.50113539,nan,-16.34920002,,-16.53983477,-14.75551782,-8.798018476,,-8.59672368,-7.327123292,-13.56041237,nan,-13.71303469,nan,-6.027061263,nan,-6.059073128,nan,1.032728529,1,1.032793832,1,1.017869194,nan,1.017882252,nan,-31.43589914,,-30.9363165,-29.51103563,-17.46905842,,-17.13941105,-14.65424658,-32.52192827,#NAME?,-32.45569393,#NAME?,-15.67282291,#NAME?,-15.65438015,#NAME?
D AO TH,3,-13.35967199,nan,-13.35820125,nan,-13.82114509,,-13.74243599,-14.75551782,-9.400457346,,-9.154399704,-7.327123292,-13.23358156,nan,-13.25347941,nan,-8.669665181,nan,-8.639431622,nan,1.103767557,1,1.103728545,1,1.050465869,nan,1.05047172,nan,-24.90091217,,-24.79672926,-29.51103563,-15.54724582,,-15.34765159,-14.65424658,-29.04759379,#NAME?,-29.01392058,#NAME?,-16.45241053,#NAME?,-16.4145598,#NAME?
F AW JH,3,-14.33476179,nan,-14.33294766,nan,-15.52209126,,-15.01603187,-14.75551782,-10.28698588,,-9.679484257,-7.327123292,-16.07546955,nan,-15.43054544,nan,-11.37855236,nan,-10.71489947,nan,1.068507326,1,1.068519985,1,1.030549459,nan,1.030559713,nan,-27.69513045,,-27.11919982,-29.51103563,-17.9615349,,-17.29356173,-14.65424658,-32.86457158,#NAME?,-32.15259856,#NAME?,-20.78938999,#NAME?,-20.06992948,#NAME?
F UW DH,3,-15.30697353,nan,-15.30175371,nan,-15.13295713,,-15.16512142,-14.75551782,-10.12254276,,-9.833899943,-7.327123292,-16.67557806,nan,-16.61412396,nan,-11.14430287,nan,-10.95119208,nan,1.074327908,1,1.074332167,1,1.030248898,nan,1.030259219,nan,-27.70342925,,-27.47447518,-29.51103563,-16.95823279,,-16.68742593,-14.65424658,-34.43689183,#NAME?,-34.18797092,#NAME?,-19.4772036,#NAME?,-19.26915163,#NAME?
F UW SH,3,-12.74829133,nan,-12.74774196,nan,-14.77155201,,-14.67935259,-14.75551782,-9.834860685,,-9.610756391,-7.327123292,-14.49836965,nan,-14.45109731,nan,-8.910710653,nan,-8.854050961,nan,1.080092587,1,1.080088276,1,1.043564312,nan,1.043571688,nan,-26.28973591,,-26.17869483,-29.51103563,-16.67055072,,-16.46428238,-14.65424658,-29.70100122,#NAME?,-29.63552362,#NAME?,-17.24361137,#NAME?,-17.17201051,#NAME?
F UW TH,3,-14.08888759,nan,-14.0872307,nan,-13.11964267,,-13.22633868,-14.75551782,-8.387941703,,-8.329822546,-7.327123292,-14.3283408,nan,-14.3016286,nan,-9.677965806,nan,-9.601265362,nan,1.078450989,1,1.078449119,1,1.032908578,nan,1.032918311,nan,-24.84281693,,-24.89776098,-29.51103563,-15.22363174,,-15.18334853,-14.65424658,-30.87156863,#NAME?,-30.78392047,#NAME?,-18.01086653,#NAME?,-17.91922491,#NAME?
F UW V,3,-12.77013927,nan,-12.76958123,nan,-14.28249607,,-14.25603607,-14.75551782,-8.513104846,,-8.447605581,-7.327123292,-14.10838256,nan,-14.05768747,nan,-9.198392725,nan,-9.135902113,nan,1.094905139,1,1.094878807,1,1.043252409,nan,1.043259854,nan,-24.81769787,,-24.86894054,-29.51103563,-15.34879488,,-15.30113157,-14.65424658,-29.33286207,#NAME?,-29.26362,#NAME?,-17.53129345,#NAME?,-17.45386167,#NAME?
F UW ZH,3,-15.32748707,nan,-15.32216258,nan,-15.14522722,,-15.38281924,-14.75551782,-9.429395577,,-9.274284155,-7.327123292,-14.97453069,nan,-15.03895765,nan,-9.409701819,nan,-9.341754167,nan,1.07280084,1,1.07280737,1,1.030226215,nan,1.03023654,nan,-28.39657643,,-28.09351439,-29.51103563,-16.26508561,,-16.12781014,-14.65424658,-32.756358,#NAME?,-32.6298263,#NAME?,-17.74260254,#NAME?,-17.65971372,#NAME?
G AO B,3,-12.70633722,nan,-12.70578355,nan,-14.68944395,,-14.64378897,-14.75551782,-8.407212495,,-8.321786395,-7.327123292,-16.38203156,nan,-16.30787394,nan,-9.240380082,nan,-9.165211537,nan,1.085972499,1,1.085959223,1,1.045180535,nan,1.045187554,nan,-25.37495779,,-25.40545166,-29.51103563,-15.41778775,,-15.34765159,-14.65424658,-31.54270901,#NAME?,-31.45018631,#NAME?,-17.85249821,#NAME?,-17.75829455,#NAME?
G AO CH,3,-14.06511051,nan,-14.06378897,nan,-15.47761982,,-14.98080661,-14.75551782,-10.35312264,,-9.708080756,-7.327123292,-16.41029199,nan,-16.04983681,nan,-10.94512817,nan,-10.5515059,nan,1.069060229,1,1.069072096,1,1.029324532,nan,1.029335057,nan,-27.26024332,,-26.7323226,-29.51103563,-17.3636979,,-16.73394595,-14.65424658,-32.92974275,#NAME?,-32.5209638,#NAME?,-19.5572463,#NAME?,-19.14458891,#NAME?
G AO TH,3,-14.43801934,nan,-14.43623101,nan,-14.53898488,,-14.46669449,-14.75551782,-9.254510356,,-9.014933576,-7.327123292,-13.72596149,nan,-13.74378166,nan,-8.547232902,nan,-8.514623971,nan,1.067800399,1,1.067814138,1,1.027617573,nan,1.027628476,nan,-26.48253875,,-26.35283298,-29.51103563,-16.26508561,,-16.04079877,-14.65424658,-30.61832107,#NAME?,-30.57002431,#NAME?,-17.15935103,#NAME?,-17.10770698,#NAME?
G AW CH,3,-15.2460012,nan,-15.24361947,nan,-14.26040179,,-14.19528611,-14.75551782,-9.090880932,,-8.882252885,-7.327123292,-15.31641268,nan,-15.18848121,nan,-9.811981793,nan,-9.65378458,nan,1.044863945,1,1.044911325,1,1.020965538,nan,1.020977911,nan,-27.26024332,,-27.06879484,-29.51103563,-17.3636979,,-17.07041818,-14.65424658,-33.01675412,#NAME?,-32.79967721,#NAME?,-19.64425768,#NAME?,-19.42330231,#NAME?
G AW D,3,-13.40317252,nan,-13.40166062,nan,-13.72441319,,-13.69352205,-14.75551782,-7.912225936,,-7.852633468,-7.327123292,-13.87973459,nan,-13.77731422,nan,-8.808679685,nan,-8.704704026,nan,1.073992753,1,1.073996828,1,1.050108599,nan,1.050114528,nan,-25.23429046,,-25.2029274,-29.51103563,-16.18504291,,-16.04079877,-14.65424658,-29.73724735,#NAME?,-29.57968436,#NAME?,-18.64095557,#NAME?,-18.47422176,#NAME?
G AW R,3,-12.95381121,nan,-12.95235858,nan,-15.1306688,,-15.0194737,-14.75551782,-8.531265144,,-8.412249256,-7.327123292,-16.33930158,nan,-16.20111631,nan,-9.501826865,nan,-9.366102508,nan,1.114154622,1,1.114098989,1,1.069752803,nan,1.069754388,nan,-25.91395429,,-25.82264711,-29.51103563,-16.80408211,,-16.60041455,-14.65424658,-31.74745304,#NAME?,-31.55648369,#NAME?,-19.33410275,#NAME?,-19.13562024,#NAME?
G AW TH,3,-15.61891002,nan,-15.61606151,nan,-13.32176685,,-13.41880972,-14.75551782,-7.992268643,,-7.92674144,-7.327123292,-14.94296608,nan,-14.83926528,nan,-9.724970416,nan,-9.573741873,nan,1.043604115,1,1.043653367,1,1.019258579,nan,1.019271329,nan,-26.48253875,,-26.42694095,-29.51103563,-16.26508561,,-16.11490674,-14.65424658,-33.01621635,#NAME?,-32.80557693,#NAME?,-19.5572463,#NAME?,-19.3432596,#NAME?
G AW Z,3,-14.46197217,nan,-14.460152,nan,-13.79094557,,-13.76807339,-14.75551782,-8.1745902,,-8.093795525,-7.327123292,-13.95340688,nan,-13.84136593,nan,-9.319505308,nan,-9.194252251,nan,1.056393303,1,1.056423542,1,1.027492812,nan,1.027503742,nan,-25.9319728,,-25.87487237,-29.51103563,-16.44740717,,-16.28196082,-14.65424658,-30.86971929,#NAME?,-30.69035567,#NAME?,-19.1517812,#NAME?,-18.96376998,#NAME?
G UW DH,3,-15.72218079,nan,-15.71679744,nan,-14.95063557,,-15.02219492,-14.75551782,-9.341953259,,-9.092758037,-7.327123292,-16.78453077,nan,-16.73398664,nan,-10.64875664,nan,-10.46771148,nan,1.052860598,1,1.052896343,1,1.024186643,nan,1.024198304,nan,-28.11937563,,-27.90504286,-29.51103563,-16.77591124,,-16.52037185,-14.65424658,-34.9610518,#NAME?,-34.71659982,#NAME?,-19.40309562,#NAME?,-19.20015876,#NAME?
G UW SH,3,-13.16349859,nan,-13.16278569,nan,-14.58923045,,-14.53642608,-14.75551782,-9.054271186,,-8.869614486,-7.327123292,-14.60732236,nan,-14.57095998,nan,-8.415164421,nan,-8.370570363,nan,1.058625277,1,1.058652452,1,1.037502056,nan,1.037510772,nan,-26.7056823,,-26.60926251,-29.51103563,-16.48822917,,-16.2972283,-14.65424658,-30.22516119,#NAME?,-30.16415252,#NAME?,-17.1695034,#NAME?,-17.10301764,#NAME?
G UW TH,3,-14.50409485,nan,-14.50227442,nan,-12.93732111,,-13.08341217,-14.75551782,-7.607352203,,-7.588680641,-7.327123292,-14.43729351,nan,-14.42149128,nan,-9.182419574,nan,-9.117784765,nan,1.05698368,1,1.057013295,1,1.026846323,nan,1.026857396,nan,-25.25876332,,-25.32832866,-29.51103563,-15.04131018,,-15.01629445,-14.65424658,-31.3957286,#NAME?,-31.31254937,#NAME?,-17.93675856,#NAME?,-17.85023204,#NAME?
G UW V,3,-13.18534653,nan,-13.18462495,nan,-14.10017451,,-14.11310957,-14.75551782,-7.732515346,,-7.706463676,-7.327123292,-14.21733527,nan,-14.17755015,nan,-8.702846493,nan,-8.652421516,nan,1.07343783,1,1.073442983,1,1.037190153,nan,1.037198939,nan,-25.23364426,,-25.29950823,-29.51103563,-15.16647333,,-15.13407749,-14.65424658,-29.85702204,#NAME?,-29.79224889,#NAME?,-17.45718548,#NAME?,-17.38486879,#NAME?
G UW ZH,3,-15.74269433,nan,-15.73720631,nan,-14.96290566,,-15.23989273,-14.75551782,-8.648806078,,-8.533142249,-7.327123292,-15.0834834,nan,-15.15882033,nan,-8.914155587,nan,-8.85827357,nan,1.051333531,1,1.051371546,1,1.024163959,nan,1.024175625,nan,-28.81252281,,-28.52408207,-29.51103563,-16.08276406,,-15.96075606,-14.65424658,-33.28051797,#NAME?,-33.1584552,#NAME?,-17.66849457,#NAME?,-17.59072085,#NAME?
HH UW DH,3,-16.15300074,nan,-16.14735827,nan,-14.300048,,-14.39181056,-14.75551782,-9.082358768,,-8.853326085,-7.327123292,-15.34367854,nan,-15.33497506,nan,-9.664046043,nan,-9.523105999,nan,1.065402026,1,1.065419377,1,1.020063855,nan,1.020076428,nan,-27.07779499,,-26.90140972,-29.51103563,-16.12532367,,-15.90726737,-14.65424658,-33.95101952,#NAME?,-33.73828448,#NAME?,-18.78405642,#NAME?,-18.6123721,#NAME?
HH UW SH,3,-13.59431854,nan,-13.59334652,nan,-13.93864289,,-13.90604173,-14.75551782,-8.794676696,,-8.630182533,-7.327123292,-13.16647012,nan,-13.1719484,nan,-7.430453821,nan,-7.42596488,nan,1.071166705,1,1.071175486,1,1.033379268,nan,1.033388896,nan,-25.66410166,,-25.60562937,-29.51103563,-15.8376416,,-15.68412382,-14.65424658,-29.21512891,#NAME?,-29.18583718,#NAME?,-16.55046419,#NAME?,-16.51523098,#NAME?
HH UW ZH,3,-16.17351428,nan,-16.16776714,nan,-14.3123181,,-14.60950838,-14.75551782,-8.389211588,,-8.293710297,-7.327123292,-13.64263116,nan,-13.75980875,nan,-7.929444987,nan,-7.913668086,nan,1.063874959,1,1.06389458,1,1.020041171,nan,1.020053749,nan,-27.77094217,,-27.52044893,-29.51103563,-15.43217649,,-15.34765159,-14.65424658,-32.27048569,#NAME?,-32.18013987,#NAME?,-17.04945536,#NAME?,-17.00293418,#NAME?
JH AO B,3,-12.9747864,nan,-12.97408456,nan,-14.97712602,,-14.96046977,-14.75551782,-8.071123327,,-8.014872961,-7.327123292,-17.4305008,nan,-17.33423476,nan,-9.489293549,nan,-9.398658533,nan,1.07380769,1,1.073812256,1,1.042407436,nan,1.042415068,nan,-26.2864111,,-26.29991499,-29.51103563,-15.70546983,,-15.6195853,-14.65424658,-32.85962744,#NAME?,-32.73919486,#NAME?,-18.54564539,#NAME?,-18.42477348,#NAME?
JH AW,2,-10.30849666,nan,-10.3067792,nan,-11.97861982,,-11.86524671,-11.06663836,-4.822966131,,-4.634728988,-3.663561646,-13.49211689,nan,-13.25860502,nan,-6.03068526,nan,-5.774551546,nan,1.024223913,1,1.024263615,1,1.01270862,nan,1.01271715,nan,-20.83162432,,-20.65230702,-22.13327672,-9.087532232,,-8.855592142,-7.327123292,-26.1146917,#NAME?,-25.81891017,#NAME?,-10.81834392,#NAME?,-10.54076519,#NAME?
JH AW CH,3,-15.51445038,nan,-15.51192047,nan,-14.77122741,,-14.6454983,-14.75551782,-8.977935315,,-8.708870843,-7.327123292,-16.36488192,nan,-16.10797889,nan,-10.06089526,nan,-9.78036843,nan,1.032699137,1,1.032764358,1,1.018192438,nan,1.018205425,nan,-28.39484018,,-28.09678956,-29.51103563,-17.87452353,,-17.47588329,-14.65424658,-34.33367255,#NAME?,-33.98182261,#NAME?,-20.33740486,#NAME?,-19.9829181,#NAME?
JH AW D,3,-13.6716217,nan,-13.66996163,nan,-14.23523881,,-14.14373425,-14.75551782,-7.799280319,,-7.679251426,-7.327123292,-14.92820383,nan,-14.69681189,nan,-9.057593151,nan,-8.831287876,nan,1.061827945,1,1.061849861,1,1.0473355,nan,1.047342042,nan,-26.36888732,,-26.23092212,-29.51103563,-16.69586853,,-16.44626387,-14.65424658,-31.05416577,#NAME?,-30.76182976,#NAME?,-19.33410275,#NAME?,-19.03383754,#NAME?
JH AW JH,3,-15.01841823,nan,-15.01629239,nan,-16.82137424,,-16.18351883,-14.75551782,-10.36422968,,-9.625161575,-7.327123292,-18.55976244,nan,-17.68403097,nan,-12.45879053,nan,-11.5721279,nan,1.034875207,1,1.034937194,1,1.021714104,nan,1.021726312,nan,-30.21645261,,-29.43796349,-29.51103563,-19.26081789,,-18.39217402,-14.65424658,-36.03252092,#NAME?,-35.07749804,#NAME?,-22.73530013,#NAME?,-21.77467757,#NAME?
JH AW R,3,-13.22226039,nan,-13.22065959,nan,-15.64149442,,-15.46968589,-14.75551782,-8.418319527,,-8.238867214,-7.327123292,-17.38777082,nan,-17.12061398,nan,-9.750740332,nan,-9.492686358,nan,1.101989814,1,1.101952022,1,1.066979704,nan,1.066981902,nan,-27.04855115,,-26.85064183,-29.51103563,-17.31490774,,-17.00587966,-14.65424658,-33.06437146,#NAME?,-32.73862909,#NAME?,-20.02724993,#NAME?,-19.69523603,#NAME?
JH AW Z,3,-14.73042135,nan,-14.728453,nan,-14.30177119,,-14.21828558,-14.75551782,-8.061644583,,-7.920413483,-7.327123292,-15.00187612,nan,-14.76086361,nan,-9.568418775,nan,-9.320836101,nan,1.044228494,1,1.044276575,1,1.024719713,nan,1.024731256,nan,-27.06656966,,-26.90286709,-29.51103563,-16.95823279,,-16.68742593,-14.65424658,-32.18663771,#NAME?,-31.87250107,#NAME?,-19.84492838,#NAME?,-19.52338577,#NAME?
JH UW DH,3,-15.99062997,nan,-15.98509844,nan,-13.72197015,,-13.89422174,-14.75551782,-7.489516601,,-7.341190627,-7.327123292,-15.42220133,nan,-15.43247087,nan,-8.486871432,nan,-8.373281893,nan,1.04069579,1,1.040749376,1,1.021413543,nan,1.021425818,nan,-27.51448146,,-27.35485222,-29.51103563,-15.54724582,,-15.34765159,-14.65424658,-33.86717155,#NAME?,-33.67773178,#NAME?,-17.68544413,#NAME?,-17.53876111,#NAME?
JH UW SH,3,-13.43194777,nan,-13.43108669,nan,-13.36056503,,-13.40845291,-14.75551782,-7.201834529,,-7.118047075,-7.327123292,-13.24499292,nan,-13.26944422,nan,-6.25327921,nan,-6.276140774,nan,1.046460468,1,1.046505485,1,1.034728956,nan,1.034738286,nan,-26.10078812,,-26.05907186,-29.51103563,-15.25956375,,-15.12450803,-14.65424658,-29.13128093,#NAME?,-29.12528448,#NAME?,-15.45185191,#NAME?,-15.44161999,#NAME?
L AW CH,3,-13.62450342,nan,-13.6225079,nan,-13.56725461,,-13.58117018,-14.75551782,-8.560468175,,-8.430850682,-7.327123292,-14.73829412,nan,-14.72794548,nan,-9.197725165,nan,-9.156769009,nan,1.049496365,1,1.04953695,1,1.068794411,nan,1.068796208,nan,-26.40436171,,-26.30014011,-29.51103563,-16.67055072,,-16.46428238,-14.65424658,-30.81713777,#NAME?,-30.73292082,#NAME?,-17.60737575,#NAME?,-17.51906486,#NAME?
L AW JH,3,-13.12847127,nan,-13.12687982,nan,-15.61740144,,-15.1191907,-14.75551782,-9.946762536,,-9.347141413,-7.327123292,-16.93317463,nan,-16.30399756,nan,-11.59562044,nan,-10.94852848,nan,1.051672436,1,1.051709786,1,1.072316077,nan,1.072317095,nan,-28.22597414,,-27.64131403,-29.51103563,-18.05684508,,-17.38057311,-14.65424658,-32.51598614,#NAME?,-31.82859625,#NAME?,-20.00527103,#NAME?,-19.31082433,#NAME?
L AW TH,3,-13.99741224,nan,-13.99494994,nan,-12.62861967,,-12.80469379,-14.75551782,-7.461855886,,-7.475339237,-7.327123292,-14.36484751,nan,-14.37872955,nan,-9.110713788,nan,-9.076726301,nan,1.048236534,1,1.048278993,1,1.067087452,nan,1.067089627,nan,-25.62665714,,-25.65828622,-29.51103563,-15.57193843,,-15.50877093,-14.65424658,-30.81659999,#NAME?,-30.73882055,#NAME?,-17.52036438,#NAME?,-17.43902215,#NAME?
M UW DH,3,-14.71158708,nan,-14.70650984,nan,-14.39101978,,-14.4691915,-14.75551782,-9.478354094,,-9.23571457,-7.327123292,-16.18281712,nan,-16.16172492,nan,-10.65816751,nan,-10.50570976,nan,1.079223961,1,1.07922104,1,1.044766555,nan,1.044773665,nan,-26.86374322,,-26.68365282,-29.51103563,-16.21629545,,-15.99427875,-14.65424658,-33.34874445,#NAME?,-33.14583413,#NAME?,-18.48680489,#NAME?,-18.32469002,#NAME?
M UW SH,3,-12.15290488,nan,-12.15249809,nan,-14.02961466,,-13.98342267,-14.75551782,-9.190672021,,-9.012571019,-7.327123292,-14.00560871,nan,-13.99869827,nan,-8.424575292,nan,-8.408568637,nan,1.08498864,1,1.084977148,1,1.058081968,nan,1.058086134,nan,-25.45004989,,-25.38787247,-29.51103563,-15.92861338,,-15.7711352,-14.65424658,-28.61285383,#NAME?,-28.59338683,#NAME?,-16.25321267,#NAME?,-16.2275489,#NAME?
M UW ZH,3,-14.73210062,nan,-14.72691871,nan,-14.40328987,,-14.68688932,-14.75551782,-8.785206913,,-8.676098782,-7.327123292,-14.48176975,nan,-14.58655861,nan,-8.923566458,nan,-8.896271843,nan,1.077696893,1,1.077696243,1,1.044743871,nan,1.044750987,nan,-27.5568904,,-27.30269203,-29.51103563,-15.52314827,,-15.43466296,-14.65424658,-31.66821061,#NAME?,-31.58768951,#NAME?,-16.75220384,#NAME?,-16.71525211,#NAME?
N AO B,3,-10.88166369,nan,-10.88151373,nan,-14.02161458,,-14.01094521,-14.75551782,-7.541422672,,-7.491017837,-7.327123292,-17.63147565,nan,-17.55568952,nan,-10.09647104,nan,-10.01963799,nan,1.081264756,1,1.081258384,1,1.10643824,nan,1.106431714,nan,-24.90508887,,-24.95874107,-29.51103563,-14.74995838,,-14.70329457,-14.65424658,-30.96747958,#NAME?,-30.88930279,#NAME?,-17.07930832,#NAME?,-16.99976461,#NAME?
N AO D,3,-10.3976083,nan,-10.39756029,nan,-12.9675502,,-13.00401604,-14.75551782,-7.002426171,,-7.005510021,-7.327123292,-14.23062783,nan,-14.22060618,nan,-8.805486856,nan,-8.790972569,nan,1.093481294,1,1.09345676,1,1.119725299,nan,1.119715834,nan,-23.45816988,,-23.5775618,-29.51103563,-14.21096188,,-14.21778675,-14.65424658,-27.08257637,#NAME?,-27.07420821,#NAME?,-15.78832414,#NAME?,-15.77109919,#NAME?
N AO NG,3,-11.78685494,nan,-11.78631387,nan,-12.20523509,,-12.34865382,-14.75551782,-6.120036991,,-6.169261997,-7.327123292,-13.15728275,nan,-13.17249991,nan,-8.505382263,nan,-8.49721145,nan,1.06763568,1,1.067649571,1,1.09372962,nan,1.093725904,nan,-23.85839664,,-24.002445,-29.51103563,-13.3285727,,-13.38153873,-14.65424658,-27.39847792,#NAME?,-27.39593636,#NAME?,-15.48821955,#NAME?,-15.47733807,#NAME?
N AO TH,3,-12.61334581,nan,-12.61196118,nan,-13.87115551,,-13.83385073,-14.75551782,-8.388720532,,-8.184165017,-7.327123292,-14.97540559,nan,-14.99159724,nan,-9.403323856,nan,-9.36905042,nan,1.063092655,1,1.0631133,1,1.088875279,nan,1.088872636,nan,-26.01266983,,-25.90612238,-29.51103563,-15.59725624,,-15.39644175,-14.65424658,-30.04309164,#NAME?,-30.00914079,#NAME?,-16.38616114,#NAME?,-16.34917704,#NAME?
N AW CH,3,-13.42132767,nan,-13.41934964,nan,-14.77122741,,-14.61226447,-14.75551782,-9.403746105,,-9.101306451,-7.327123292,-16.13507386,nan,-16.09621445,nan,-10.23728983,nan,-10.16812868,nan,1.040156202,1,1.040210486,1,1.082223243,nan,1.082222071,nan,-27.96902939,,-27.67190637,-29.51103563,-17.87452353,,-17.47588329,-14.65424658,-32.01074177,#NAME?,-31.89871134,#NAME?,-18.44028488,#NAME?,-18.32469002,#NAME?
N AW D,3,-11.57849899,nan,-11.57739079,nan,-14.23523881,,-14.11050042,-14.75551782,-8.225091109,,-8.071687034,-7.327123292,-14.69839577,nan,-14.68504745,nan,-9.233987723,nan,-9.219048125,nan,1.06928501,1,1.069295989,1,1.111366304,nan,1.111358688,nan,-25.94307653,,-25.80603893,-29.51103563,-16.69586853,,-16.44626387,-14.65424658,-28.731235,#NAME?,-28.67871849,#NAME?,-17.43698277,#NAME?,-17.37560947,#NAME?
N AW JH,3,-12.92529552,nan,-12.92372156,nan,-16.82137424,,-16.150285,-14.75551782,-10.79004047,,-10.01759718,-7.327123292,-18.32995438,nan,-17.67226653,nan,-12.6351851,nan,-11.95988815,nan,1.042332273,1,1.042383322,1,1.085744909,nan,1.085742958,nan,-29.79064182,,-29.01308029,-29.51103563,-19.26081789,,-18.39217402,-14.65424658,-33.70959014,#NAME?,-32.99438677,#NAME?,-20.83818015,#NAME?,-20.11644949,#NAME?
N AW TH,3,-13.79423649,nan,-13.79179168,nan,-13.83259248,,-13.83578809,-14.75551782,-8.305133816,,-8.145795006,-7.327123292,-15.76162726,nan,-15.74699852,nan,-10.15027845,nan,-10.08808597,nan,1.038896371,1,1.038952529,1,1.080516284,nan,1.08051549,nan,-27.19132482,,-27.03005248,-29.51103563,-16.77591124,,-16.52037185,-14.65424658,-32.01020399,#NAME?,-31.90461106,#NAME?,-18.3532735,#NAME?,-18.24464732,#NAME?
P AW JH,3,-13.79969332,nan,-13.79801087,nan,-14.92425426,,-14.444845,-14.75551782,-10.17599253,,-9.595126469,-7.327123292,-15.50465516,nan,-14.87602154,nan,-11.27390624,nan,-10.62609007,nan,1.098410911,1,1.098379712,1,1.043173015,nan,1.043180478,nan,-26.61044979,,-26.07304463,-29.51103563,-17.3636979,,-16.73394595,-14.65424658,-31.75868872,#NAME?,-31.06822216,#NAME?,-20.17035078,#NAME?,-19.47209248,#NAME?
P UW DH,3,-14.77190506,nan,-14.76681692,nan,-15.23831764,,-15.24886052,-14.75551782,-10.71474693,,-10.40446812,-7.327123292,-16.0306557,nan,-16.00065752,nan,-10.96554878,nan,-10.80344014,nan,1.104231493,1,1.104191894,1,1.042872454,nan,1.042879984,nan,-27.32194611,,-27.08324596,-29.51103563,-17.06359331,,-16.78273611,-14.65424658,-33.25690099,#NAME?,-33.04465198,#NAME?,-18.78405642,#NAME?,-18.6123721,#NAME?
P UW SH,3,-12.21322286,nan,-12.21280517,nan,-14.87691252,,-14.76309168,-14.75551782,-10.42706486,,-10.18132457,-7.327123292,-13.85344728,nan,-13.83763087,nan,-8.731956562,nan,-8.706299025,nan,1.109996172,1,1.109948003,1,1.056187868,nan,1.056192452,nan,-25.90825277,,-25.7874656,-29.51103563,-16.77591124,,-16.55959256,-14.65424658,-28.52101038,#NAME?,-28.49220468,#NAME?,-16.55046419,#NAME?,-16.51523098,#NAME?
P UW ZH,3,-14.7924186,nan,-14.78722579,nan,-15.25058773,,-15.46655833,-14.75551782,-10.02159975,,-9.844852334,-7.327123292,-14.32960832,nan,-14.42549121,nan,-9.230947728,nan,-9.194002232,nan,1.102704426,1,1.102667097,1,1.042849771,nan,1.042857305,nan,-28.01509329,,-27.70228517,-29.51103563,-16.37044613,,-16.22312032,-14.65424658,-31.57636716,#NAME?,-31.48650737,#NAME?,-17.04945536,#NAME?,-17.00293418,#NAME?
R AO CH,3,-12.53740185,nan,-12.53645717,nan,-15.70076337,,-15.16247354,-14.75551782,-11.37821624,,-10.69163738,-7.327123292,-15.9073852,nan,-15.55211898,nan,-11.26214293,nan,-10.87184791,nan,1.101298855,1,1.101263439,1,1.071817032,nan,1.071818161,nan,-26.68143683,,-26.14247328,-29.51103563,-17.58684145,,-16.94525504,-14.65424658,-30.89912729,#NAME?,-30.51044174,#NAME?,-18.32858089,#NAME?,-17.93522526,#NAME?
R AO SH,3,-11.56971442,nan,-11.56941047,nan,-14.11982093,,-14.1272943,-14.75551782,-9.432306087,,-9.305343018,-7.327123292,-14.94879606,nan,-14.88034587,nan,-9.652705021,nan,-9.572564925,nan,1.101680622,1,1.101644638,1,1.080765806,nan,1.080764957,nan,-25.0564344,,-25.06983648,-29.51103563,-15.6409313,,-15.55896068,-14.65424658,-28.97285072,#NAME?,-28.89591874,#NAME?,-16.71914297,#NAME?,-16.63594227,#NAME?
R AW JH,3,-13.22226039,nan,-13.22065959,nan,-15.21193633,,-14.72283521,-14.75551782,-10.18051304,,-9.589961893,-7.327123292,-15.71132318,nan,-15.09135592,nan,-11.2298286,nan,-10.59042652,nan,1.079278642,1,1.079275504,1,1.066979704,nan,1.066981902,nan,-27.18129342,,-26.6279811,-29.51103563,-17.65137998,,-17.00587966,-14.65424658,-31.38792381,#NAME?,-30.70937103,#NAME?,-19.51642431,#NAME?,-18.83023859,#NAME?
SH AO B,3,-12.50313111,nan,-12.50266595,nan,-14.64065379,,-14.66900107,-14.75551782,-7.476033151,,-7.465356051,-7.327123292,-17.71547506,nan,-17.62812603,nan,-9.66446391,nan,-9.578402164,nan,1.070644087,1,1.070653292,1,1.047834544,nan,1.047840976,nan,-26.2050906,,-26.23583613,-29.51103563,-15.36899759,,-15.30113157,-14.65424658,-32.67294642,#NAME?,-32.57071288,#NAME?,-18.10381264,#NAME?,-18.00191663,#NAME?
SH AO CH,3,-13.86190441,nan,-13.86067136,nan,-15.42882965,,-15.00601871,-14.75551782,-9.4219433,,-8.851650412,-7.327123292,-17.7437355,nan,-17.3700889,nan,-11.369212,nan,-10.96469653,nan,1.053731817,1,1.053766165,1,1.031978541,nan,1.031988479,nan,-28.09037612,,-27.56270708,-29.51103563,-17.31490774,,-16.68742593,-14.65424658,-34.05998015,#NAME?,-33.64149037,#NAME?,-19.80856073,#NAME?,-19.38821099,#NAME?
SH AO D,3,-12.01907573,nan,-12.01871251,nan,-13.5865894,,-13.6620719,-14.75551782,-6.93703665,,-6.979848235,-7.327123292,-14.31462724,nan,-14.29304268,nan,-8.373479729,nan,-8.349736747,nan,1.082860625,1,1.082851668,1,1.061121602,nan,1.061125096,nan,-24.75817161,,-24.85465687,-29.51103563,-14.83000109,,-14.81562375,-14.65424658,-28.78804321,#NAME?,-28.7556183,#NAME?,-16.81282846,#NAME?,-16.77325121,#NAME?
SH AO G,3,-13.09742308,nan,-13.09674228,nan,-13.09777664,,-13.23933086,-14.75551782,-6.377420862,,-6.453755139,-7.327123292,-15.52423977,nan,-15.51347836,nan,-8.13053355,nan,-8.112065095,nan,1.062894221,1,1.062914947,1,1.038273306,nan,1.038281852,nan,-25.0264356,,-25.14576361,-29.51103563,-14.2703853,,-14.28953066,-14.65424658,-31.07600309,#NAME?,-31.04185546,#NAME?,-16.56988228,#NAME?,-16.53557956,#NAME?
SH AO NG,3,-13.40832237,nan,-13.40746609,nan,-12.8242743,,-13.00670968,-14.75551782,-6.05464747,,-6.143600211,-7.327123292,-13.24128216,nan,-13.24493642,nan,-8.073375136,nan,-8.055975629,nan,1.057015012,1,1.057044479,1,1.035125924,nan,1.035135166,nan,-25.15839837,,-25.27954007,-29.51103563,-13.94761191,,-13.97937573,-14.65424658,-29.10394476,#NAME?,-29.07734645,#NAME?,-16.51272387,#NAME?,-16.4794901,#NAME?
SH AO SH,3,-12.89421697,nan,-12.89362467,nan,-13.84788722,,-13.97083947,-14.75551782,-7.476033151,,-7.465356051,-7.327123292,-16.78514636,nan,-16.69831579,nan,-9.75977409,nan,-9.665413541,nan,1.054113584,1,1.054147364,1,1.040927315,nan,1.040935275,nan,-26.4653737,,-26.49007027,-29.51103563,-15.36899759,,-15.30113157,-14.65424658,-32.13370358,#NAME?,-32.02696737,#NAME?,-18.19912282,#NAME?,-18.08892801,#NAME?
SH AO TH,3,-14.23481323,nan,-14.2331134,nan,-14.49019472,,-14.49190659,-14.75551782,-8.323331011,,-8.158503232,-7.327123292,-15.059405,nan,-15.06403375,nan,-8.97131673,nan,-8.927814598,nan,1.052471986,1,1.052508208,1,1.030271582,nan,1.030281898,nan,-27.31267156,,-27.18321745,-29.51103563,-16.21629545,,-15.99427875,-14.65424658,-31.74855847,#NAME?,-31.69055088,#NAME?,-17.41066546,#NAME?,-17.35132906,#NAME?
SH AO Z,3,-13.07787538,nan,-13.07720389,nan,-13.23660684,,-13.35236033,-14.75551782,-6.78288597,,-6.836747392,-7.327123292,-14.52183093,nan,-14.49007578,nan,-9.017836745,nan,-8.972266361,nan,1.065261175,1,1.065278383,1,1.038505816,nan,1.03851431,nan,-25.03933901,,-25.14233895,-29.51103563,-14.67585041,,-14.67252291,-14.65424658,-30.05404654,#NAME?,-29.999271,#NAME?,-17.45718548,#NAME?,-17.39578083,#NAME?
SH AW CH,3,-15.04279509,nan,-15.04050186,nan,-14.77122741,,-14.67248333,-14.75551782,-8.719317376,,-8.477807665,-7.327123292,-16.80400687,nan,-16.60158345,nan,-10.3902163,nan,-10.15982536,nan,1.029535533,1,1.029605394,1,1.023619547,nan,1.023631333,nan,-28.64999191,,-28.35116444,-29.51103563,-17.87452353,,-17.47588329,-14.65424658,-34.3011422,#NAME?,-34.01305393,#NAME?,-20.04972279,#NAME?,-19.75977455,#NAME?
SH AW D,3,-13.19996642,nan,-13.19854301,nan,-14.23523881,,-14.17071928,-14.75551782,-7.540662379,,-7.448188248,-7.327123292,-15.36732877,nan,-15.19041646,nan,-9.386914192,nan,-9.210744806,nan,1.058664341,1,1.058690897,1,1.052762608,nan,1.05276795,nan,-26.62403906,,-26.48529699,-29.51103563,-16.69586853,,-16.44626387,-14.65424658,-31.02163543,#NAME?,-30.79306108,#NAME?,-19.04642068,#NAME?,-18.81069399,#NAME?
SH AW JH,3,-14.54676295,nan,-14.54487378,nan,-16.82137424,,-16.21050386,-14.75551782,-10.10561174,,-9.394098397,-7.327123292,-18.99888739,nan,-18.17763554,nan,-12.78811157,nan,-11.95158483,nan,1.031711604,1,1.03177823,1,1.027141213,nan,1.02715222,nan,-30.47160434,,-29.69233836,-29.51103563,-19.26081789,,-18.39217402,-14.65424658,-35.99999057,#NAME?,-35.10872936,#NAME?,-22.44761806,#NAME?,-21.55153402,#NAME?
SH AW L,3,-12.65681598,nan,-12.65546121,nan,-14.34453205,,-14.27052865,-14.75551782,-7.466554407,,-7.379195376,-7.327123292,-15.87391413,nan,-15.6807378,nan,-9.743589136,nan,-9.553689557,nan,1.088251269,1,1.088233839,1,1.077743185,nan,1.077743004,nan,-26.15290484,,-26.02201232,-29.51103563,-16.62176056,,-16.377271,-14.65424658,-30.98507036,#NAME?,-30.74296325,#NAME?,-19.40309562,#NAME?,-19.15363874,#NAME?
SH AW TH,3,-15.41570392,nan,-15.4129439,nan,-13.83259248,,-13.89600695,-14.75551782,-7.620705087,,-7.52229622,-7.327123292,-16.43056027,nan,-16.25236752,nan,-10.30320492,nan,-10.07978265,nan,1.028275703,1,1.028347437,1,1.021912588,nan,1.021924752,nan,-27.87228734,,-27.70931055,-29.51103563,-16.77591124,,-16.52037185,-14.65424658,-34.30060443,#NAME?,-34.01895365,#NAME?,-19.96271141,#NAME?,-19.67973184,#NAME?
SH AW Z,3,-14.25876606,nan,-14.25703439,nan,-14.30177119,,-14.24527061,-14.75551782,-7.803026644,,-7.689350304,-7.327123292,-15.44100107,nan,-15.25446817,nan,-9.897739816,nan,-9.700293032,nan,1.041064891,1,1.041117612,1,1.030146821,nan,1.030157164,nan,-27.32172139,,-27.15724197,-29.51103563,-16.95823279,,-16.68742593,-14.65424658,-32.15410737,#NAME?,-31.90373239,#NAME?,-19.5572463,#NAME?,-19.30024222,#NAME?
SH UW DH,3,-15.51897469,nan,-15.51367983,nan,-15.03764695,,-15.17396974,-14.75551782,-8.546575456,,-8.362890417,-7.327123292,-16.89479927,nan,-16.88108068,nan,-9.849665459,nan,-9.707744068,nan,1.037532186,1,1.037590413,1,1.026840652,nan,1.026851726,nan,-29.08530998,,-28.86199006,-29.51103563,-16.86292261,,-16.60041455,-14.65424658,-34.86811419,#NAME?,-34.66396835,#NAME?,-18.43123504,#NAME?,-18.2706228,#NAME?
SH UW TH,3,-14.30088874,nan,-14.29915681,nan,-13.02433249,,-13.235187,-14.75551782,-6.8119744,,-6.85881302,-7.327123292,-14.547562,nan,-14.56858533,nan,-8.38332839,nan,-8.357817351,nan,1.041655268,1,1.041707365,1,1.029500332,nan,1.029510818,nan,-26.22469767,,-26.28527586,-29.51103563,-15.12832156,,-15.09633716,-14.65424658,-31.30279099,#NAME?,-31.2599179,#NAME?,-16.96489797,#NAME?,-16.92069608,#NAME?
SH UW V,3,-12.98214043,nan,-12.98150734,nan,-14.18718589,,-14.2648844,-14.75551782,-6.937137543,,-6.976596056,-7.327123292,-14.32760376,nan,-14.3246442,nan,-7.90375531,nan,-7.892454101,nan,1.058109417,1,1.058137052,1,1.039844162,nan,1.039852361,nan,-26.19957861,,-26.25645542,-29.51103563,-15.2534847,,-15.21412019,-14.65424658,-29.76408443,#NAME?,-29.73961742,#NAME?,-16.48532489,#NAME?,-16.45533284,#NAME?
SH UW ZH,3,-15.53948823,nan,-15.5340887,nan,-15.04991704,,-15.39166756,-14.75551782,-7.853428275,,-7.803274629,-7.327123292,-15.19375189,nan,-15.30591438,nan,-8.115064403,nan,-8.098306155,nan,1.036005119,1,1.036065616,1,1.026817968,nan,1.026829047,nan,-29.77845716,,-29.48102927,-29.51103563,-16.16977543,,-16.04079877,-14.65424658,-33.18758036,#NAME?,-33.10582373,#NAME?,-16.69663399,#NAME?,-16.66118489,#NAME?
T AW CH,3,-13.48264649,nan,-13.48066355,nan,-13.38493305,,-13.40277444,-14.75551782,-8.663995509,,-8.538280062,-7.327123292,-15.28744933,nan,-15.25584902,nan,-9.960261571,nan,-9.897921396,nan,1.059702752,1,1.059728368,1,1.077879288,nan,1.077879077,nan,-25.93619126,,-25.84754038,-29.51103563,-16.48822917,,-16.2972283,-14.65424658,-31.22443606,#NAME?,-31.11946895,#NAME?,-18.30052293,#NAME?,-18.19115863,#NAME?
T AW JH,3,-12.98661434,nan,-12.98503547,nan,-15.43507988,,-14.94079496,-14.75551782,-10.05028987,,-9.454570793,-7.327123292,-17.48232985,nan,-16.8319011,nan,-12.35815684,nan,-11.68968086,nan,1.061878823,1,1.061901204,1,1.081400954,nan,1.081399964,nan,-27.7578037,,-27.1887143,-29.51103563,-17.87452353,,-17.21351903,-14.65424658,-32.92328443,#NAME?,-32.21514438,#NAME?,-20.69841821,#NAME?,-19.9829181,#NAME?
TH AO B,3,-13.84372737,nan,-13.84215468,nan,-15.28728095,,-15.36113457,-14.75551782,-7.559566264,,-7.594737663,-7.327123292,-17.09558974,nan,-17.04261593,nan,-8.308683518,nan,-8.27511059,nan,1.065936344,1,1.065952453,1,1.037178811,nan,1.037187599,nan,-27.41827802,,-27.40590739,-29.51103563,-16.01562475,,-15.90726737,-14.65424658,-33.39365736,#NAME?,-33.28306834,#NAME?,-18.25796332,#NAME?,-18.15033664,#NAME?
TH AO CH,3,-15.20250067,nan,-15.20016009,nan,-16.07545682,,-15.69815221,-14.75551782,-9.505476413,,-8.981032024,-7.327123292,-17.12385018,nan,-16.7845788,nan,-10.01343161,nan,-9.661404951,nan,1.049024074,1,1.049065326,1,1.021322808,nan,1.021335102,nan,-29.30356355,,-28.73277833,-29.51103563,-17.9615349,,-17.29356173,-14.65424658,-34.78069109,#NAME?,-34.35384583,#NAME?,-19.96271141,#NAME?,-19.536631,#NAME?
TH AO G,3,-14.43801934,nan,-14.43623101,nan,-13.74440381,,-13.93146436,-14.75551782,-6.460953975,,-6.583136751,-7.327123292,-14.90435445,nan,-14.92796827,nan,-6.774753158,nan,-6.808773521,nan,1.058186477,1,1.058214109,1,1.027617573,nan,1.027628476,nan,-26.23962303,,-26.31583486,-29.51103563,-14.91701247,,-14.89566646,-14.65424658,-31.79671403,#NAME?,-31.75421091,#NAME?,-16.72403296,#NAME?,-16.68399957,#NAME?
TH AO SH,3,-14.23481323,nan,-14.2331134,nan,-14.49451438,,-14.66297297,-14.75551782,-7.559566264,,-7.594737663,-7.327123292,-16.16526105,nan,-16.1128057,nan,-8.403993698,nan,-8.362121967,nan,1.04940584,1,1.049446526,1,1.030271582,nan,1.030281898,nan,-27.67856112,,-27.66014153,-29.51103563,-16.01562475,,-15.90726737,-14.65424658,-32.85441452,#NAME?,-32.73932283,#NAME?,-18.3532735,#NAME?,-18.23734801,#NAME?
TH AO TH,3,-15.57540949,nan,-15.57260213,nan,-15.13682188,,-15.18404009,-14.75551782,-8.406864124,,-8.287884843,-7.327123292,-14.43951968,nan,-14.47852365,nan,-7.615536337,nan,-7.624523024,nan,1.047764243,1,1.047807369,1,1.019615849,nan,1.019628521,nan,-28.52585898,,-28.35328871,-29.51103563,-16.86292261,,-16.60041455,-14.65424658,-32.46926941,#NAME?,-32.40290633,#NAME?,-17.56481614,#NAME?,-17.49974907,#NAME?
V AW JH,3,-14.56861089,nan,-14.56671304,nan,-16.82137424,,-16.17153309,-14.75551782,-10.49943527,,-9.74832386,-7.327123292,-17.67039139,nan,-16.9784297,nan,-11.74769477,nan,-11.04124552,nan,1.036908953,1,1.036967956,1,1.02682931,nan,1.026840386,nan,-30.08124702,,-29.30309609,-29.51103563,-19.26081789,,-18.39217402,-14.65424658,-34.69334252,#NAME?,-33.93102973,#NAME?,-21.53132733,#NAME?,-20.76307666,#NAME?
V AW R,3,-12.77245304,nan,-12.77108024,nan,-15.64149442,,-15.45770016,-14.75551782,-8.553525121,,-8.362029499,-7.327123292,-16.49839977,nan,-16.41501271,nan,-9.039644573,nan,-8.961803981,nan,1.104023559,1,1.103982785,1,1.072094909,nan,1.072095977,nan,-26.91334556,,-26.71577443,-29.51103563,-17.31490774,,-17.00587966,-14.65424658,-31.72519306,#NAME?,-31.59216078,#NAME?,-18.82327713,#NAME?,-18.68363512,#NAME?
V AW TH,3,-15.43755186,nan,-15.43478316,nan,-13.83259248,,-13.85703618,-14.75551782,-8.01452862,,-7.876521683,-7.327123292,-15.10206427,nan,-15.05316168,nan,-9.262788125,nan,-9.169443346,nan,1.033473051,1,1.033537163,1,1.021600685,nan,1.021612918,nan,-27.48193002,,-27.32006828,-29.51103563,-16.77591124,,-16.52037185,-14.65424658,-32.99395637,#NAME?,-32.84125402,#NAME?,-19.04642068,#NAME?,-18.89127448,#NAME?
W UW DH,3,-15.96636751,nan,-15.96085106,nan,-15.35610068,,-15.39844979,-14.75551782,-9.597330305,,-9.318950602,-7.327123292,-16.69043212,nan,-16.644868,nan,-10.46971849,nan,-10.29261452,nan,1.049207389,1,1.049248492,1,1.021634711,nan,1.021646936,nan,-28.6749288,,-28.4226234,-29.51103563,-17.18137635,,-16.88809663,-14.65424658,-35.11113987,#NAME?,-34.86645557,#NAME?,-19.40309562,#NAME?,-19.20015876,#NAME?
W UW TH,3,-14.74828157,nan,-14.74632805,nan,-13.34278622,,-13.45966705,-14.75551782,-7.862729249,,-7.814873205,-7.327123292,-14.34319485,nan,-14.33237265,nan,-9.003381418,nan,-8.942687803,nan,1.053330471,1,1.053365444,1,1.024294391,nan,1.024306028,nan,-25.81431649,,-25.8459092,-29.51103563,-15.44677529,,-15.38401923,-14.65424658,-31.54581666,#NAME?,-31.46240512,#NAME?,-17.93675856,#NAME?,-17.85023204,#NAME?
W UW V,3,-13.42953325,nan,-13.42867858,nan,-14.50563962,,-14.48936444,-14.75551782,-7.987892392,,-7.93265624,-7.327123292,-14.12323661,nan,-14.08843152,nan,-8.523808338,nan,-8.477324554,nan,1.069784621,1,1.069795132,1,1.034638221,nan,1.034647571,nan,-25.78919743,,-25.81708876,-29.51103563,-15.57193843,,-15.50180227,-14.65424658,-30.0071101,#NAME?,-29.94210465,#NAME?,-17.45718548,#NAME?,-17.38486879,#NAME?
W UW ZH,3,-15.98688105,nan,-15.98125993,nan,-15.36837077,,-15.6161476,-14.75551782,-8.904183124,,-8.759334814,-7.327123292,-14.98938474,nan,-15.0697017,nan,-8.735117432,nan,-8.683176608,nan,1.047680322,1,1.047723695,1,1.021612027,nan,1.021624257,nan,-29.36807599,,-29.04166261,-29.51103563,-16.48822917,,-16.32848084,-14.65424658,-33.43060603,#NAME?,-33.30831096,#NAME?,-17.66849457,#NAME?,-17.59072085,#NAME?
Y AO CH,3,-14.62208175,nan,-14.62040157,nan,-16.170767,,-15.74040254,-14.75551782,-9.86221233,,-9.284266509,-7.327123292,-17.98183986,nan,-17.5905281,nan,-11.39776711,nan,-10.97526521,nan,1.050869509,1,1.050908055,1,1.024294391,nan,1.024306028,nan,-29.13744799,,-28.55975916,-29.51103563,-18.05684508,,-17.38057311,-14.65424658,-35.05826185,#NAME?,-34.60464091,#NAME?,-20.50170791,#NAME?,-20.04745662,#NAME?
Y AO D,3,-12.77925307,nan,-12.77844272,nan,-14.32852675,,-14.39645572,-14.75551782,-7.377305681,,-7.412464333,-7.327123292,-14.5527316,nan,-14.51348188,nan,-8.402034833,nan,-8.360305436,nan,1.079998317,1,1.079993558,1,1.053437452,nan,1.053442645,nan,-25.80524348,,-25.85170896,-29.51103563,-15.57193843,,-15.50877093,-14.65424658,-29.78632491,#NAME?,-29.71876884,#NAME?,-17.50597564,#NAME?,-17.43249684,#NAME?
Y AO G,3,-13.85760042,nan,-13.85647249,nan,-13.83971399,,-13.97371469,-14.75551782,-6.817689893,,-6.886371237,-7.327123292,-15.76234413,nan,-15.73391756,nan,-8.159088655,nan,-8.122633784,nan,1.060031913,1,1.060056837,1,1.030589156,nan,1.030599401,nan,-26.07350747,,-26.1428157,-29.51103563,-15.01232265,,-14.98267784,-14.65424658,-32.07428479,#NAME?,-32.005006,#NAME?,-17.26302946,#NAME?,-17.19482519,#NAME?
Y AO NG,3,-14.16849971,nan,-14.1671963,nan,-13.56621164,,-13.74109351,-14.75551782,-6.4949165,,-6.576216308,-7.327123292,-13.47938652,nan,-13.46537561,nan,-8.101930241,nan,-8.066544317,nan,1.054152704,1,1.054186369,1,1.027441773,nan,1.027452715,nan,-26.20547023,,-26.27659216,-29.51103563,-14.68954925,,-14.67252291,-14.65424658,-30.10222646,#NAME?,-30.04049699,#NAME?,-17.20587105,#NAME?,-17.13873572,#NAME?
Y AO SH,3,-13.65439432,nan,-13.65335488,nan,-14.58982456,,-14.7052233,-14.75551782,-7.916302181,,-7.897972148,-7.327123292,-17.02325072,nan,-16.91875499,nan,-9.788329194,nan,-9.67598223,nan,1.051251276,1,1.051289254,1,1.033243165,nan,1.033252824,nan,-27.51244556,,-27.48712236,-29.51103563,-16.11093493,,-15.99427875,-14.65424658,-33.13198528,#NAME?,-32.99011791,#NAME?,-18.89227,#NAME?,-18.74817364,#NAME?
Y AO TH,3,-14.99499058,nan,-14.99284361,nan,-15.23213206,,-15.22629042,-14.75551782,-8.763600042,,-8.591119329,-7.327123292,-15.29750936,nan,-15.28447295,nan,-8.999871834,nan,-8.938383287,nan,1.049609679,1,1.049650098,1,1.022587432,nan,1.022599447,nan,-28.35974342,,-28.18026954,-29.51103563,-16.95823279,,-16.68742593,-14.65424658,-32.74684018,#NAME?,-32.65370141,#NAME?,-18.10381264,#NAME?,-18.01057469,#NAME?
Y AW CH,3,-15.80297244,nan,-15.80023207,nan,,,-16.10001434,-14.75551782,,,-9.603570942,-7.327123292,,nan,-17.77221494,nan,,nan,-11.12058633,nan,1.026673225,1,1.026747284,1,1.015935396,nan,1.015948882,nan,,,-30.0413637,-29.51103563,,,-18.86217765,-14.65424658,#NAME?,#NAME?,-35.92639675,#NAME?,#NAME?,#NAME?,-21.36921246,#NAME?
Y AW D,3,-13.96014376,nan,-13.95827322,nan,,,-15.59825029,-14.75551782,,,-8.573951525,-7.327123292,,nan,-16.36104794,nan,,nan,-10.17150578,nan,1.055802033,1,1.055832787,1,1.045078458,nan,1.045085499,nan,,,-28.17549626,-29.51103563,,,-17.83255824,-14.65424658,#NAME?,#NAME?,-32.7064039,#NAME?,#NAME?,#NAME?,-20.42013191,#NAME?
Y AW JH,3,-15.30694029,nan,-15.30460399,nan,,,-17.63803487,-14.75551782,,,-10.51986167,-7.327123292,,nan,-19.34826702,nan,,nan,-12.9123458,nan,1.028849296,1,1.02892012,1,1.019457062,nan,1.019469769,nan,,,-31.38253763,-29.51103563,,,-19.77846838,-14.65424658,#NAME?,#NAME?,-37.02207218,#NAME?,#NAME?,#NAME?,-23.16097193,#NAME?
Y AW R,3,-13.51078245,nan,-13.50897118,nan,,,-16.92420193,-14.75551782,,,-9.133567313,-7.327123292,,nan,-18.78485003,nan,,nan,-10.83290426,nan,1.095963902,1,1.095934949,1,1.064722662,nan,1.064725359,nan,,,-28.79521598,-29.51103563,,,-18.39217402,-14.65424658,#NAME?,#NAME?,-34.68320323,#NAME?,#NAME?,#NAME?,-21.08153039,#NAME?
Y AW T,3,-13.2751364,nan,-13.27334707,nan,,,-15.57076372,-14.75551782,,,-8.440420133,-7.327123292,,nan,-14.7710741,nan,,nan,-8.642648353,nan,1.08229665,1,1.082288016,1,1.079143912,nan,1.079143421,nan,,,-27.63095958,-29.51103563,,,-17.69902684,-14.65424658,#NAME?,#NAME?,-30.43465547,#NAME?,#NAME?,#NAME?,-18.89127448,#NAME?
Y AW TH,3,-16.17588126,nan,-16.17267411,nan,,,-15.32353796,-14.75551782,,,-8.648059497,-7.327123292,,nan,-17.422999,nan,,nan,-11.04054363,nan,1.025413395,1,1.025489327,1,1.014228438,nan,1.014242301,nan,,,-29.39950982,-29.51103563,,,-17.90666621,-14.65424658,#NAME?,#NAME?,-35.93229647,#NAME?,#NAME?,#NAME?,-21.28916975,#NAME?
Y AW Z,3,-15.01894341,nan,-15.0167646,nan,,,-15.67280162,-14.75551782,,,-8.815113582,-7.327123292,,nan,-16.42509965,nan,,nan,-10.661054,nan,1.038202583,1,1.038259502,1,1.022462671,nan,1.022474713,nan,,,-28.84744124,-29.51103563,,,-18.07372029,-14.65424658,#NAME?,#NAME?,-33.81707521,#NAME?,#NAME?,#NAME?,-20.90968013,#NAME?
Z UW B,3,-12.75286503,nan,-12.75228858,nan,-14.57106681,,-14.92715579,-14.75551782,-5.741042578,,-6.066837026,-7.327123292,-18.08581446,nan,-18.02876735,nan,-7.890656491,nan,-7.862070834,nan,1.051089797,1,1.051127693,1,1.044641794,nan,1.044648932,nan,-28.13676738,,-28.07411562,-29.51103563,-15.67729895,,-15.52997314,-14.65424658,-33.29301973,#NAME?,-33.21671329,#NAME?,-17.10051053,#NAME?,-17.03847912,#NAME?
Z UW DH,3,-15.70263309,nan,-15.69725905,nan,-16.04924786,,-16.43752962,-14.75551782,-7.938267155,,-8.012747175,-7.327123292,-19.237384,nan,-19.17497239,nan,-10.12424871,nan,-9.959211953,nan,1.028794614,1,1.028865656,1,1.024419152,nan,1.024430762,nan,-31.72028632,,-31.34689671,-29.51103563,-17.87452353,,-17.47588329,-14.65424658,-37.39435732,#NAME?,-37.1384037,#NAME?,-19.33410275,#NAME?,-19.13562024,#NAME?
Z UW SH,3,-13.14395089,nan,-13.1432473,nan,-15.68784274,,-15.95176079,-14.75551782,-7.650585082,,-7.789603623,-7.327123292,-17.06017558,nan,-17.01194574,nan,-7.890656491,nan,-7.862070834,nan,1.034559293,1,1.034621765,1,1.037734565,nan,1.03774323,nan,-30.30659298,,-30.05111636,-29.51103563,-17.58684145,,-17.25273974,-14.65424658,-32.65846671,#NAME?,-32.5859564,#NAME?,-17.10051053,#NAME?,-17.03847912,#NAME?
Z UW TH,3,-14.48454715,nan,-14.48273603,nan,-14.0359334,,-14.49874688,-14.75551782,-6.2036661,,-6.508669778,-7.327123292,-16.89014673,nan,-16.86247704,nan,-8.657911644,nan,-8.609285236,nan,1.032917696,1,1.032982608,1,1.027078832,nan,1.027089853,nan,-28.859674,,-28.77018251,-29.51103563,-16.13992247,,-15.97180589,-14.65424658,-33.82903412,#NAME?,-33.73435325,#NAME?,-17.86776568,#NAME?,-17.78569352,#NAME?
Z UW V,3,-13.16579883,nan,-13.16508656,nan,-15.1987868,,-15.52844427,-14.75551782,-6.328829243,,-6.626452813,-7.327123292,-16.67018849,nan,-16.61853591,nan,-8.178338564,nan,-8.143921986,nan,1.049371846,1,1.049412296,1,1.037422662,nan,1.037431397,nan,-28.83455494,,-28.74136207,-29.51103563,-16.26508561,,-16.08958893,-14.65424658,-32.29032756,#NAME?,-32.21405277,#NAME?,-17.3881926,#NAME?,-17.32033027,#NAME?
Z UW ZH,3,-15.72314663,nan,-15.71766792,nan,-16.06151795,,-16.65522744,-14.75551782,-7.245119974,,-7.453131387,-7.327123292,-17.53633662,nan,-17.59980609,nan,-8.389647657,nan,-8.34977404,nan,1.027267547,1,1.027340859,1,1.024396468,nan,1.024408083,nan,-32.4134335,,-31.96593592,-29.51103563,-17.18137635,,-16.9162675,-14.65424658,-35.71382349,#NAME?,-35.58025908,#NAME?,-17.5995017,#NAME?,-17.52618233,#NAME?
B AH L,3,-8.920646748,nan,-8.920895341,nan,-9.826132523,,-9.878428608,-14.75551782,-4.577799459,,-4.611355047,-7.327123292,-7.537242146,nan,-7.55268037,nan,-3.066225925,nan,-3.07790531,nan,1.200496829,1,1.200314699,1,1.18597912,nan,1.185955005,nan,-17.98974897,,-18.20612752,-29.51103563,-10.02995619,,-10.13000212,-14.65424658,-18.91222913,#NAME?,-18.94105321,#NAME?,-8.901605906,#NAME?,-8.920344628,#NAME?
B AY N,3,-10.74519819,nan,-10.74510818,nan,-10.88122269,,-10.93961718,-14.75551782,-5.209877362,,-5.256687966,-7.327123292,-10.2899608,nan,-10.30649765,nan,-5.767327751,nan,-5.781803837,nan,1.177178537,1,1.177030167,1,1.108201909,nan,1.108194993,nan,-19.62730953,,-19.82969486,-29.51103563,-11.58511722,,-11.67165235,-14.65424658,-23.48949923,#NAME?,-23.50600286,#NAME?,-13.67044807,#NAME?,-13.67679489,#NAME?
