connormayer/uci_phonotactic_calculator/src/output.csv
word,word_len,ngram_n1_smoothed_raw_nobound_conditional_logsumexp,ngram_n1_smoothed_raw_nobound_joint_logsumexp,ngram_n1_smoothed_raw_bound_conditional_logsumexp,ngram_n1_smoothed_raw_bound_joint_logsumexp,ngram_n2_smoothed_raw_nobound_conditional_logsumexp,ngram_n2_smoothed_raw_nobound_joint_logsumexp,ngram_n2_smoothed_raw_bound_conditional_logsumexp,ngram_n2_smoothed_raw_bound_joint_logsumexp,ngram_n3_smoothed_raw_nobound_conditional_logsumexp,ngram_n3_smoothed_raw_nobound_joint_logsumexp,ngram_n3_smoothed_raw_bound_conditional_logsumexp,ngram_n3_smoothed_raw_bound_joint_logsumexp,ngram_n4_smoothed_raw_nobound_joint_logsumexp,ngram_n4_smoothed_raw_bound_joint_logsumexp
B AE L,3,-2.246289476479568,-2.246289476479568,-2.246295146169124,-2.246295146169124,-1.9346128033284162,-5.541865156304394,-0.8532568740405058,-3.8332439058451926,-2.7427357590901003,-9.281681073387492,0.21202179144834038,-4.291639249515259,nan,-6.5542789901609115
B AE P,3,-2.568448009279862,-2.568448009279862,-2.568453678969418,-2.568453678969418,-2.259277652310685,-5.896374295040856,-1.4659115560558185,-4.523006988420898,-3.784189633918261,-10.323134948215653,0.2333063794964127,-4.987030540230302,nan,-7.2479250482567705
B IH S,3,-1.9249993194942672,-1.9249993194942672,-1.9250049891838232,-1.9250049891838232,-1.60556201237814,-4.545557660795413,-0.7778984151624212,-3.667059386454211,-3.329453476803314,-9.549945059982171,0.2382113896340331,-4.3196749283631375,nan,-6.581324743280911
CH AE L,3,-2.4086287264683617,-2.4086287264683617,-2.4086343961579177,-2.4086343961579177,-2.024688753185313,-5.915792380897957,-1.014453075302567,-4.205044778570553,-2.423537703411708,-10.168984268388394,0.2140840180349896,-4.691020783084522,nan,-6.952414417649927
CH AE N,3,-2.269494638073352,-2.269494638073352,-2.269500307762908,-2.269500307762908,-1.3023739732983888,-4.993636529571405,-0.6934839755194273,-3.8892464575424635,-1.5968591302272404,-9.342305695203928,0.33931652009782476,-4.49230994497741,nan,-6.755531733616877
CH EH N,3,-2.210235786022243,-2.210235786022243,-2.210241455711799,-2.210241455711799,-1.2974694062282182,-4.811477429117667,-0.6943706308536174,-3.8414127735989885,-4.477336814478207,-12.114894417443708,0.17737924171050917,-4.510123683844159,nan,-6.771207481071686
CH IH S,3,-2.040041158612845,-2.040041158612845,-2.040046828302401,-2.040046828302401,-1.6986664384871166,-4.726634662357163,-0.9472945966074203,-3.993439182845166,-4.574710978503383,-12.114894417443708,0.21906384754296895,-4.72539621682367,nan,-6.9864056054669605
D AE L,3,-2.1280004086108786,-2.1280004086108786,-2.1280060783004346,-2.1280060783004346,-2.314336383380126,-5.844840644925673,-0.9469355309529389,-3.8097922448101427,-2.7454377331738304,-10.168984268388394,0.15366372706547196,-4.2564019361532095,nan,-6.518036042043568
D AE S,3,-2.1233924339006887,-2.1233924339006887,-2.1233981035902447,-2.1233981035902447,-2.305219251307626,-5.835749673224422,-1.0031508778785458,-3.857027327355289,-3.592735593561034,-11.016282128775599,0.16897412137647466,-4.304170741827172,nan,-6.565816615011648
D EH M,3,-2.321333710706562,-2.321333710706562,-2.321339380396118,-2.321339380396118,-2.1194860887312608,-5.533468801351487,-1.1923601230998044,-4.206684929832115,-2.388762789235098,-8.713697035781554,0.23049280669780803,-4.699598124501826,nan,-6.965496271188336
D EH P,3,-2.3408174980230525,-2.3408174980230525,-2.3408231677126086,-2.3408231677126086,-2.3223815246689314,-5.761641701070699,-1.5184163241225357,-4.38835010327464,-3.305053521109253,-9.629987767655708,0.15220287370946214,-4.865427219220055,nan,-7.1268208537854605
D EH S,3,-2.071985396515319,-2.071985396515319,-2.071991066204875,-2.071991066204875,-1.8334446554695032,-5.220197218699372,-0.8822099343693285,-3.7735901772602274,-2.2064412324411435,-8.531375478987599,0.3294479190992586,-4.254960321295178,nan,-6.518036042043568
D IH DH,3,-2.3012592611804457,-2.3012592611804457,-2.3012649308700017,-2.3012649308700017,-1.3569300705489016,-4.8588875549140775,-1.0918889705956447,-4.274599684637424,-6.385194398997726,-11.421747236883762,-0.11575186639115498,-4.796257528706915,nan,-7.057238707089943
D IH JH,3,-2.225445996956066,-2.225445996956066,-2.225451666645622,-2.225451666645622,-1.2839704092442,-4.685693271979801,-0.7336869379178064,-4.099979291680171,-3.9872991261993547,-9.023851964085392,0.6199318291721274,-4.621112375883404,nan,-6.883892012056687
D IH T,3,-1.7856210476336658,-1.7856210476336658,-1.785626717323222,-1.785626717323222,-1.1281515901942905,-4.362821080131629,-0.507114002320009,-3.3686219635722243,-3.0529898888225215,-8.08954272670856,0.5539751525625352,-3.876507440776011,nan,-6.140700583139319
D IH TH,3,-2.2750500551279202,-2.2750500551279202,-2.2750557248174763,-2.2750557248174763,-1.3470915683438138,-4.83448583932744,-0.7450681390000512,-4.218241934805489,-6.385194398997726,-11.421747236883762,0.47875890771935214,-4.7315643165643175,nan,-6.992571328275497
D IH V,3,-2.1791884554033643,-2.1791884554033643,-2.1791941250929203,-2.1791941250929203,-1.1660157775740019,-4.436530153241407,-0.7289495885366581,-3.961847990302669,-2.935206853166138,-7.971759691052176,0.6483334300715502,-4.516340676202965,nan,-6.782422551891827
D IH Z,3,-2.1980073029628002,-2.1980073029628002,-2.1980129726523563,-2.1980129726523563,-1.2237024492845017,-4.554313188897791,-0.3595669699726556,-3.902478937401132,-3.494822641101561,-8.531375478987599,0.4619924080598663,-4.467951501145369,nan,-6.731129257504277
D IH ZH,3,-2.3014857745740187,-2.3014857745740187,-2.3014914442635748,-2.3014914442635748,-1.3552268564314633,-4.8546376547647485,-1.099079424447429,-4.273195190024526,-7.078341579557671,-12.114894417443708,-0.16654021374997485,-4.797909056745389,nan,-7.058889553523468
F AE L,3,-2.279915706660233,-2.279915706660233,-2.279921376349789,-2.279921376349789,-2.1093234753687113,-5.7491154412515195,-0.9213204924522144,-3.8880521423401877,-2.391380591777177,-9.47583708782845,0.18969025597756292,-4.344309909417516,nan,-6.606228754079029
F AE S,3,-2.2745537635188473,-2.2745537635188473,-2.2745594332084034,-2.2745594332084034,-2.101890060189214,-5.740850931401626,-0.9760745158511167,-3.939232365008739,-2.1972245773362196,-9.281681073387492,0.24897507114642975,-4.394650237452762,nan,-6.656596205641709
F EH K,3,-2.3380527090622465,-2.3380527090622465,-2.3380583787518026,-2.3380583787518026,-1.6363870100425055,-5.110323674707152,-0.9781704085492924,-4.115441984535849,-1.4620544070014263,-8.125910370879433,0.2900312044395741,-4.734274870014776,nan,-7.015641755194778
F EH S,3,-2.2150031284538167,-2.2150031284538167,-2.215008798143373,-2.215008798143373,-1.8293535612983844,-5.342268162916404,-0.8829235071084552,-3.8811531022485024,-2.4553061800117097,-9.119162143889717,0.26766247758758005,-4.38257544749647,nan,-6.6467005778874855
F IH K,3,-2.0422238030972926,-2.0422238030972926,-2.0422294727868486,-2.0422294727868486,-1.3773617357539436,-4.373248703293887,-0.8422252036282869,-3.8544848551663415,-1.5439233053234738,-7.708175170179455,0.5092774090665789,-4.526368964569329,nan,-6.802996153003685
F IH S,3,-1.9492722603550272,-1.9492722603550272,-1.9492779300445833,-1.9492779300445833,-1.4802583202763508,-4.532566448083082,-0.7385399826831429,-3.687164451824672,-2.9549102790337356,-9.119162143889717,0.2507165229277284,-4.351952587282487,nan,-6.616525874765273
G AE N,3,-2.210390884898087,-2.210390884898087,-2.210396554587643,-2.210396554587643,-1.313992536690628,-4.94605381458039,-0.6526215343549958,-3.767011904201288,-1.9694406464655074,-9.224522659547544,0.27440786070997936,-4.343260316038557,nan,-6.607806041472276
G EH N,3,-2.154439617510859,-2.154439617510859,-2.154445287200415,-2.154445287200415,-1.451835671859308,-4.818815415570579,-0.7180952919730914,-3.736599229102071,-3.270835563798912,-11.016282128775599,0.09481085102646533,-4.372803382762678,nan,-6.634197017328082
G IH N,3,-1.9025169629510335,-1.9025169629510335,-1.9025226326405895,-1.9025226326405895,-1.7019756309278744,-4.478725694404644,-0.8327445827797398,-3.639872512864653,-2.790288299339182,-10.168984268388394,0.18253638351340315,-4.341164428449221,nan,-6.602819808860905
G IH S,3,-1.9927741860002373,-1.9927741860002373,-1.9927798556897933,-1.9927798556897933,-1.8923008472613072,-4.714027895467251,-0.9579575269982112,-3.8663275571422764,-4.04305126783455,-11.421747236883762,0.16819580621661695,-4.549629532159637,nan,-6.811023166725042
HH AE N,3,-2.248704094131161,-2.248704094131161,-2.248709763820717,-2.248709763820717,-1.0633668193232464,-4.875203932346226,-0.49017634038602753,-3.6834611048380115,-1.2431935174792175,-8.020549855221608,0.4087915581794528,-4.23546374558285,nan,-6.502287685075428
HH AE S,3,-2.3788184087837587,-2.3788184087837587,-2.378824078473315,-2.378824078473315,-1.5782016109084047,-5.633640276455639,-0.7894784538567811,-3.9860395719149913,-4.238925791033208,-11.016282128775599,0.21015087892504025,-4.452913623780829,nan,-6.71401464678599
HH EH S,3,-2.3129346508039648,-2.3129346508039648,-2.312940320493521,-2.312940320493521,-1.4843263757173502,-5.360387125498879,-0.7457263843795855,-3.9422519948824593,-4.295015257684252,-11.016282128775599,0.25512218935127706,-4.438386930211097,nan,-6.699492172561094
JH IH S,3,-2.013322422475323,-2.013322422475323,-2.013328092164879,-2.013328092164879,-1.337890513235739,-4.631324482552838,-0.7892622703207911,-3.9156434376122595,-1.9459101490553135,-8.618386855977228,0.285216358214482,-4.649560299534238,nan,-6.920979080719023
K AE DH,3,-2.610673231453442,-2.610673231453442,-2.610678901142998,-2.610678901142998,-3.0142626345023107,-6.06912640081866,-1.528441049482137,-4.305645889069936,-5.934894195619588,-12.114894417443708,-0.5957892171287092,-4.706362524590368,nan,-6.967379156323786
K AE G,3,-2.475224458980999,-2.475224458980999,-2.475230128670555,-2.475230128670555,-2.544651125704489,-5.753273451400183,-1.4950554923172592,-4.221568617846856,-5.934894195619588,-12.114894417443708,0.09833364986349702,-4.656352104015706,nan,-6.917387122834037
K AE K,3,-2.1213091984519483,-2.1213091984519483,-2.1213148681415044,-2.1213148681415044,-1.7871625593176774,-5.155123999462517,-0.9462736708441151,-3.8346007581564825,-4.3254562831854875,-10.505456505009608,0.28819490037262024,-4.3242962459587355,nan,-6.585432579609303
K AE NG,3,-2.513338043161899,-2.513338043161899,-2.513343712851455,-2.513343712851455,-2.410000929527506,-5.654182548755952,-0.2970952958095732,-3.9831474968086185,-4.836281906951478,-11.016282128775599,0.2205286940774758,-4.416420564171149,nan,-6.677532071495298
K AE TH,3,-2.575127069359534,-2.575127069359534,-2.57513273904909,-2.57513273904909,-2.892845618662266,-5.992165359682532,-1.022261259658621,-4.247903698175977,-3.855452653939752,-10.035452875763873,0.13109493362392222,-4.65062962774164,nan,-6.912023262307045
K AE Z,3,-2.4724656509196103,-2.4724656509196103,-2.4724713206091664,-2.4724713206091664,-2.8806698183128483,-5.9842601801754185,-0.5985687919130894,-4.024418091103343,-4.836281906951478,-11.016282128775599,0.20685600525637401,-4.4220798888400505,nan,-6.683473523405455
K AE ZH,3,-2.610981897248006,-2.610981897248006,-2.610987566937562,-2.610987566937562,-3.000525740754525,-6.060591498368822,-1.5384725700711237,-4.304921251357068,-3.4499875458315876,-9.629987767655708,-0.5663789552248517,-4.702598876941064,nan,-6.963616924647593
K EH K,3,-2.070006444713593,-2.070006444713593,-2.070012114403149,-2.070012114403149,-1.9545176375195323,-5.237460286123153,-1.001845213379092,-3.8503383392044928,-4.820281565605037,-12.114894417443708,0.11369519030067889,-4.392995064661093,nan,-6.654113103248456
K EH L,3,-1.9785268718491102,-1.9785268718491102,-1.9785325415386663,-1.9785325415386663,-2.4289886980961803,-5.696578107723638,-0.8975822429092097,-3.6458504869532775,-2.740840023925201,-10.035452875763873,0.2709867008787945,-4.07966620030868,nan,-6.341059834874085
K EH S,3,-1.9745573947403992,-1.9745573947403992,-1.9745630644299552,-1.9745630644299552,-2.230562898687224,-5.505437287495602,-0.9044241210662037,-3.665911719916611,-3.721669276936927,-11.016282128775599,0.22485925504464563,-4.1233214747092,nan,-6.384715109274604
L AE L,3,-1.9375933532871081,-1.9375933532871081,-1.9375990229766642,-1.9375990229766642,-2.008308201550152,-5.2652048147568085,-0.9560171615801626,-3.923774565323656,-6.115892125483034,-12.114894417443708,0.1551214077533145,-4.464392778528375,nan,-6.725490423747236
L AE N,3,-1.8484817443689863,-1.8484817443689863,-1.8484874140585423,-1.8484874140585423,-1.2943856203783006,-4.682832039698769,-0.6507548342524117,-3.6766748451536526,-1.5107219394949427,-7.509724231455617,0.3636859513811671,-4.280493623300343,nan,-6.559028405412792
L AE T,3,-1.8764479361002304,-1.8764479361002304,-1.8764536057897865,-1.8764536057897865,-2.0408677064647183,-5.289801524017662,-0.8353227702686817,-3.702116530499513,-2.4270126713690976,-8.426014963329772,0.3096768844926107,-4.182276789688821,nan,-6.44971679806609
L EH L,3,-1.8947189145770182,-1.8947189145770182,-1.8947245842665743,-1.8947245842665743,-2.1015205132151746,-5.248717440647788,-0.9843334186880607,-3.920563496737709,-4.632298853376344,-10.728600056323817,0.2589419247505676,-4.4470775990462865,nan,-6.70876222735738
L IH S,3,-1.6920859333990883,-1.6920859333990883,-1.6920916030886444,-1.6920916030886444,-1.4331240448439027,-4.184657533486337,-0.7999332432080498,-3.6432307249759175,-1.9365292172215478,-7.084456496051273,0.35215785274459827,-4.436082117897228,nan,-6.733513048859552
M AE B,3,-2.5440440802942663,-2.5440440802942663,-2.5440497499838224,-2.5440497499838224,-2.150367139043434,-5.602700592920808,-1.6595530704377954,-4.58862717542921,-6.093569770045136,-12.114894417443708,0.06256675775587728,-5.1146596934982504,nan,-7.375486273894789
M AE L,3,-2.147229921433178,-2.147229921433178,-2.147235591122734,-2.147235591122734,-1.8026062086476577,-5.278075005277343,-0.8272038935447614,-3.7925032705667143,-2.627833867245409,-8.649158514643982,0.25561894591025336,-4.269958183453935,nan,-6.5333035141743565
M AE V,3,-2.640430340525686,-2.640430340525686,-2.640436010215242,-2.640436010215242,-2.285411511629853,-5.726550381259429,-1.1394530082836383,-4.471218321255209,-4.994957481377026,-11.016282128775599,0.1468012339399967,-4.952197487106648,nan,-7.213109077796727
M AE Z,3,-2.6704446952079612,-2.6704446952079612,-2.6704503648975173,-2.6704503648975173,-2.395838100796419,-5.8267406032820555,-0.6117659586653804,-4.31694544432387,-6.093569770045136,-12.114894417443708,0.21742445724740364,-4.760597348308032,nan,-7.021592972917934
M EH K,3,-2.1979562369599805,-2.1979562369599805,-2.1979619066495366,-2.1979619066495366,-1.5830595679574786,-4.931293398997269,-0.9551080547335054,-4.0268835080486145,-3.9415818076696905,-10.035452875763873,0.1616572471145849,-4.67517959715368,nan,-6.936207801420847
M EH M,3,-2.3447129169841907,-2.3447129169841907,-2.3447185866737468,-2.3447185866737468,-2.0294148963456973,-5.40056469573133,-1.1648127832737272,-4.264113744446286,-2.842969519001581,-8.936840587095762,0.1965915785050849,-4.81289684771088,nan,-7.078072793992784
M IH M,3,-2.0471741998190316,-2.0471741998190316,-2.0471798695085877,-2.0471798695085877,-1.8311406723197663,-4.929463572320193,-1.091954314252372,-4.130538889623003,-4.605170185988091,-10.323134948215653,0.20295331707171055,-4.7827355033749415,nan,-7.043722220335546
M IH P,3,-2.061951268248589,-2.061951268248589,-2.0619569379381453,-2.0619569379381453,-1.9355577083968096,-5.110323674707151,-1.3576218709581584,-4.3191472800758115,-6.396929655216146,-12.114894417443708,0.32334160165718256,-4.921338166813715,nan,-7.182264402445629
N AE L,3,-1.8484817443689863,-1.8484817443689863,-1.8484874140585423,-1.8484874140585423,-2.2816153917434154,-5.6044943153748354,-1.0484828208895474,-4.048228739797062,-2.338303175596125,-9.023851964085392,0.20468724981717662,-4.548662881528542,nan,-6.815870485959367
N EH N,3,-1.7304067221419102,-1.7304067221419102,-1.7304123918314662,-1.7304123918314662,-1.4479023248677076,-4.685693271979802,-0.7334386393907951,-3.726596083529022,-2.8943321591122615,-9.47583708782845,0.16676743001150743,-4.393270736613219,nan,-6.657978375868661
N IH N,3,-1.5585699364037469,-1.5585699364037469,-1.558575606093303,-1.558575606093303,-1.5641268556950814,-4.1903158728486245,-0.8106542221728372,-3.5595576242320757,-3.398294622004194,-8.979400201514558,0.1838397529732922,-4.366341324734587,nan,-6.632307932971934
N IH S,3,-1.6217084250041975,-1.6217084250041975,-1.6217140946937536,-1.6217140946937536,-1.7278143970305895,-4.361266272873605,-0.9329570842406253,-3.766588981801244,-1.9088160246490724,-7.489921604159437,0.2948097445094671,-4.553181933764004,nan,-6.832529371946006
P AE B,3,-2.568448009279862,-2.568448009279862,-2.568453678969418,-2.568453678969418,-2.522942305724907,-5.9842601801754185,-1.677509698254916,-4.378165918111641,-5.579729825986222,-12.114894417443708,0.004772241075938266,-4.8276868912372075,nan,-7.088654903323321
P AE G,3,-2.7016413356401774,-2.7016413356401774,-2.7016470053297335,-2.7016470053297335,-2.560302285446308,-6.018976617133188,-1.5434377244419355,-4.380116377087697,-5.579729825986222,-12.114894417443708,0.06005229719062838,-4.821321497370131,nan,-7.082292209535493
P AE JH,3,-2.7438409616628747,-2.7438409616628747,-2.743846631352431,-2.743846631352431,-2.854342722108611,-6.288704885968373,-1.0756437894783155,-4.333578612861599,-4.193435464866331,-10.728600056323817,0.0775543434110873,-4.744407458654637,nan,-7.005409473869041
P AE V,3,-2.6673370708555293,-2.6673370708555293,-2.6673427405450854,-2.6673427405450854,-2.7254913012808735,-6.171317341715207,-1.1500886143324656,-4.282005819706681,-5.579729825986222,-12.114894417443708,0.08969202910502444,-4.704102636622929,nan,-6.965120119218506
P AE Z,3,-2.6981827299739747,-2.6981827299739747,-2.6981883996635307,-2.6981883996635307,-2.902640603348881,-6.332348175700281,-0.6180269350734998,-4.152686826615503,-3.970291913552122,-10.505456505009608,0.1807127059835236,-4.549629532159636,nan,-6.811668119988288
P EH L,3,-2.1101154027068363,-2.1101154027068363,-2.110121072396393,-2.110121072396393,-1.9072818300323855,-5.263926859311316,-0.7947194791075031,-3.6558307976450064,-2.6216655869033896,-8.747598587457235,0.3002064088637618,-4.12606149117739,nan,-6.389991052714673
P EH M,3,-2.364662213817607,-2.364662213817607,-2.3646678835071633,-2.3646678835071633,-2.055281106012532,-5.419781842917107,-1.083036686821026,-4.060066533051171,-5.988961416889864,-12.114894417443708,0.13831653019369622,-4.578408496709679,nan,-6.83947040130024
P EH S,3,-2.105588924458655,-2.105588924458655,-2.105594594148211,-2.105594594148211,-1.7848308163790354,-5.135838092575934,-0.8008905010193842,-3.6760953029757397,-3.349904087274605,-9.47583708782845,0.2573720532850334,-4.174049950626568,nan,-6.436329717283631
P IH M,3,-2.061951268248589,-2.061951268248589,-2.0619569379381453,-2.0619569379381453,-2.2173680484586904,-5.190092597300264,-1.138847889351084,-4.012181364654907,-4.756459633534318,-11.016282128775599,0.12921077096852251,-4.585734536801752,nan,-6.846794002608827
R AE L,3,-1.9753336812699551,-1.9753336812699551,-1.9753393509595112,-1.9753393509595112,-1.8875623630675857,-5.025322348645545,-0.8257706864574891,-3.7136796577410998,-4.890349128221754,-10.505456505009608,0.13878582836661987,-4.26509554318922,nan,-6.526731749011121
R EH L,3,-1.9308463775495746,-1.9308463775495746,-1.9308520472391308,-1.9308520472391308,-1.9050288724681272,-4.93588266818091,-0.8321803761304644,-3.695202922714695,-3.510834454087242,-9.070371979720285,0.3146545991654173,-4.218884264821368,nan,-6.481668397872693
R EH M,3,-2.1389158750890602,-2.1389158750890602,-2.1389215447786163,-2.1389215447786163,-2.0526692434905063,-5.045648251659585,-1.1333357777572364,-4.119646194932629,-3.336481066942464,-8.896018592575508,0.21806623530306402,-4.716214821033379,nan,-6.984103225324797
R EH P,3,-2.155124314559176,-2.155124314559176,-2.1551299842487324,-2.1551299842487324,-2.2411304146720896,-5.179473028472803,-1.4375375363883844,-4.28484169541085,-2.8176872735272966,-8.37722479916034,0.205281974360374,-4.869413935463876,nan,-7.1357019068294205
R EH S,3,-1.927061376445148,-1.927061376445148,-1.9270670461347041,-1.9270670461347041,-1.7828372552400964,-4.841995261349572,-0.8385877108217944,-3.7162898389238723,-1.6878224413550824,-7.2473599669881255,0.4091280501543771,-4.241841468866063,nan,-6.519480085615801
R IH DH,3,-2.122160906651442,-2.122160906651442,-2.1221665763409985,-2.1221665763409985,-2.1087298828160814,-4.907762901587075,-1.3520763532169442,-4.330601312560317,-5.643678550586496,-10.728600056323817,-0.42794313301302,-5.036669791681973,nan,-7.297538904861107
R IH N,3,-1.6519501982563578,-1.6519501982563578,-1.6519558679459139,-1.6519558679459139,-1.3350471831884865,-4.0139043693740515,-0.6073804649525628,-3.340754865898402,-2.855585641810749,-7.940507147548071,0.32268794702517867,-4.06784833617859,nan,-6.338242931602972
R IH S,3,-1.7214883294843153,-1.7214883294843153,-1.7214939991738714,-1.7214939991738714,-1.4629706348754459,-4.155149298866356,-0.7060345848603297,-3.503574416546732,-2.2424811689243405,-7.327402674661662,0.3755917237441624,-4.208516702772511,nan,-6.485385874272826
R IH SH,3,-2.0167672554479297,-2.0167672554479297,-2.0167729251374857,-2.0167729251374857,-1.8642709120943937,-4.613172723668658,-1.2104571537009026,-4.130538889623003,-3.59598570722124,-8.680907212958562,0.3628223479268422,-4.8605760520435775,nan,-7.129476897843577
R IH TH,3,-2.100202581569731,-2.100202581569731,-2.1002082512592875,-2.1002082512592875,-2.087978087990994,-4.882154438172749,-0.9217493335919018,-4.271092139827748,-5.931360623038277,-11.016282128775599,0.3179721973106644,-4.9555783162143525,nan,-7.216488274833206
R IH V,3,-2.0191131224681467,-2.0191131224681467,-2.0191187921577027,-2.0191187921577027,-1.7398421344502908,-4.46829686292116,-0.9025455970372621,-4.002498663938489,-3.1179499062782403,-8.202871412015563,0.5084940833687757,-4.6981011182342325,nan,-6.968888021189456
R IH Z,3,-2.035125861302857,-2.035125861302857,-2.0351315309924134,-2.0351315309924134,-1.844646164133577,-4.590122641594502,-0.4762646913789306,-3.940741040175461,-2.952435467800667,-8.037356973537989,0.31362128806651046,-4.627713059914756,nan,-6.899970652741538
R IH ZH,3,-2.1223502736926747,-2.1223502736926747,-2.1223559433822308,-2.1223559433822308,-2.105121124552839,-4.903300600563677,-1.3614136202747584,-4.329115979944126,-7.029972911706386,-12.114894417443708,-0.5009891827462325,-5.039822710741588,nan,-7.300690167973097
S AE N,3,-1.8449954792245875,-1.8449954792245875,-1.8450011489141436,-1.8450011489141436,-1.4340624853509556,-4.9104498714079,-0.5643614044145239,-3.394369520378588,-1.9050881545350582,-8.896018592575508,0.3047440971224121,-3.896102886773015,nan,-6.15799975040213
S EH B,3,-2.1834573517237277,-2.1834573517237277,-2.1834630214132837,-2.1834630214132837,-2.6961858327164863,-5.609894868554836,-1.6502164848020806,-4.076071447425436,-6.336825731146441,-12.114894417443708,0.02421135948187003,-4.53332221635106,nan,-6.794398742938543
S EH CH,3,-2.3351198116055834,-2.3351198116055834,-2.3351254812951394,-2.3351254812951394,-2.688179419839375,-5.6044943153748354,-1.112418830076856,-4.062053194695079,-6.336825731146441,-12.114894417443708,0.08467814411787433,-4.518525787108303,nan,-6.779606970491663
S EH DH,3,-2.3812689399371627,-2.3812689399371627,-2.3812746096267188,-2.3812746096267188,-2.7042568659661184,-5.615324746149205,-1.4136709845638942,-4.107383442194384,-6.336825731146441,-12.114894417443708,-0.6108870030399531,-4.568175695752124,nan,-6.829240977006419
S EH G,3,-2.2721309882574223,-2.2721309882574223,-2.2721366579469784,-2.2721366579469784,-2.5610485690967653,-5.5168846733359524,-1.463127964898153,-4.0583668159280775,-4.034240638152395,-9.812309324449663,0.04959360018308373,-4.5266839748097665,nan,-6.788707927706787
S EH M,3,-2.0901578028308645,-2.0901578028308645,-2.0901634725204206,-2.0901634725204206,-2.1333616590885964,-5.198430942217418,-1.0530210604185457,-3.8332439058451926,-2.5756256154528785,-8.353694301750146,0.2345676447926756,-4.326099208456154,nan,-6.5908498506932505
S EH NG,3,-2.303129532914939,-2.303129532914939,-2.303135202604495,-2.303135202604495,-2.7233465340626175,-5.6281103084461765,-0.3183087917668722,-3.8790216627204326,-5.643678550586496,-11.421747236883762,0.16848756351457084,-4.316350542230289,nan,-6.57748891195704
S EH P,3,-2.105588924458655,-2.105588924458655,-2.105594594148211,-2.105594594148211,-2.3394050310410033,-5.356176592962536,-1.3301538281486658,-3.954677665087591,-2.04636628999805,-7.824434976295317,0.24484211195230576,-4.423499738574535,nan,-6.700646240779201
S EH R,3,-1.927061376445148,-1.927061376445148,-1.9270670461347041,-1.9270670461347041,-1.503371323902471,-4.675005603449306,-1.0210149558325854,-3.784507549956868,-3.34109345759245,-9.119162143889717,0.22481696509398086,-4.4040816527174345,nan,-6.668266246392862
S EH S,3,-1.8874303073397662,-1.8874303073397662,-1.8874359770293223,-1.8874359770293223,-1.8438503886778235,-4.964816091035913,-0.7781707213818854,-3.516167599571559,-2.5301632413761213,-8.308231927673388,0.3225057920143165,-4.00084868839321,nan,-6.26747011679162
S EH SH,3,-2.2467183159393693,-2.2467183159393693,-2.2467239856289254,-2.2467239856289254,-2.517533738089594,-5.486113014669199,-1.3366409703594382,-4.02496543649194,-3.3923867519800006,-9.170455438277267,0.14459331336484077,-4.492005577298907,nan,-6.757974482923142
S EH V,3,-2.2496715760663415,-2.2496715760663415,-2.2496772457558976,-2.2496772457558976,-2.433740138226141,-5.42576988476173,-1.0308252346990479,-3.957744368232152,-3.5642370089066597,-9.342305695203928,0.1359884390344353,-4.432061434709347,nan,-6.693168495265053
S EH ZH,3,-2.381514323657184,-2.381514323657184,-2.38151999334674,-2.38151999334674,-2.717855056778607,-5.6244405795572145,-1.4291926081931754,-4.109168625649737,-6.336825731146441,-12.114894417443708,-0.5976878706347454,-4.568175695752124,nan,-6.829240977006419
S IH JH,3,-2.013322422475323,-2.013322422475323,-2.013328092164879,-2.013328092164879,-2.147563256600645,-4.972420690421132,-0.8882222154157803,-3.889724583298644,-4.091960770866825,-9.47583708782845,0.4366065340528328,-4.421228945660069,nan,-6.684325191306474
S IH M,3,-1.8521970082598123,-1.8521970082598123,-1.8522026779493683,-1.8522026779493683,-1.9540718341998258,-4.732622704201785,-1.0068136376316483,-3.7270024224212444,-2.723684915249612,-8.107561232211237,0.2328975608177895,-4.314310245679612,nan,-6.578765888251113
S IH Z,3,-1.9910703602924782,-1.9910703602924782,-1.9910760299820343,-1.9910760299820343,-2.010125262830941,-4.800972282002995,-0.4632592670641753,-3.7267992323362216,-2.946828466563822,-8.330704783525448,0.2622422836836519,-4.290145968998846,nan,-6.555776370026415
SH AE N,3,-2.1864817000141357,-2.1864817000141357,-2.1864873697036917,-2.1864873697036917,-1.4364007339497782,-4.999501649023803,-0.7424888052683085,-3.870072003361443,-2.681021528714291,-10.505456505009608,0.21008335606965658,-4.470033286283828,nan,-6.731129257504276
SH EH N,3,-2.1318168429731106,-2.1318168429731106,-2.1318225126626666,-2.1318225126626666,-1.4712352732441862,-4.8212734258208485,-0.7599109597220999,-3.824468959226076,-3.2321210516182215,-11.016282128775599,0.1299914950184844,-4.4871482514160475,nan,-6.7488447786083325
SH IH S,3,-1.97349608351334,-1.97349608351334,-1.973501753202896,-1.973501753202896,-1.7216888223654512,-4.656746669223095,-0.9344071406250822,-3.9457864595566603,-2.782951509275328,-9.629987767655708,0.24257156036123823,-4.686944438733266,nan,-6.949818458469106
T AE L,3,-1.8764479361002304,-1.8764479361002304,-1.8764536057897865,-1.8764536057897865,-2.1476047541686576,-5.434819720281649,-0.9691946091740992,-3.887574815362151,-2.1132389212631266,-8.426014963329772,0.22797712361701333,-4.379851392420543,nan,-6.648617074025078
T EH M,3,-2.0234353716278237,-2.0234353716278237,-2.02344104131738,-2.02344104131738,-2.22794530313937,-5.293741122021743,-1.300134039037976,-4.347087261060121,-2.321161478566981,-8.243693406535817,0.2357906855133322,-4.943078153450121,nan,-7.210702337766162
T EH T,3,-1.780663279599457,-1.780663279599457,-1.780668949289013,-1.780668949289013,-2.1917017388752456,-5.2652048147568085,-0.8608400512863479,-3.646225299551369,-3.7074558396868715,-9.629987767655708,0.34471580179838784,-4.114728736100835,nan,-6.3771663210690175
T IH S,3,-1.6439367210870754,-1.6439367210870754,-1.6439423907766317,-1.6439423907766317,-1.2685725999179431,-4.00843090195988,-0.7271108783038579,-3.517814775038696,-2.998395390973475,-7.7974063039073975,0.2145886708629742,-4.4007427514519195,nan,-6.679226030116062
TH AE N,3,-2.286142792277638,-2.286142792277638,-2.286148461967194,-2.286148461967194,-1.4151008779446783,-5.0233122977175215,-0.748092670458469,-3.905632366333282,-3.891820298110627,-12.114894417443708,0.12614346178517122,-4.515717234786264,nan,-6.776799294337464
TH IH S,3,-2.0532532458954136,-2.0532532458954136,-2.0532589155849696,-2.0532589155849696,-1.5839420404624542,-4.732622704201786,-0.9162711851641753,-4.005715824890265,-3.39002408106403,-11.016282128775599,0.21814081864500023,-4.743233060398695,nan,-7.0046266949641005
V AE S,3,-2.3113890996791677,-2.3113890996791677,-2.311394769368724,-2.311394769368724,-2.003457050342421,-5.759543064413779,-1.0468601000157358,-4.178842406176528,-2.667228206581955,-9.812309324449663,0.22939822953372024,-4.670439387730875,nan,-6.931469319800909
V EH L,3,-2.254901403325428,-2.254901403325428,-2.254907073014984,-2.254907073014984,-1.8639827717159412,-5.553739765725107,-0.9456757818879814,-4.080981204580599,-2.41789593950504,-9.224522659547544,0.3313757545334184,-4.574104566874402,nan,-6.839802131275086
V EH R,3,-2.3071083933906626,-2.3071083933906626,-2.3071140630802187,-2.3071140630802187,-1.4331010841191871,-4.972420690421132,-1.2495913969334151,-4.66923120784384,-1.9760631872260008,-8.782689907268505,0.29170888482786833,-5.611218133265422,nan,-7.878219259159772
V EH S,3,-2.2496715760663415,-2.2496715760663415,-2.2496772457558976,-2.2496772457558976,-1.7464274777626239,-5.3860295561122165,-0.9528559641806628,-4.112151031677857,-2.312535423847214,-9.119162143889717,0.32470623914287144,-4.644230743483361,nan,-6.908818701971669
V IH L,3,-1.9797166887987148,-1.9797166887987148,-1.9797223584882708,-1.9797223584882708,-1.7383909632032073,-5.162020578521577,-0.9124392878482359,-4.002766365720305,-2.7323148231018415,-9.170455438277267,0.292345152448573,-4.57212436820754,nan,-6.836159139996584
V IH N,3,-1.8869437894880634,-1.8869437894880634,-1.8869494591776195,-1.8869494591776195,-1.324131571422803,-4.380085437785593,-0.7149149321279304,-3.656966946223953,-2.3094579722818076,-8.747598587457235,0.3023166638153636,-4.39575520994088,nan,-6.660748460742476
V IH S,3,-1.9757424953061462,-1.9757424953061462,-1.9757481649957023,-1.9757481649957023,-1.4505746100354702,-4.590773895280822,-0.8254101028867445,-3.887813450371039,-2.7323148231018415,-9.170455438277267,0.2965788358834391,-4.619036968704692,nan,-6.883198771127709
W AE N,3,-2.2339324617199647,-2.2339324617199647,-2.233938131409521,-2.233938131409521,-1.425833546985821,-5.005401371150991,-0.7104104193276106,-3.8012198217239512,-4.204692619390966,-12.114894417443708,0.11766358234238308,-4.386949429319584,nan,-6.648069128805888
W IH S,3,-2.0116680220301033,-2.0116680220301033,-2.0116736917196594,-2.0116736917196594,-1.217021128017717,-4.557458834775711,-0.6392435429616258,-3.8357328764705407,-2.5825451193519164,-8.856797879422226,0.3278244590227118,-4.543843595092593,nan,-6.809090798973988
Y AE N,3,-2.2573369307383158,-2.2573369307383158,-2.257342600427872,-2.257342600427872,-1.4651739223299929,-5.024316818143527,-0.7600129401316633,-3.8940380335523628,-3.8501476017100584,-12.114894417443708,0.11707045748924663,-4.500870070619888,nan,-6.761956721299535
Y IH S,3,-2.0303641536779216,-2.0303641536779216,-2.0303698233674776,-2.0303698233674776,-2.122261460302545,-4.764662057946402,-1.0878812991300855,-4.003837890066064,-3.8501476017100584,-12.114894417443708,0.14065799588458644,-4.7307912202753295,nan,-6.991798530709988
Z AE N,3,-2.2082732795823214,-2.2082732795823214,-2.2082789492718775,-2.2082789492718775,-1.397343039855914,-5.003430927163692,-0.7592249742825857,-3.926995978095875,-3.5409593240373143,-11.421747236883762,0.12761193732800838,-4.550919854919306,nan,-6.812313489484711
Z IH S,3,-1.9910703602924782,-1.9910703602924782,-1.9910760299820343,-1.9910760299820343,-1.4583232969539512,-4.658836534142554,-0.9297684688763618,-4.007059369362152,-2.1612309746883143,-9.023851964085392,0.29069901194649744,-4.7827355033749415,nan,-7.051892200420309
B AO CH,3,-3.2469106381568857,-3.2469106381568857,-3.2469163078464423,-3.2469163078464423,-3.3570611020526293,-7.090777648350641,-1.3669148347441822,-4.79696978813132,-4.388257184424518,-11.421747236883762,-0.04233084983810914,-5.203580797770912,nan,-7.464974432336318
B AO TH,3,-3.2917799275830815,-3.2917799275830815,-3.2917855972726375,-3.2917855972726375,-3.119012653870187,-6.9434529335937825,-1.1511704390916306,-4.793421588075223,-5.081404364984463,-12.114894417443708,0.035873642133692596,-5.208552840332005,nan,-7.46932361595482
B AW JH,3,-3.379692624026655,-3.379692624026655,-3.379698293716211,-3.379698293716211,-4.181793233879989,-8.07691195359206,-1.2854547826546188,-4.743900820001092,-4.394449154672439,-12.114894417443708,0.025447552517209315,-5.117499797650998,nan,-7.378324765723968
CH AO B,3,-3.2469106381568857,-3.2469106381568857,-3.2469163078464423,-3.2469163078464423,-4.457466542634882,-9.093846211245904,-2.9809901694918444,-6.387627805913824,-3.7612001156935624,-12.114894417443708,-0.13859329063240586,-6.772320715932916,nan,-9.030742580109164
CH AO CH,3,-3.7704503696184988,-3.7704503696184988,-3.7704560393080553,-3.7704560393080553,-4.909224212720641,-9.847618013622284,-1.699352813437612,-6.285470088160522,-3.7612001156935624,-12.114894417443708,-0.09207309527242633,-6.64663250076942,nan,-8.90540490185495
CH AO D,3,-2.95308856203796,-2.95308856203796,-2.953094231727516,-2.953094231727516,-3.682163170706092,-8.098418158813024,-1.205646010952639,-4.680767780472255,-3.7612001156935624,-12.114894417443708,0.131370863364432,-5.058415543818205,nan,-7.3192731290542365
CH AO G,3,-3.528971996130842,-3.528971996130842,-3.5289776658203986,-3.5289776658203986,-3.4960042851269564,-7.884008287467569,-2.31316272079224,-6.25700762349676,-3.7612001156935624,-12.114894417443708,0.09319649653827222,-6.6867985424947545,nan,-8.945463662406954
CH AO NG,3,-3.642439848446211,-3.642439848446211,-3.6424455181357676,-3.6424455181357676,-3.4507202655764178,-7.832714993080019,-0.4979716591541018,-5.178146943018164,-3.7612001156935624,-12.114894417443708,0.22611715085219644,-5.566563789813479,nan,-7.827066555723083
CH AO SH,3,-3.442379467314875,-3.442379467314875,-3.442385137004431,-3.442385137004431,-4.49869273966006,-9.154470833062337,-2.227378768279597,-6.114587283454991,-3.7612001156935624,-12.114894417443708,-0.03289521166038192,-6.49135759372988,nan,-8.750506558441462
CH AO TH,3,-3.847401568283379,-3.847401568283379,-3.8474072379729356,-3.8474072379729356,-4.089864258987944,-8.594855045126915,-1.40986582743539,-6.269844770257441,-3.7612001156935624,-12.114894417443708,-0.0038237061314025933,-6.665176078481588,nan,-8.923899484491114
CH AO Z,3,-3.521078991441944,-3.521078991441944,-3.5210846611315,-3.5210846611315,-4.118227024236154,-8.631222689297791,-0.8373562950513667,-5.2116597793930035,-3.7612001156935624,-12.114894417443708,0.13099497534139526,-5.584549886183261,nan,-7.845036491208023
CH UW DH,3,-4.02267916406123,-4.02267916406123,-4.022684833750786,-4.022684833750786,-2.0555627042480458,-7.217529353989786,-1.6157291653299888,-6.417128470310522,-4.927253685157205,-12.114894417443708,-0.8315906184315996,-7.147014165374327,nan,-9.404088138795215
CH UW SH,3,-3.466779673174264,-3.466779673174264,-3.4667853428638202,-3.4667853428638202,-1.8647726206401376,-6.845655190317657,-1.4735472601096924,-5.836352349894621,-4.927253685157205,-12.114894417443708,-0.06202776867123182,-6.489112923876057,nan,-8.748266915847957
CH UW TH,3,-3.8842122195939144,-3.8842122195939144,-3.884217889283471,-3.884217889283471,-1.9748290168447868,-7.051862232100968,-1.063723873012636,-6.03386407218255,-4.927253685157205,-12.114894417443708,-0.033019757302305136,-6.667853456252304,nan,-8.926569713046995
CH UW V,3,-3.476819001812536,-3.476819001812536,-3.476824671502092,-3.476824671502092,-1.9146293820350258,-6.936626968523384,-1.1739032239016653,-5.546160865837414,-4.927253685157205,-12.114894417443708,0.0929575375591479,-6.085143702359475,nan,-8.345041450333296
CH UW ZH,3,-4.023946591353833,-4.023946591353833,-4.023952261043389,-4.023952261043389,-1.9442762683223314,-6.992585622171428,-1.5621303229017118,-6.3393915049543414,-4.927253685157205,-12.114894417443708,-0.9525164269713895,-7.15570987234188,nan,-9.41274620153833
D AO TH,3,-2.986342109301017,-2.986342109301017,-2.9863477789905732,-2.9863477789905732,-3.6039542909611537,-7.352348576798736,-1.1850162111723466,-4.676032175726421,-4.718498871295094,-12.114894417443708,0.040155054627195985,-5.061100109188874,nan,-7.321956253819275
F AW JH,3,-3.4880726949737735,-3.4880726949737735,-3.4880783646633295,-3.4880783646633295,-4.569740773298145,-8.749005724954175,-1.3208940320039195,-4.83070792776317,-4.0943445622221,-12.114894417443708,0.0191912850069742,-5.197400308381529,nan,-7.458177989739903
F UW DH,3,-3.497954382542872,-3.497954382542872,-3.497960052232428,-3.497960052232428,-4.776386385317812,-8.882537117578696,-1.967006848925737,-5.052014931270079,-3.951243718581427,-12.114894417443708,-0.7357688354795495,-5.417775053127606,nan,-7.678400933336682
F UW SH,3,-3.1333477029041203,-3.1333477029041203,-3.1333533725936764,-3.1333533725936764,-3.342823279719147,-7.664379678260804,-1.7705430041659107,-4.868801825031602,-3.951243718581427,-12.114894417443708,-0.016497866387969656,-5.2649418965475885,nan,-7.525676552505951
F UW TH,3,-3.4137262142922413,-3.4137262142922413,-3.413731883981798,-3.413731883981798,-3.9533317639667813,-8.213487488597812,-1.2507246724020975,-4.939341768765965,-3.951243718581427,-12.114894417443708,0.011236764488690015,-5.314259556443349,nan,-7.574960909914994
F UW V,3,-3.140530234598314,-3.140530234598314,-3.14053590428787,-3.14053590428787,-3.5826449256705355,-7.884008287467569,-1.3851467453824602,-4.748405332122196,-3.951243718581427,-12.114894417443708,0.13207668243608878,-5.128366361541838,nan,-7.389185118252952
F UW ZH,3,-3.4987041482762145,-3.4987041482762145,-3.4987098179657705,-3.4987098179657705,-3.7509097011260986,-8.035239257191492,-1.8916808846019957,-5.031582892452873,-3.951243718581427,-12.114894417443708,-0.8450177546902298,-5.419312332446492,nan,-7.679937031949021
G AO B,3,-3.096933587092556,-3.096933587092556,-3.096939256782112,-3.096939256782112,-3.7190180525144934,-8.035239257191492,-2.5030881336787636,-5.459776251638593,-4.31748811353631,-12.114894417443708,-0.11939056742976875,-5.848912516289897,nan,-8.109124815809471
G AO CH,3,-3.528971996130842,-3.528971996130842,-3.5289776658203986,-3.5289776658203986,-3.909810810602088,-8.238180101188183,-1.5422881430578834,-5.418127013172086,-4.31748811353631,-12.114894417443708,-0.07373527313452513,-5.797087448425311,nan,-8.057359377881516
G AO TH,3,-3.5889083160333106,-3.5889083160333106,-3.5889139857228667,-3.5889139857228667,-3.5265025171681597,-7.832714993080018,-1.2900196371216008,-5.411533582692254,-4.31748811353631,-12.114894417443708,0.012978103162984311,-5.804974813258477,nan,-8.065237865453597
G AW CH,3,-3.864285260244501,-3.864285260244501,-3.8642909299340573,-3.8642909299340573,-3.827519626147651,-8.982620576135679,-1.534090460396518,-5.441552512682142,-3.1135153092103742,-11.421747236883762,0.028094970608609576,-5.80723981988933,nan,-8.067500309857566
G AW D,3,-2.993444331815869,-2.993444331815869,-2.9934500015054253,-2.9934500015054253,-2.9830350185815173,-8.289473395575733,-1.0722732042536354,-4.452573713371978,-3.8066624897703196,-12.114894417443708,0.1977722509926691,-4.821321497370132,nan,-7.082292209535493
G AW R,3,-2.662774944816648,-2.662774944816648,-2.6627806145062043,-2.6627806145062043,-3.581189573267268,-8.791565339372971,-2.316691766083272,-5.170371525875366,-3.8066624897703196,-12.114894417443708,0.14569154105212084,-5.536710826663798,nan,-7.797239783267849
G AW TH,3,-3.949136809180701,-3.949136809180701,-3.949142478870257,-3.949142478870257,-3.760019460396099,-8.931327281748128,-1.3121534114022555,-5.45633390744762,-3.8066624897703196,-12.114894417443708,-0.0901495659210566,-5.829017184812693,nan,-8.08925274165747
G AW Z,3,-3.5934332106316003,-3.5934332106316003,-3.5934388803211563,-3.5934388803211563,-3.429540428703996,-8.668963017280637,-0.761348015678953,-4.845523013548311,-3.8066624897703196,-12.114894417443708,0.14134802051072756,-5.213549727681109,nan,-7.474317384135306
G UW DH,3,-3.7214727464551727,-3.7214727464551727,-3.7214784161447287,-3.7214784161447287,-4.480816165305068,-8.836017101943805,-2.1108814151429076,-5.622971542339021,-3.951243718581427,-12.114894417443708,-0.7622981474533892,-5.990922847281605,nan,-8.250955011248688
G UW SH,3,-3.2831271221732896,-3.2831271221732896,-3.2831327918628457,-3.2831327918628457,-3.2640085658143136,-7.650393436286064,-1.8871909217641543,-5.318516181642412,-3.951243718581427,-12.114894417443708,-0.02933259196023233,-5.734023077286193,nan,-7.994363525866939
G UW TH,3,-3.617214055953065,-3.617214055953065,-3.617219725642621,-3.617219725642621,-3.812701353358019,-8.18938993701875,-1.3184357120320336,-5.431445745012367,-3.951243718581427,-12.114894417443708,-0.0012446854458458,-5.8140657849597295,nan,-8.074318518089342
G UW V,3,-3.2914750495319396,-3.2914750495319396,-3.2914807192214957,-3.2914807192214957,-3.48349784407066,-7.866616544755701,-1.4629882774446308,-5.1356957473125435,-3.951243718581427,-12.114894417443708,0.12102380568932875,-5.523818512298403,nan,-7.784358540324567
G UW ZH,3,-3.7224103930311365,-3.7224103930311365,-3.7224160627206926,-3.7224160627206926,-3.6346134640820638,-8.015036549873974,-2.024390307213076,-5.587087293546631,-3.951243718581427,-12.114894417443708,-0.8746554207925236,-5.993651361934809,nan,-8.253679808574875
HH UW DH,3,-3.908208906764913,-3.908208906764913,-3.908214576454469,-3.908214576454469,-3.763347134287364,-8.400699030685958,-1.9241988106114989,-5.239856281287631,-4.127134385045092,-12.114894417443708,-0.7328525078381012,-5.606569124427178,nan,-7.867035545203391
HH UW SH,3,-3.399531875932246,-3.399531875932246,-3.399537545621802,-3.399537545621802,-2.9934031187176613,-7.4962427564588054,-1.7352375395707629,-5.022634286876858,-4.127134385045092,-12.114894417443708,-0.015076239631237859,-5.424711497124264,nan,-7.6853320354006796
HH UW ZH,3,-3.909339169671336,-3.909339169671336,-3.9093448393608923,-3.9093448393608923,-3.2629347045779715,-7.799925170257028,-1.8519180368201678,-5.2152536736475925,-4.127134385045092,-12.114894417443708,-0.8417653131949752,-5.608426135174391,nan,-7.868890833305137
JH AO B,3,-3.1602516070044118,-3.1602516070044118,-3.160257276693968,-3.160257276693968,-3.8931525629172747,-8.493072350816973,-2.750771043688604,-5.9572810314289235,-3.332204510175204,-11.421747236883762,-0.09778066575890926,-6.337527992730232,nan,-8.596996698886054
JH AW,2,-4.364803824356608,-4.364803824356608,-4.364809494046164,-4.364809494046164,-5.773774846476236,-10.540765194182228,-2.702668211622952,-6.20482187032619,nan,nan,-0.6539680120861405,-6.563565902070806,nan,-8.822546990230828
JH AW CH,3,-4.006035664787302,-4.006035664787302,-4.006041334476858,-4.006041334476858,-3.846933768390274,-9.154470833062337,-1.596246936498916,-5.900332679558027,-3.7376696182833684,-12.114894417443708,-0.002345292660254128,-6.268663581645538,nan,-8.528260270534242
JH AW D,3,-3.0503565410319156,-3.0503565410319156,-3.0503622107214716,-3.0503622107214716,-2.991332663764679,-8.371711493812706,-1.1109877470375007,-4.599751836712167,-3.7376696182833684,-12.114894417443708,0.19027983664461087,-4.969217105321666,nan,-7.230120423623264
JH AW JH,3,-3.8292312197860654,-3.8292312197860654,-3.8292368894756215,-3.8292368894756215,-5.0917070533669335,-10.135300086074064,-1.4746149071314472,-5.6476303260022735,-3.7376696182833684,-12.114894417443708,-0.00686920596628085,-6.007406737003294,nan,-8.267416288302762
JH AW R,3,-2.703332811009636,-2.703332811009636,-2.7033384806991925,-2.7033384806991925,-3.5963326332169783,-8.931327281748128,-2.4580330536031583,-5.499640850202521,-3.7376696182833684,-12.114894417443708,0.13779699136584117,-5.866802081040673,nan,-8.126993069640317
JH AW Z,3,-3.6996874121152423,-3.6996874121152423,-3.6996930818047984,-3.6996930818047984,-3.4425387908294445,-8.79156533937297,-0.7895691941748242,-5.072092825806608,-3.7376696182833684,-12.114894417443708,0.13341896950801385,-5.4410861319960535,nan,-7.70169391190412
JH UW DH,3,-3.843158655527328,-3.843158655527328,-3.843164325216884,-3.843164325216884,-2.7310544825868037,-7.472712259048612,-1.8942910402263187,-6.054483359385286,-4.74493212836325,-12.114894417443708,-0.6378367691124367,-6.502657148983814,nan,-8.76178063501468
JH UW SH,3,-3.359912846151162,-3.359912846151162,-3.359918515840718,-3.359918515840718,-2.385301597839022,-7.014404669566067,-1.7104160009502052,-5.617573418569464,-4.74493212836325,-12.114894417443708,0.0324041215294755,-6.104796640260869,nan,-8.364664721517437
L AW CH,3,-2.676606650374574,-2.676606650374574,-2.67661232006413,-2.67661232006413,-3.728382236140442,-7.8495221113964,-1.5076705107102404,-5.272676854890925,-3.295836866004329,-11.016282128775599,0.028760116121767376,-5.67073665687565,nan,-7.932130291441054
L AW JH,3,-2.6266947283009054,-2.6266947283009054,-2.6267003979904615,-2.6267003979904615,-4.729134506049202,-8.035239257191494,-1.395793906572799,-5.129893824696436,-4.394449154672439,-12.114894417443708,0.0014177400155878511,-5.520408449317862,nan,-7.780951382002954
L AW TH,3,-2.7017258414922583,-2.7017258414922583,-2.7017315111818143,-2.7017315111818143,-3.667061649561796,-7.832714993080019,-1.290936591934595,-5.285147040467794,-4.394449154672439,-12.114894417443708,-0.0910608622053021,-5.690717341566133,nan,-7.951102403176653
M UW DH,3,-3.106135139379236,-3.106135139379236,-3.106140809068792,-3.106140809068792,-4.506210383300379,-8.165859439608557,-1.9198115790891532,-4.942077748584841,-2.890371757896165,-10.728600056323817,-0.6436168967881009,-5.312875473177411,nan,-7.574960909914993
M UW SH,3,-2.8458282982038168,-2.8458282982038168,-2.845833967893373,-2.845833967893373,-3.2714626971577374,-7.394460062148863,-1.7316043374329069,-4.776447226759293,-4.276666119016055,-12.114894417443708,-0.010162215992084972,-5.176064540200881,nan,-7.436855220271082
M UW ZH,3,-3.1066417891684144,-3.1066417891684144,-3.1066474588579704,-3.1066474588579704,-3.6454297378615492,-7.664379678260804,-1.8478361049285752,-4.923753516827068,-4.276666119016055,-12.114894417443708,-0.8305684182260595,-5.316339279896599,nan,-7.577039192616631
N AO B,3,-2.2402516819625085,-2.2402516819625085,-2.2402573516520645,-2.2402573516520645,-4.301625570392836,-7.41620004878527,-2.721611235918908,-5.56004121486982,-4.7535901911063645,-12.114894417443708,-0.08881921477605251,-5.982781689697905,nan,-8.24282488516544
N AO D,3,-2.122634391508773,-2.122634391508773,-2.122640061198329,-2.122640061198329,-3.607362167401561,-7.139567812520074,-1.1566930100408563,-4.470790696703044,-3.654977902438255,-11.016282128775599,0.1837944160216396,-4.861456333790563,nan,-7.123290399986077
N AO NG,3,-2.3673806738238046,-2.3673806738238046,-2.3673863435133606,-2.3673863435133606,-3.3909221602948123,-7.029219755351209,-0.4735486349142635,-4.853013685277469,-4.7535901911063645,-12.114894417443708,0.2609413141638454,-5.259026664051718,nan,-7.519765205242894
N AO TH,3,-2.4205509933756955,-2.4205509933756955,-2.4205566630652515,-2.4205566630652515,-3.979427869747263,-7.302086742017848,-1.350146913467083,-5.50684376249658,-4.7535901911063645,-12.114894417443708,0.03980952407695837,-5.932705351717729,nan,-8.192814464590779
N AW CH,3,-2.4983315089452787,-2.4983315089452787,-2.4983371786348347,-2.4983371786348347,-3.894936348277342,-8.430551993835639,-1.5641298472543865,-5.575406433933876,-4.060443010546419,-12.114894417443708,-0.0046351544513952014,-5.964039507888164,nan,-8.224107761212501
N AW D,3,-2.1949988617676155,-2.1949988617676155,-2.1950045314571716,-2.1950045314571716,-3.0114542319796924,-7.975815836720692,-1.0910967225297301,-4.500293921181664,-4.060443010546419,-12.114894417443708,0.18839155806134564,-4.876540914405991,nan,-7.137487621589655
N AW JH,3,-2.456401316126076,-2.456401316126076,-2.456406985815632,-2.456406985815632,-5.269321636949106,-8.79156533937297,-1.4461241827396618,-5.38665398680963,-4.060443010546419,-12.114894417443708,-0.009169462311405002,-5.765058205853035,nan,-8.02536547420622
N AW TH,3,-2.519305695231804,-2.519305695231804,-2.51931136492136,-2.51931136492136,-3.8228943363958723,-8.400699030685958,-1.3361415714061489,-5.592322907600577,-4.060443010546419,-12.114894417443708,-0.10267983650903552,-5.988201757167245,nan,-8.24823761827219
P AW JH,3,-3.1423667824056154,-3.1423667824056154,-3.1423724520951715,-3.1423724520951715,-4.506274290026325,-8.18938993701875,-1.2132121627752372,-4.4268781429957365,-4.343805421853684,-12.114894417443708,0.04527126518689592,-4.795432786392125,nan,-7.056414304734925
P UW DH,3,-3.1493501430207873,-3.1493501430207873,-3.1493558127103434,-3.1493558127103434,-4.692091538651521,-8.400699030685958,-1.7700281744469253,-4.571459371806845,-4.143134726391533,-12.114894417443708,-0.6899156581561294,-4.942123043539882,nan,-7.203039465020593
P UW SH,3,-2.878972828470108,-2.878972828470108,-2.8789784981596647,-2.8789784981596647,-3.3220679003254343,-7.4962427564588054,-1.6059748393311457,-4.454254386036496,-4.143134726391533,-12.114894417443708,0.006100268410682369,-4.844429072380281,nan,-7.105389900187145
P UW ZH,3,-3.14987917358464,-3.14987917358464,-3.1498848432741964,-3.1498848432741964,-3.7198559238499236,-7.799925170257028,-1.7077600294985777,-4.558774212279529,-4.143134726391533,-12.114894417443708,-0.7940041491544942,-4.943078153450121,nan,-7.2039941190310435
R AO CH,3,-2.6336178933931844,-2.6336178933931844,-2.6336235630827405,-2.6336235630827405,-4.204396077290231,-7.0828724688435285,-1.4208571389487152,-4.7053285452148526,-5.056245805348308,-12.114894417443708,-0.06589350703154512,-5.1260688303760995,nan,-7.386888905992601
R AO SH,3,-2.516212111944808,-2.516212111944808,-2.5162177816343645,-2.5162177816343645,-3.980563221653706,-7.02178477686369,-1.792665155312953,-4.667668300518667,-5.056245805348308,-12.114894417443708,-0.00820150941332487,-5.090008585303892,nan,-7.350848969509404
R AW JH,3,-2.703332811009636,-2.703332811009636,-2.7033384806991925,-2.7033384806991925,-4.480370315448384,-7.570350728612528,-1.2777811303488371,-4.641465928124642,-4.6913478822291435,-12.114894417443708,0.023028629085406815,-5.033003906455868,nan,-7.293874938448627
SH AO B,3,-3.0398727661925324,-3.0398727661925324,-3.0398784358820885,-3.0398784358820885,-4.020281633176689,-8.213487488597812,-2.808961441812968,-6.107972044336273,-4.174387269895637,-12.114894417443708,-0.09207094285714063,-6.502657148983814,nan,-8.76178063501468
SH AO CH,3,-3.442379467314875,-3.442379467314875,-3.442385137004431,-3.442385137004431,-4.287849725519207,-8.461323652502394,-1.648559381481598,-6.029790746794915,-4.174387269895637,-12.114894417443708,-0.04761910977303149,-6.405282984958637,nan,-8.664616886561031
SH AO D,3,-2.794832754337699,-2.794832754337699,-2.794838424027255,-2.794838424027255,-3.456984277367236,-7.67856431325276,-1.1743381352561797,-4.623873114490885,-4.174387269895637,-12.114894417443708,0.16708020030904328,-5.004150797256996,nan,-7.2650366887294915
SH AO G,3,-3.2627793226010238,-3.2627793226010238,-3.26278499229058,-3.26278499229058,-3.3056735539227593,-7.5326104006296815,-2.2212558482536986,-6.007679293187484,-4.174387269895637,-12.114894417443708,0.13026992059658438,-6.436699181192016,nan,-8.695967416445109
SH AO NG,3,-3.348552775914709,-3.348552775914709,-3.348558445604265,-3.348558445604265,-3.2680924443227344,-7.496242756458806,-0.482420974081661,-5.08623288858042,-4.174387269895637,-12.114894417443708,0.25865041164613317,-5.477919759399963,nan,-7.7384980657506155
SH AO SH,3,-3.1957631269899447,-3.1957631269899447,-3.1957687966795008,-3.1957687966795008,-4.046712513731451,-8.238180101188183,-2.142716709162361,-5.894989835147532,-4.174387269895637,-12.114894417443708,0.009057225046956552,-6.28133343438659,nan,-8.540907232235009
SH AO TH,3,-3.4972051785370466,-3.4972051785370466,-3.4972108482266027,-3.4972108482266027,-3.768021270863263,-7.975815836720692,-1.3715987575967454,-6.01766938626257,-4.174387269895637,-12.114894417443708,0.03695083998423632,-6.419821143404665,nan,-8.679124913050611
SH AO Z,3,-3.2567254096855147,-3.2567254096855147,-3.256731079375071,-3.256731079375071,-3.7884983758269057,-7.995233922577794,-0.815589802226222,-5.116757346791067,-4.174387269895637,-12.114894417443708,0.1667175005589441,-5.49436749860899,nan,-7.754932289363994
SH AW CH,3,-3.745181775443614,-3.745181775443614,-3.74518744513317,-3.74518744513317,-3.894039069821844,-9.093846211245904,-1.6145808100523986,-6.060752972398881,-3.7612001156935624,-12.114894417443708,-0.0035634474587685483,-6.432452890310565,nan,-8.691730121969593
SH AW D,3,-2.941851274691106,-2.941851274691106,-2.941856944380662,-2.941856944380662,-3.0110832522943762,-8.34354061684601,-1.122233107644233,-4.6409589572646075,-3.7612001156935624,-12.114894417443708,0.18927522064891536,-5.011286403476655,nan,-7.272168659866763
SH AW JH,3,-3.6062964585342074,-3.6062964585342074,-3.6063021282237635,-3.6063021282237635,-5.2657797010725655,-9.981149406246805,-1.4908319540419765,-5.769931179942433,-3.7612001156935624,-12.114894417443708,-0.008092887456329051,-6.131093592551331,nan,-8.390921056083991
SH AW L,3,-2.554346718039256,-2.554346718039256,-2.554352387728812,-2.554352387728812,-3.3365197853067157,-8.631222689297791,-1.2879215888826703,-4.306371052263426,-3.7612001156935624,-12.114894417443708,0.21766735788078315,-4.6708032225538805,nan,-6.9318330222962805
SH AW TH,3,-3.8201390672695195,-3.8201390672695195,-3.8201447369590755,-3.8201447369590755,-3.822059400118549,-9.036687797405955,-1.3760986621947466,-6.088384911060968,-3.7612001156935624,-12.114894417443708,-0.10149779598528957,-6.471334677854773,nan,-8.730528091510577
SH AW Z,3,-3.501332764134499,-3.501332764134499,-3.501338433824055,-3.501338433824055,-3.473728388853967,-8.749005724954174,-0.7977108024003664,-5.139026308259709,-3.7612001156935624,-12.114894417443708,0.13235554364626526,-5.509405375973531,nan,-7.769957613770744
SH UW DH,3,-3.6174251823129753,-3.6174251823129753,-3.6174308520025313,-3.6174308520025313,-3.9158325268575735,-8.1203970655318,-2.176476873670913,-6.356151673811807,-4.174387269895637,-12.114894417443708,-0.766649156857425,-6.802534494529413,nan,-9.060865339564273
SH UW TH,3,-3.522998377827747,-3.522998377827747,-3.5230040475173037,-3.5230040475173037,-3.483876503929529,-7.752672285406482,-1.347601304085143,-5.9918998730835185,-4.174387269895637,-12.114894417443708,-0.0032750080052746655,-6.440963579978473,nan,-8.700222742015248
SH UW V,3,-3.2225736317009113,-3.2225736317009113,-3.2225793013904673,-3.2225793013904673,-3.2365402441658255,-7.532610400629681,-1.496767192329125,-5.520185379434153,-4.174387269895637,-12.114894417443708,0.1192273614587901,-5.952173844611663,nan,-8.212257721295005
SH UW ZH,3,-3.6182701337785392,-3.6182701337785392,-3.6182758034680953,-3.6182758034680953,-3.352580883456096,-7.636600114153728,-2.0843842688345564,-6.282848854680648,-4.174387269895637,-12.114894417443708,-0.8795250815003407,-6.808688360103791,nan,-9.067000328131789
T AW CH,3,-2.5525979562995054,-2.5525979562995054,-2.552603625989062,-2.552603625989062,-3.8633014408843214,-8.34354061684601,-1.4734374394457883,-5.060460278970779,-4.0943445622221,-12.114894417443708,0.018877541157282518,-5.433255238415505,nan,-7.693869145845889
T AW JH,3,-2.508380451749123,-2.508380451749123,-2.5083861214386793,-2.5083861214386793,-5.149726502196789,-8.668963017280637,-1.3651292896980876,-4.943448550718619,-4.0943445622221,-12.114894417443708,0.014448837150511581,-5.311493302950459,nan,-7.572196568140844
TH AO B,3,-3.2917799275830815,-3.2917799275830815,-3.2917855972726375,-3.2917855972726375,-2.974508637102364,-8.316141642657895,-2.528744617612335,-6.441372081920515,-4.127134385045092,-12.114894417443708,-0.10512373392754704,-6.869120099288709,nan,-9.127240408509145
TH AO CH,3,-3.847401568283379,-3.847401568283379,-3.8474072379729356,-3.8474072379729356,-3.060611336155776,-8.594855045126916,-1.552026385842998,-6.3338666290223715,-4.127134385045092,-12.114894417443708,-0.06010083041400441,-6.731498721412661,nan,-8.99003928699566
TH AO G,3,-3.5889083160333106,-3.5889083160333106,-3.5889139857228667,-3.5889139857228667,-2.662133952060212,-7.5832541334484365,-2.056003708346164,-6.304013665872691,-4.127134385045092,-12.114894417443708,0.1198329352599472,-6.775301344071054,nan,-9.033714350498322
TH AO SH,3,-3.4972051785370466,-3.4972051785370466,-3.4972108482266027,-3.4972108482266027,-2.983717576187674,-8.34354061684601,-1.989036630007963,-6.155224929186818,-4.127134385045092,-12.114894417443708,-0.0027326802551460028,-6.563565902070806,nan,-8.822546990230826
TH AO TH,3,-3.9307716231406618,-3.9307716231406618,-3.9307772928302183,-3.9307772928302183,-2.8784411683561304,-8.055858544394228,-1.2975783732747352,-6.317472819246696,-4.127134385045092,-12.114894417443708,0.025487119696294025,-6.751701428730181,nan,-9.010183853088128
V AW JH,3,-3.6178475688028873,-3.6178475688028873,-3.6178532384924433,-3.6178532384924433,-4.788745122908704,-9.362110197840583,-1.4576255874957356,-5.566414722741912,-3.828641396489095,-12.114894417443708,-0.009233209655362784,-5.935279355712902,nan,-8.195385160093878
V AW R,3,-2.629757036846123,-2.629757036846123,-2.6297627065356797,-2.6297627065356797,-3.5199981209566724,-8.63122268929779,-2.413241028405218,-5.429213601228427,-3.828641396489095,-12.114894417443708,0.13575171861350888,-5.803844230888191,nan,-8.064108559856445
V AW TH,3,-3.834464094102724,-3.834464094102724,-3.83446976379228,-3.83446976379228,-3.6872719360697577,-8.749005724954174,-1.3464389116242468,-5.818094581321056,-3.828641396489095,-12.114894417443708,-0.10274983271348002,-6.205925241012115,nan,-8.4656311114638
W UW DH,3,-3.832891354591124,-3.832891354591124,-3.83289702428068,-3.83289702428068,-4.360570992604497,-8.836017101943805,-2.1253083989009114,-5.763681159597262,-3.951243718581427,-12.114894417443708,-0.7779065977891377,-6.138961453751945,nan,-8.3987765560243
W UW TH,3,-3.71703089227884,-3.71703089227884,-3.717036561968396,-3.717036561968396,-3.7492514771821375,-8.18938993701875,-1.3249415567570804,-5.546160865837415,-3.951243718581427,-12.114894417443708,-0.008506236851101023,-5.936568846542773,nan,-8.196672990278307
W UW V,3,-3.3625276539819016,-3.3625276539819016,-3.3625333236714576,-3.3625333236714576,-3.4374434201759057,-7.866616544755701,-1.470509741013747,-5.2197642812049425,-3.951243718581427,-12.114894417443708,0.11460067094293105,-5.614017948440169,nan,-7.874477440013777
W UW ZH,3,-3.8339395727164525,-3.8339395727164525,-3.8339452424060085,-3.8339452424060085,-3.581243330930743,-8.015036549873974,-2.0376139844161285,-5.722485403158995,-3.951243718581427,-12.114894417443708,-0.8921362240858229,-6.142126013354908,nan,-8.401936116314669
Y AO CH,3,-3.7170308922788395,-3.7170308922788395,-3.717036561968396,-3.717036561968396,-4.296984325210015,-9.036687797405955,-1.6583901096512548,-6.231817374668202,-3.951243718581427,-12.114894417443708,-0.07143103143502444,-6.602979870611684,nan,-8.861864093571661
Y AO D,3,-2.9291462513931408,-2.9291462513931408,-2.929151921082697,-2.929151921082697,-3.4609537139179545,-7.90170786456697,-1.1804451151391382,-4.669752720241578,-3.951243718581427,-12.114894417443708,0.14791353195383736,-5.049341555750797,nan,-7.310203981804373
Y AO G,3,-3.4867748362581743,-3.4867748362581743,-3.4867805059477304,-3.4867805059477304,-3.3090846526171998,-7.722366935911154,-2.2387529266857884,-6.204821870326191,-3.951243718581427,-12.114894417443708,0.11037738070975134,-6.641396886715475,nan,-8.900182957873799
Y AO NG,3,-3.595290221378813,-3.595290221378813,-3.595295891068369,-3.595295891068369,-3.271377522179436,-7.67856431325276,-0.48547356028800887,-5.160097462899182,-3.951243718581427,-12.114894417443708,0.24117562325277306,-5.5515259124489384,nan,-7.812041969072985
Y AO SH,3,-3.403615597789241,-3.403615597789241,-3.403621267478797,-3.403621267478797,-4.053882841404025,-8.668963017280637,-2.1588814190753682,-6.069174074795289,-3.951243718581427,-12.114894417443708,-0.013427791080446394,-6.453866984814382,nan,-8.713098456375292
Y AO TH,3,-3.789829858104077,-3.789829858104077,-3.789835527793633,-3.789835527793633,-3.77344284743284,-8.289473395575733,-1.3790424019401386,-6.217002288883061,-3.951243718581427,-12.114894417443708,0.015091156318615323,-6.6207243159107545,nan,-8.879563670671063
Y AW CH,3,-4.13836655038696,-4.13836655038696,-4.1383722200765165,-4.1383722200765165,-3.960648717978441,-9.362110197840583,-1.6347822303385404,-6.244333182600032,-3.6635616461296463,-12.114894417443708,-0.012424734923377811,-6.615622264026859,nan,-8.874474601163591
Y AW D,3,-3.099194610540407,-3.099194610540407,-3.099200280229963,-3.099200280229963,-3.038094377262941,-8.461323652502394,-1.1345314486170672,-4.6823513120779,-3.6635616461296463,-12.114894417443708,0.18197375913522745,-5.052534746329951,nan,-7.313395473875017
Y AW JH,3,-3.9388923174193957,-3.9388923174193957,-3.938897987108952,-3.938897987108952,-5.558855633900713,-10.82844726663401,-1.5086608687971876,-5.903910500905912,-3.6635616461296463,-12.114894417443708,-0.01699458220515032,-6.263282402741022,nan,-8.522888726732331
Y AW R,3,-2.7376021997201443,-2.7376021997201443,-2.737607869409701,-2.737607869409701,-3.6837017188455254,-9.093846211245904,-2.551786202578718,-5.716524133642495,-3.6635616461296463,-12.114894417443708,0.1290413802132318,-6.085143702359475,nan,-8.345041450333296
Y AW T,3,-2.5364936183640587,-2.5364936183640587,-2.536499288053615,-2.536499288053615,-1.5226232740670247,-6.957246255726118,-0.6929918297966149,-3.9802637616866012,-3.6635616461296463,-12.114894417443708,0.2670304440554325,-4.3655364957173,nan,-6.626661997823665
Y AW TH,3,-4.251538831288728,-4.251538831288728,-4.251544500978284,-4.251544500978284,-3.8838968524387747,-9.28800222568686,-1.3919795601364482,-6.277626910699496,-3.6635616461296463,-12.114894417443708,-0.11127529580543594,-6.66250584992571,nan,-8.921236367071632
Y AW Z,3,-3.795364463426938,-3.795364463426938,-3.795370133116494,-3.795370133116494,-3.516977001856196,-8.931327281748128,-0.8065857585596334,-5.208078754975298,-3.6635616461296463,-12.114894417443708,0.12462477265070576,-5.578217888545754,nan,-7.838710216155146
Z UW B,3,-3.108924895182983,-3.108924895182983,-3.108930564872539,-3.108930564872539,-3.1408300986546225,-7.636600114153729,-2.6554642545300626,-6.687005918128796,-2.8526314299133175,-11.016282128775599,-0.08219483186126089,-7.316432317332374,nan,-9.582967351398198
Z UW DH,3,-3.7119122212609788,-3.7119122212609788,-3.711917890950535,-3.711917890950535,-4.114370109856811,-8.791565339372971,-2.3286196370668986,-7.613148946445963,-3.951243718581427,-12.114894417443708,-0.7421068648063244,-8.123523757241538,nan,-10.373488695983319
Z UW SH,3,-3.276949147276113,-3.276949147276113,-3.2769548169656693,-3.2769548169656693,-3.1408300986546225,-7.636600114153729,-2.057321846293819,-6.331115595650481,-3.951243718581427,-12.114894417443708,-0.01958014867142374,-6.879004858521251,nan,-9.137092704952156
Z UW TH,3,-3.6085960309910616,-3.6085960309910616,-3.608601700680618,-3.608601700680618,-3.6082034757681445,-8.165859439608557,-1.411191760056899,-6.679193378392003,-3.951243718581427,-12.114894417443708,0.00823892009406979,-7.15570987234188,nan,-9.412746201538331
Z UW V,3,-3.285245446463678,-3.285245446463678,-3.2852511161532343,-3.2852511161532343,-3.3322713134079978,-7.8495221113964,-1.5709755881198078,-5.8914437321407815,-3.951243718581427,-12.114894417443708,0.12942051885917902,-6.327940191575078,nan,-8.587427247869902
Z UW ZH,3,-3.7128409420149855,-3.7128409420149855,-3.7128466117045416,-3.7128466117045416,-3.460750115557978,-7.9952339225777935,-2.2221732151280893,-7.376239199367605,-3.951243718581427,-12.114894417443708,-0.8520900389866517,-8.146780619405805,nan,-10.396478214208019
B AH L,3,-1.682250541973426,-1.682250541973426,-1.682256211662982,-1.682256211662982,-0.8438780967584348,-3.517674316520188,-0.3557334039639226,-3.2017317443867928,-0.384375697254252,-5.73307840003761,0.8358416263931131,-3.820857591754434,nan,-6.0930418541273585
B AY N,3,-2.2238201935299027,-2.2238201935299027,-2.2238258632194587,-2.2238258632194587,-1.9611953463549834,-6.032656721037268,-0.8830773204391223,-3.7708262762767593,-2.2472349979108808,-9.549945059982171,0.42124275883212936,-4.171617128460162,nan,-6.4330107630255675
B AY S,3,-2.3505251627518096,-2.3505251627518096,-2.3505308324413656,-2.3505308324413656,-2.6241891337449386,-6.604049576163711,-1.1081726243085819,-3.9792171891159303,-2.509599262378372,-9.812309324449663,0.2911045221273883,-4.368490707614732,nan,-6.629615416536456
B ER S,3,-2.1898190817525878,-2.1898190817525878,-2.189824751442144,-2.189824751442144,-2.015474190776014,-5.7764567868558405,-1.0089638811248847,-3.9124583314036823,-3.0252910757955354,-9.812309324449663,0.20022199748781397,-4.36983642171904,nan,-6.632307932971935
B IY L,3,-2.0941544087432242,-2.0941544087432242,-2.0941600784327803,-2.0941600784327803,-2.3032882587853196,-6.021697707247549,-1.0363589145349081,-3.8856677826030293,-3.3381392456950185,-10.323134948215653,0.27271723498250044,-4.309481160173595,nan,-6.570874794739001
B IY S,3,-2.0896994446617727,-2.0896994446617727,-2.0897051143513288,-2.0897051143513288,-2.2843658214036644,-6.0028037578875875,-1.0979074195198208,-3.935971356224001,-2.732003442124703,-9.716999144645337,0.23405381721224683,-4.367952928628928,nan,-6.629884342180137
CH AH N,3,-1.695386011956527,-1.695386011956527,-1.695391681646083,-1.695391681646083,-0.7454571131456897,-3.321855486563169,-0.39698078596266184,-3.1666611451114397,-1.4078005663408542,-8.286253020954613,0.5122715681172955,-4.024973492012769,nan,-6.289998282025227
CH AY N,3,-2.382250836303256,-2.382250836303256,-2.382256505992812,-2.382256505992812,-1.9761743511443848,-6.2780853171409134,-1.0123756498336258,-4.084461486515738,-2.468099531471619,-10.505456505009608,0.3915975859919475,-4.4935283429350195,nan,-6.754617238811489
CH IY N,3,-2.114051862169321,-2.114051862169321,-2.1140575318588777,-2.1140575318588777,-1.9236014784257698,-6.01355654966385,-1.1150626886905575,-4.059783046160541,-3.5409593240373143,-11.421747236883762,0.3522547607288592,-4.48866363282439,nan,-6.750057267389795
D AH S,3,-1.6104930341262422,-1.6104930341262422,-1.6104987038157983,-1.6104987038157983,-1.323133490947853,-4.0653324774781385,-0.7112778618719526,-3.4525655767194836,-2.700018029404946,-8.202871412015563,0.513327660943976,-4.075243193500182,nan,-6.342471267712493
D AY P,3,-2.539363266649416,-2.539363266649416,-2.5393689363389726,-2.5393689363389726,-2.7842719084897345,-6.570473280630107,-1.6628169714953376,-4.498094668041001,-4.48863636973214,-11.421747236883762,0.20934495515782642,-4.896862227828215,nan,-7.157799762043638
D AY T,3,-2.144418616203187,-2.144418616203187,-2.1444242858927436,-2.1444242858927436,-1.791853197991951,-5.8067621363511694,-0.7003573501830109,-3.603298679697554,-2.8791984572980396,-9.812309324449663,0.43616151703677436,-4.002153076913196,nan,-6.263733191665621
D ER S,3,-2.0776741562697407,-2.0776741562697407,-2.077679825959297,-2.077679825959297,-1.87098752379221,-5.5152412875922225,-0.9778949738138927,-3.81910701608469,-2.5649493574615367,-9.224522659547544,0.199060753917597,-4.305180078274204,nan,-6.5706212771815515
D IY K,3,-2.084488957074721,-2.084488957074721,-2.084494626764277,-2.084494626764277,-2.0153400218785933,-5.609894868554836,-1.259380254758021,-4.107680751546953,-2.9549102790337356,-9.406844216341499,0.2657155197608521,-4.599193690175758,nan,-6.860926135518587
D IY S,3,-1.9877127745976324,-1.9877127745976324,-1.9877184442871885,-1.9877184442871885,-2.0112560474815315,-5.606291261051537,-1.0333387869455737,-3.8309865685435422,-3.4657359027997265,-9.91766984010749,0.22579539630894582,-4.294382735461009,nan,-6.556026151468952
D IY T,3,-1.9272950850116306,-1.9272950850116306,-1.9273007547011871,-1.9273007547011871,-1.953839510481839,-5.555447708070264,-0.8314659746750769,-3.5802234634522225,-3.1780538303479458,-9.629987767655708,0.33122457750505657,-4.017750499195813,nan,-6.27933354563791
F AH L,3,-1.701241863611278,-1.701241863611278,-1.7012475333008341,-1.7012475333008341,-1.0403194373269256,-3.607098533415591,-0.4810972505795472,-3.2648531712906532,-0.8575966125877781,-6.782175624178339,0.7043740248143299,-3.910800338602353,nan,-6.184350616329534
F AY K,3,-2.535992275470836,-2.535992275470836,-2.5359979451603922,-2.5359979451603922,-2.1562595714493042,-6.177666569393866,-1.224676868266196,-4.313286457438828,-5.1298987149230735,-12.114894417443708,0.20990945960093216,-4.761792329529698,nan,-7.0227874783356965
F ER S,3,-2.221569413967329,-2.221569413967329,-2.221575083656885,-2.221575083656885,-1.9283049495645033,-5.780730297633222,-0.9943551203819352,-3.9440176656653056,-3.0808900818942977,-9.91766984010749,0.20425839224160788,-4.4007427514519195,nan,-6.662136386017325
F ER T,3,-2.145823280888871,-2.145823280888871,-2.1458289505784274,-2.1458289505784274,-2.0237484271562822,-5.882054241266108,-0.8269914057889025,-3.681323313721637,-2.1426204433013676,-8.979400201514558,0.31936727425693,-4.099404352552653,nan,-6.362443400899409
F IY K,3,-2.229443057079365,-2.229443057079365,-2.229448726768921,-2.229448726768921,-2.3959503147613903,-6.1904872578229275,-1.4019024015998143,-4.314748446003327,-4.663439094112067,-12.114894417443708,0.21566569192161805,-4.760995516738536,nan,-7.021990982873437
F IY N,3,-2.016639457198592,-2.016639457198592,-2.016645126888148,-2.016645126888148,-2.089004116693916,-5.863274346614512,-1.0399862255703929,-3.7832169496486676,-2.871679624884012,-10.323134948215653,0.3626338190032813,-4.202803054501,nan,-6.4639688207732915
F IY S,3,-2.1183810769681255,-2.1183810769681255,-2.1183867466576816,-2.1183867466576816,-2.389980373129772,-6.184056367492637,-1.1453411089985885,-3.9839354154311275,-3.970291913552122,-11.421747236883762,0.1920290216663765,-4.409111001122436,nan,-6.6702245628670775
G AY N,3,-2.3163203023322665,-2.3163203023322665,-2.3163259720218226,-2.3163259720218226,-2.1072707998072535,-6.295847773480754,-0.9979466337641031,-3.951620337865362,-3.970291913552122,-12.114894417443708,0.3321733151640611,-4.354866882628985,nan,-6.615995230019469
G EY S,3,-2.3971584825632157,-2.3971584825632157,-2.397164152252772,-2.397164152252772,-2.1864042073228536,-6.260632867189687,-1.0782962899044597,-4.153309104171364,-4.990432586778736,-12.114894417443708,0.2883947238313758,-4.577745146768274,nan,-6.838807271302465
HH AH S,3,-1.7554817344310218,-1.7554817344310218,-1.755487404120578,-1.755487404120578,-1.7927172585212083,-4.351474903744327,-0.8879269766849032,-3.6705103101243233,-2.6230569882688175,-9.91766984010749,0.5172247545016635,-4.219579272378592,nan,-6.4807411840835005
HH AY N,3,-2.359007383131977,-2.359007383131977,-2.359013052821533,-2.359013052821533,-1.7082453151547217,-6.04932377352248,-0.8181975962052463,-3.8521791128489853,-2.780370862681836,-10.035452875763873,0.411653683319663,-4.2516046134482055,nan,-6.51299824801361
HH AY S,3,-2.5054593201685464,-2.5054593201685464,-2.5054649898581025,-2.5054649898581025,-2.180439971067455,-6.6337547305776265,-1.0275589637522762,-4.080402333363276,-4.1666652238017265,-11.421747236883762,0.26223491191584014,-4.467654456735047,nan,-6.7287511350993086
HH EY N,3,-2.305287521145213,-2.305287521145213,-2.305293190834769,-2.305293190834769,-2.077999959026789,-6.074857075527645,-0.9529301862024006,-3.854254041547313,-3.597312260588446,-11.421747236883762,0.32214639711202187,-4.265338114445717,nan,-6.526489177754625
HH EY S,3,-2.4435241918641206,-2.4435241918641206,-2.4435298615536767,-2.4435298615536767,-2.4884524173023954,-6.556421527174457,-1.1181524454473117,-4.0757833875069815,-2.498699971920336,-10.323134948215653,0.34005949784168626,-4.471821129429892,nan,-6.732916568078371
HH IY N,3,-2.0962279033232343,-2.0962279033232343,-2.0962335730127903,-2.0962335730127903,-2.0854229207050996,-6.0081657010289735,-1.0583568275204427,-3.8487304371697806,-4.477336814478207,-12.114894417443708,0.33454794813231925,-4.261705709434709,nan,-6.522857652156037
JH AH N,3,-1.6763832828977727,-1.6763832828977727,-1.6763889525873288,-1.6763889525873288,-0.5676810206297829,-3.285880384104891,-0.29513770680615214,-3.1245125767138235,-1.0265314064925817,-7.180420484313016,0.6138198163660715,-3.9698626178630168,nan,-6.250026735190492
JH AY N,3,-2.3448311971901363,-2.3448311971901363,-2.3448368668796924,-2.3448368668796924,-2.0475641619393365,-6.281612657658882,-1.0182784816330468,-4.036252548750347,-2.6567569067146595,-10.728600056323817,0.3668292223806383,-4.44359226295928,nan,-6.70556594394466
K AH K,3,-1.6092451610204654,-1.6092451610204654,-1.6092508307100215,-1.6092508307100215,-1.3986603116161929,-4.228576767421173,-0.8109041404967076,-3.5711404315734683,-5.531411248715415,-10.323134948215653,0.30818559276156043,-4.249214554949086,nan,-6.510846938471098
K AH N,3,-1.4892035312118106,-1.4892035312118106,-1.4892092009013667,-1.4892092009013667,-0.6874254857074142,-3.098711935248959,-0.24249118716446927,-2.8216224499504228,-1.1832861657172142,-5.975009865217453,0.6932195522154142,-3.549761207973445,nan,-5.824047464715431
K ER M,3,-2.204411177405441,-2.204411177405441,-2.204416847094997,-2.204416847094997,-2.4016151448644534,-5.815592215799441,-1.2242797212866514,-4.029630007989853,-3.6216707044204863,-10.505456505009608,0.1619630881091168,-4.492918958394528,nan,-6.754921977500424
K ER N,3,-1.890579680068839,-1.890579680068839,-1.890585349758395,-1.890585349758395,-2.2680607232297487,-5.722501792733429,-0.9357139562965496,-3.555954635003685,-3.844814255734696,-10.728600056323817,0.27210939519958843,-3.981849684752203,nan,-6.243060620860901
K EY B,3,-2.4315845263104547,-2.4315845263104547,-2.431590196000011,-2.431590196000011,-2.9249058570111472,-6.140162173935412,-1.7733289366735558,-4.277062306814251,-5.017279836814924,-11.421747236883762,-0.11338013818158088,-4.745975471520005,nan,-7.006976872309053
K EY D,3,-2.2908386864167203,-2.2908386864167203,-2.2908443561062763,-2.2908443561062763,-2.4796667404243733,-5.884426721619739,-0.8367915674498352,-3.8260382903406667,-2.820055259478705,-9.224522659547544,0.4290228184337179,-4.2564019361532095,nan,-6.518757803171977
K IY K,3,-1.9858936150435642,-1.9858936150435642,-1.9858992847331203,-1.9858992847331203,-2.5913630568448727,-6.07773477535526,-1.3039737342063162,-3.9613341156767667,-4.532599493153256,-12.114894417443708,0.2301468532439383,-4.397138144748481,nan,-6.658255039309352
K IY S,3,-1.897815710737472,-1.897815710737472,-1.897821380427028,-1.897821380427028,-2.5841093884832507,-6.071987633099693,-1.0687484548365371,-3.7181008868079495,-3.8394523125933104,-11.421747236883762,0.20575455202671256,-4.140089351388058,nan,-6.4012689677611
K IY T,3,-1.8424513588879072,-1.8424513588879072,-1.8424570285774635,-1.8424570285774635,-2.4844471942178643,-5.992165359682532,-0.8603083599145063,-3.491298378033077,-3.146305132033365,-10.728600056323817,0.31551320138582367,-3.898789706189527,nan,-6.160183340754932
L AH N,3,-1.4369981798969285,-1.4369981798969285,-1.4370038495864845,-1.4370038495864845,-0.8013651366414006,-3.137856460828397,-0.40879511082139286,-2.9846877575312383,-1.9638113593845536,-6.955839118229179,0.48068015699123934,-3.8819489580367517,nan,-6.1655787340490384
L EY L,3,-1.9787319117300854,-1.9787319117300854,-1.9787375814196415,-1.9787375814196415,-2.2573715596453696,-5.56921728879402,-1.0461245311409146,-3.97582337304027,-4.907740870933623,-11.016282128775599,0.3571574082731968,-4.463505073188235,nan,-6.72489870775364
M AH B,3,-1.840663600974685,-1.840663600974685,-1.8406692706642411,-1.8406692706642411,-1.2274483736346269,-4.251049623273232,-1.068379860362481,-4.0184169819859505,-4.679602780770861,-9.716999144645337,-0.014420126104486009,-5.118068787709024,nan,-7.384597954246045
M AH N,3,-1.5587585520998264,-1.5587585520998264,-1.5587642217893825,-1.5587642217893825,-0.6286654445923189,-3.148579602793633,-0.2570187599993774,-2.936810040026248,-0.6461669716357528,-5.68356333551023,0.7259004263277163,-3.707595570891974,nan,-6.033675885718119
M AY D,3,-2.515650669021786,-2.515650669021786,-2.515656338711342,-2.515656338711342,-2.1394162393795852,-6.1129290234770535,-0.8466482254747263,-4.102934376572933,-3.9318256327243257,-11.016282128775599,0.4129201376167528,-4.510743646666248,nan,-6.771827251776371
M ER N,3,-1.9963575231678277,-1.9963575231678277,-1.9963631928573837,-1.9963631928573837,-2.2379908693080686,-5.8749703863777025,-1.0281096308806739,-3.756701449897261,-5.1647859739235145,-12.114894417443708,0.2392417714859635,-4.188098570574419,nan,-6.449267662644212
M ER S,3,-2.0959511888446896,-2.0959511888446896,-2.0959568585342456,-2.0959568585342456,-2.150907547785322,-5.800190371187934,-1.0665387859897943,-3.9139271199174326,-2.5998366164619773,-9.549945059982171,0.21091413099831982,-4.368221781971051,nan,-6.629884342180136
M EY B,3,-2.6208319012671346,-2.6208319012671346,-2.6208375709566907,-2.6208375709566907,-2.9862676605334206,-6.52438217342984,-2.042773447373761,-4.764906417767202,-4.634728988229636,-11.421747236883762,-0.11809963066457407,-5.219831155369712,nan,-7.480594868654445
M EY P,3,-2.5026852009055975,-2.5026852009055975,-2.502690870595154,-2.502690870595154,-2.879214050613915,-6.446420631960128,-1.7232389279994431,-4.603162315048323,-4.634728988229636,-11.421747236883762,0.16470640361590205,-5.045099767842433,nan,-7.305964441803068
N EY N,3,-1.801227197815189,-1.801227197815189,-1.801232867504745,-1.801232867504745,-2.1268108670256614,-5.679016680793691,-1.0280241909634182,-3.9232798831468605,-4.787491742782046,-11.421747236883762,0.3068967573344733,-4.384213449500709,nan,-6.645333897341289
N EY S,3,-1.882426749609884,-1.882426749609884,-1.8824324192994402,-1.8824324192994402,-2.562977149693766,-5.976417002714393,-1.2073560272779336,-4.16269003600513,-4.787491742782046,-11.421747236883762,0.28631621776640626,-4.621458696233185,nan,-6.882506010448809
N IY N,3,-1.6697971563716076,-1.6697971563716076,-1.6698028260611637,-1.6698028260611637,-2.095855226360354,-5.413829444389813,-1.1380733698463927,-3.8851915921178404,-4.840242308167575,-11.421747236883762,0.3386566893293683,-4.377677478520924,nan,-6.638799705838089
P AH L,3,-1.6343580478441848,-1.6343580478441848,-1.6343637175337409,-1.6343637175337409,-1.210459589467011,-3.6010268693470415,-0.5209231010996357,-3.165153811067565,-1.4611523520592402,-7.335770924332179,0.6274093144892883,-3.7867590355833025,nan,-6.054637874991073
P AH M,3,-1.7847761532796826,-1.7847761532796826,-1.7847818229692387,-1.7847818229692387,-1.7895064665165692,-4.451153585934723,-0.9839601591947028,-3.789686672452897,-4.04305126783455,-9.91766984010749,0.37446909936083134,-4.440697066958951,nan,-6.7023798442182905
P AY T,3,-2.180592668272015,-2.180592668272015,-2.1805983379615714,-2.1805983379615714,-1.8806662498671265,-5.935595008194138,-0.6836734462880932,-3.541671107010257,-3.392829131991639,-10.728600056323817,0.40021284260113166,-3.9422636080581377,nan,-6.203657242623543
P ER B,3,-2.4979867883379145,-2.4979867883379145,-2.4979924580274706,-2.4979924580274706,-2.037148629489584,-5.523485357367304,-1.5063189976746267,-4.294831075659734,-4.283586561860629,-10.323134948215653,0.033808986896965376,-4.806624613056425,nan,-7.069269551226186
P ER D,3,-2.348267423096309,-2.348267423096309,-2.348273092785865,-2.348273092785865,-1.8319199179121357,-5.368861752489851,-0.7428195467038355,-3.835959454017676,-3.995904489408848,-10.035452875763873,0.4930021400635154,-4.288903269696384,nan,-6.550545320608862
P ER N,3,-2.010397266183058,-2.010397266183058,-2.010402935872614,-2.010402935872614,-1.7905366877184095,-5.336758507105433,-0.819217474969398,-3.5723583525591627,-3.8781214537524646,-9.91766984010749,0.31219732279957135,-4.019456499040913,nan,-6.281609290978136
P ER V,3,-2.589828804304812,-2.589828804304812,-2.589834473994368,-2.589834473994368,-2.0060598836485366,-5.500571097844428,-0.9975490891909292,-4.180440105829382,-3.1849742731925192,-9.224522659547544,0.19911757117105683,-4.674814166855441,nan,-6.937670324533458
P EY B,3,-2.6472094867973497,-2.6472094867973497,-2.6472151564869058,-2.6472151564869058,-3.111682389274446,-6.659201396238792,-1.888339243914539,-4.453833952984265,-5.181783550292085,-12.114894417443708,-0.10406727552869774,-4.8658694036181505,nan,-7.12682085378546
P EY K,3,-2.3328381081145753,-2.3328381081145753,-2.3328437778041318,-2.3328437778041318,-2.565960007413177,-6.23670010097806,-1.2511972699005183,-4.0637591945401805,-4.48863636973214,-11.421747236883762,0.3220842029174363,-4.473313444286755,nan,-6.734408437667321
P EY M,3,-2.5026852009055975,-2.5026852009055975,-2.502690870595154,-2.502690870595154,-2.8949984139638474,-6.497713926347679,-1.3195553460772684,-4.193962526947734,-3.572345637857985,-10.505456505009608,0.2916507241444748,-4.594799564464294,nan,-6.856867962887961
P EY P,3,-2.52608873544072,-2.52608873544072,-2.5260944051302765,-2.5260944051302765,-2.9911546805528544,-6.570473280630107,-1.6087310033943238,-4.332833456344257,-2.5427262206768266,-9.47583708782845,0.23290077940617365,-4.735050665243755,nan,-6.9976091223054535
P IY M,3,-2.253281007594402,-2.253281007594402,-2.2532866772839584,-2.2532866772839584,-2.405971979561921,-5.955797715511657,-1.2723643124535946,-4.142166927618122,-5.351858133476067,-12.114894417443708,0.20767450735107468,-4.600210467080844,nan,-6.861265061127661
R AH L,3,-1.5192362781339006,-1.5192362781339006,-1.5192419478234567,-1.5192419478234567,-0.9942044915332816,-3.3727632759343797,-0.43633195940339076,-3.1032691384780553,-2.317049513485612,-7.097614580628784,0.5399548917246352,-3.8678295312219237,nan,-6.144666219532666
R AY R,3,-2.100804781935353,-2.100804781935353,-2.1008104516249095,-2.1008104516249095,-2.448476100637296,-5.92317248819558,-1.683235379216344,-4.445045446951186,-5.700443573390687,-12.114894417443708,0.188903129241219,-4.9483476267212065,nan,-7.209261069200554
R EY B,3,-2.357568706466135,-2.357568706466135,-2.357574376155691,-2.357574376155691,-2.741079561500615,-5.716459478277467,-1.882893187553392,-4.543485519764438,-5.030437921392435,-11.016282128775599,-0.10519640547366513,-5.113525906528723,nan,-7.374353129297621
R EY M,3,-2.247469227796152,-2.247469227796152,-2.247474897485708,-2.247474897485708,-2.586623048102294,-5.650416065960475,-1.3164680733891396,-4.262376728202694,-4.519612297626445,-10.505456505009608,0.27761480873776034,-4.778673759366764,nan,-7.040472826737236
R IY G,3,-2.223034462366669,-2.223034462366669,-2.2230401320562256,-2.2230401320562256,-1.721628867015761,-4.570141312946099,-1.254465784473474,-4.141243992619522,-5.001426355010946,-10.035452875763873,0.17641703937358,-4.920403587306438,nan,-7.181797221871843
R IY N,3,-1.7747595994980392,-1.7747595994980392,-1.7747652691875953,-1.7747652691875953,-1.3734867780223494,-4.409538704699088,-0.7173025817381032,-3.4723743816409227,-3.4699499840465573,-8.503976504799484,0.5168209987021547,-4.0514561452973545,nan,-6.316381965638761
R IY S,3,-1.8537521341586563,-1.8537521341586563,-1.8537578038482128,-1.8537578038482128,-1.5093953343059199,-4.475817870314443,-0.7924751742355022,-3.615402521802703,-2.455895083406511,-7.489921604159437,0.4187315941755184,-4.210122391843269,nan,-6.4786580910955465
R IY T,3,-1.8007122028679239,-1.8007122028679239,-1.8007178725574802,-1.8007178725574802,-1.4742430485052567,-4.459117223016268,-0.6305172693736475,-3.408604113946569,-2.8181880196494666,-7.852214540402393,0.48970531017792285,-3.959267205820722,nan,-6.224239942274092
R IY Z,3,-2.2208899418387436,-2.2208899418387436,-2.2208956115283,-2.2208956115283,-1.5483907064698867,-4.493984206403539,-0.4314945989560809,-3.9024789374011326,-3.0204248861443626,-8.05445140689729,0.547274090497109,-4.5760886945094486,nan,-6.843125497577501
S AH D,3,-1.6104930341262422,-1.6104930341262422,-1.6104987038157983,-1.6104987038157983,-1.812431514275465,-4.514295537875556,-0.6783634634205126,-3.5127173373794065,-3.16607763930123,-8.223074119333083,0.41777068984909244,-4.0784579842938005,nan,-6.346920213372224
S AH G,3,-1.7319115651378119,-1.7319115651378119,-1.731917234827368,-1.731917234827368,-1.8881867033575959,-4.653273237457225,-1.2370589892361317,-3.8464379098016614,-4.660002664613486,-9.716999144645337,0.06784851022189048,-4.4935283429350195,nan,-6.7558367511577515
S AH JH,3,-1.7477041716152084,-1.7477041716152084,-1.7477098413047645,-1.7477098413047645,-1.898858587631334,-4.673589172617592,-0.8306149712657508,-3.8060465094622122,-4.660002664613486,-9.716999144645337,0.32948526798229505,-4.414447342953033,nan,-6.6769680556879045
S AH L,3,-1.4927036921663934,-1.4927036921663934,-1.4927093618559495,-1.4927093618559495,-1.0900160431389878,-3.4550729567239613,-0.4479643835930889,-3.0167298107355576,-1.8817482048380274,-6.938744684869879,0.6228657164122574,-3.6518192845899082,nan,-5.92444082919631
S AH S,3,-1.490259842771009,-1.490259842771009,-1.490265512460565,-1.490265512460565,-1.4392605608657938,-3.9240308889173874,-0.6530958434700139,-3.2398234232248173,-2.7011891107222645,-7.758185590754117,0.5748470422570741,-3.8275685026213933,nan,-6.091313788345039
S AH SH,3,-1.7170272144021927,-1.7170272144021927,-1.7170328840917488,-1.7170328840917488,-1.9845609192573173,-4.844510985946819,-1.1890954051397722,-3.8813902095406627,-7.057897937411856,-12.114894417443708,0.22471916702230815,-4.468248633817293,nan,-6.7293451357107745
S AH T,3,-1.4530881865819847,-1.4530881865819847,-1.4530938562715408,-1.4530938562715408,-1.5342916508499977,-4.063023896229669,-0.5529527510174692,-3.1393060774776393,-2.639057329615259,-7.69605380964711,0.4125460882137491,-3.7343388958674852,nan,-6.00418469736104
S AH V,3,-1.7187649990067264,-1.7187649990067264,-1.7187706686962825,-1.7187706686962825,-1.9224424095567465,-4.719199683869644,-0.9162841402491304,-3.7964163190380003,-4.49294857995032,-9.549945059982171,0.18458842245192325,-4.4040816527174345,nan,-6.666311757427805
S AH Z,3,-1.7305987037122692,-1.7305987037122692,-1.7306043734018253,-1.7306043734018253,-1.9396351611147562,-4.7531012355453255,-0.46107553039265337,-3.714482065005818,-4.22468459335564,-9.281681073387492,0.29502742229268963,-4.283453664928819,nan,-6.544847299494225
S AY B,3,-2.3505251627518096,-2.3505251627518096,-2.3505308324413656,-2.3505308324413656,-2.921045680688693,-6.246886946285052,-1.6925903004611966,-4.154243247163161,-4.492374691842747,-11.016282128775599,0.05796403006718226,-4.573774261338781,nan,-6.834837699434289
S AY K,3,-2.107919601875966,-2.107919601875966,-2.107925271565522,-2.107925271565522,-2.5671794051865393,-6.080620780244395,-1.170371026774243,-3.8628298270985217,-1.9021075263969205,-8.426014963329772,0.35262535005937323,-4.268496907012711,nan,-6.5315955718292
S AY L,3,-2.0130677211112937,-2.0130677211112937,-2.01307339080085,-2.01307339080085,-2.440584190848034,-6.01355654966385,-0.8824510788523096,-3.5972120157219383,-3.288401887516811,-9.812309324449663,0.3773905593179455,-3.997316757962624,nan,-6.258895972931271
S AY M,3,-2.2411576963608293,-2.2411576963608293,-2.2411633660503854,-2.2411633660503854,-2.7655612572890655,-6.177666569393867,-1.2091794274197536,-3.9587686961066075,-4.204692619390966,-10.728600056323817,0.35644164402870915,-4.366609745082461,nan,-6.627734959299993
S AY P,3,-2.2591267617245996,-2.2591267617245996,-2.259132431414156,-2.259132431414156,-2.8514301741573633,-6.21663253792725,-1.4644919081576626,-4.065753213147044,-3.9815490680767565,-10.505456505009608,0.22580599859289058,-4.480808607541527,nan,-6.742202242106932
S AY S,3,-2.008959025664409,-2.008959025664409,-2.0089646953539653,-2.0089646953539653,-2.6191140276521065,-6.106976624949758,-0.9719623954233718,-3.642110067406262,-3.02603762304932,-9.549945059982171,0.30463513388876395,-4.042097527567896,nan,-6.304850517619837
S AY V,3,-2.4292650870900827,-2.4292650870900827,-2.4292707567796388,-2.4292707567796388,-2.81475135778188,-6.200211807714922,-1.0961318864695404,-4.054130119857752,-5.5909869805108565,-12.114894417443708,0.21968878984502344,-4.470926808309024,nan,-6.732022513481491
S ER D,3,-2.0776741562697407,-2.0776741562697407,-2.077679825959297,-2.077679825959297,-2.3491542400448915,-5.704483287230751,-0.8236909860718149,-3.722339464149696,-3.8536874284151827,-10.323134948215653,0.48152382682817585,-4.137310681223599,nan,-6.398917785743918
S ER G,3,-2.2790846586609366,-2.2790846586609366,-2.2790903283504926,-2.2790903283504926,-3.016358182296749,-6.080620780244395,-1.589774212254699,-4.135418435748838,-5.645446897643238,-12.114894417443708,-0.004895491746855385,-4.56456972560971,nan,-6.825636188570692
S ER K,3,-1.9797166887987148,-1.9797166887987148,-1.9797223584882708,-1.9797223584882708,-2.505603442316821,-5.802376164407915,-1.2054142541244381,-3.8373199984452353,-2.179710994843511,-8.649158514643982,0.36540329773998265,-4.258327327843082,nan,-6.5204439411121085
S ER L,3,-1.8958130272288432,-1.8958130272288432,-1.8958186969183992,-1.8958186969183992,-2.6000025991752356,-5.858633967058009,-0.9447509002164578,-3.586207289825116,-4.952299717083292,-11.421747236883762,0.19993227645732173,-4.000290185167299,nan,-6.26149772128609
S ER M,3,-2.0959511888446896,-2.0959511888446896,-2.0959568585342456,-2.0959568585342456,-2.416051873992976,-5.747042901649547,-1.1858756034259836,-3.916379905056864,-4.036008985209137,-10.505456505009608,0.18464306449801537,-4.363393446410637,nan,-6.624787080976042
S ER N,3,-1.8101961771839314,-1.8101961771839314,-1.8102018468734875,-1.8102018468734875,-2.280681129609375,-5.659859006760757,-0.9067986824510919,-3.4839406992872375,-3.1605402478552374,-9.629987767655708,0.3100826419612521,-3.9008095688523525,nan,-6.163046018469755
S ER P,3,-2.111472667792457,-2.111472667792457,-2.111478337482013,-2.111478337482013,-2.791450146721039,-5.966054215678846,-1.4893852912273573,-4.041526676173704,-2.9373966965410276,-9.406844216341499,0.13640203011226718,-4.473014803101917,nan,-6.735005809250199
S ER S,3,-1.8921580937153444,-1.8921580937153444,-1.8921637634049004,-1.8921637634049004,-2.1899669816200116,-5.599122771572924,-0.9407621718912372,-3.6013254079118657,-4.036008985209137,-10.505456505009608,0.22876777938943907,-4.036485514774066,nan,-6.298458244037635
S ER T,3,-1.837097644908394,-1.837097644908394,-1.8371033145979503,-1.8371033145979503,-2.315820801102426,-5.682892654638383,-0.7814726602674655,-3.4080130973809015,-2.3496100316389086,-8.819057551439379,0.3469298277687335,-3.816666665946336,nan,-6.079610448086143
S ER Z,3,-2.2768166449657383,-2.2768166449657383,-2.2768223146552944,-2.2768223146552944,-2.9246188544370497,-6.035415343476348,-0.5893652520429082,-3.9242694923320265,-4.259152536523347,-10.728600056323817,0.5296712125743547,-4.329973680563712,nan,-6.591108549440004
S EY B,3,-2.297247163011873,-2.297247163011873,-2.297252832701429,-2.297252832701429,-3.597173708841136,-6.9231132493566605,-1.8235653057331902,-4.200140403855463,-3.2188758248682006,-10.505456505009608,-0.0592461450671867,-4.591432557916391,nan,-6.8531623834414255
S EY D,3,-2.1731428200618543,-2.1731428200618543,-2.1731484897514104,-2.1731484897514104,-2.855927712172785,-6.4298913300089175,-0.8561837352025743,-3.7763617385696144,-3.036554268074246,-10.323134948215653,0.4330679286817141,-4.16216339200787,nan,-6.423557026573276
S EY P,3,-2.210390884898087,-2.210390884898087,-2.210396554587643,-2.210396554587643,-3.4080867027769357,-6.809065742885364,-1.55937413471371,-4.105008144165477,-4.8283137373023015,-12.114894417443708,0.1857632648247775,-4.49566411796504,nan,-6.756752362392174
S EY S,3,-1.9708070336530712,-1.9708070336530712,-1.9708127033426273,-1.9708127033426273,-2.684203099171407,-6.299438441611483,-0.9782883869210462,-3.6531847934552073,-4.8283137373023015,-12.114894417443708,0.3289591259584512,-4.046181150160594,nan,-6.307379947901223
S IY G,3,-2.170108822061665,-2.170108822061665,-2.170114491751221,-2.170114491751221,-2.701253747199445,-5.7064693852023805,-1.530048065780424,-4.088537183569552,-4.543294782270004,-11.016282128775599,-0.001903232606774885,-4.57212436820754,nan,-6.833188350553049
S IY V,3,-2.149805801936947,-2.149805801936947,-2.149811471626503,-2.149811471626503,-2.258744808892367,-5.465591378948402,-1.0511260795805457,-3.964421331918316,-2.597384633214691,-9.070371979720285,0.21187442502445597,-4.4608466755216245,nan,-6.725786413093781
T AH L,3,-1.4554427566258963,-1.4554427566258963,-1.4554484263154523,-1.4554484263154523,-1.020346807717301,-3.4046798371985822,-0.5410638428028423,-3.1737645228691678,-1.5530849758829686,-6.438140615175427,0.5890506910442572,-3.9283115156732404,nan,-6.215493791028247
T AY S,3,-1.9472831599657405,-1.9472831599657405,-1.9472888296552968,-1.9472888296552968,-2.6986845246542828,-6.236700100978059,-1.1767993698728054,-4.035698992135049,-4.029806041084529,-10.728600056323817,0.24757866811154466,-4.455550987946914,nan,-6.717238092800559
T ER T,3,-1.7849112884150236,-1.7849112884150236,-1.7849169581045798,-1.7849169581045798,-1.7137495117036736,-4.809854052137775,-0.800049750599625,-3.565072977751142,-3.7876800388580296,-9.549945059982171,0.25346017254357095,-4.140303415394013,nan,-6.4031967824311975
T EY N,3,-1.827885235213651,-1.827885235213651,-1.8278909049032073,-1.8278909049032073,-1.9796060910106212,-5.442424319666868,-0.9426592327398402,-3.772738932263092,-2.1009477469007996,-8.286253020954613,0.38662172716972365,-4.240894050510024,nan,-6.508223829777332
T EY S,3,-1.9113726586599697,-1.9113726586599697,-1.9113783283495258,-1.9113783283495258,-2.343597908844832,-5.6693919674194815,-1.1060473877551722,-3.97504181770545,-3.4446824936018943,-9.629987767655708,0.3041995493328362,-4.4529136237808284,nan,-6.715478561554819
TH IY N,3,-2.1282861365046264,-2.1282861365046264,-2.1282918061941825,-2.1282918061941825,-1.5129249593494112,-5.950708646004186,-0.9644159685994151,-4.06375919454018,-3.1354942159291497,-10.728600056323817,0.39007780959781047,-4.497804464295051,nan,-6.759504236931115
V AY K,3,-2.5841024474876595,-2.5841024474876595,-2.5841081171772156,-2.5841081171772156,-2.268412778857155,-6.502109537820717,-1.4098038018527315,-4.726082976684298,-3.624340932976365,-10.728600056323817,0.23875904100792977,-5.176667858469558,nan,-7.437458174766285
V AY R,3,-2.4984004673289215,-2.4984004673289215,-2.498406137018478,-2.498406137018478,-2.1999079039402667,-6.4298913300089175,-1.8349713911530732,-5.212557042799993,-2.5257286443082556,-9.629987767655708,0.2608359901397502,-5.725628484443166,nan,-7.996471008206504
V AY T,3,-2.336819844257014,-2.336819844257014,-2.3368255139465703,-2.3368255139465703,-1.6640883498881016,-5.87262020903275,-0.750906443359054,-3.858185136909197,-2.6127400212978853,-9.716999144645337,0.4350889452066875,-4.276560481553505,nan,-6.538444913674775
V ER N,3,-2.1405056622479384,-2.1405056622479384,-2.1405113319374944,-2.1405113319374944,-1.2895150580438461,-5.433305715450433,-0.7796926719808589,-3.9232798831468605,-2.9523027156266552,-9.119162143889717,0.294638562840002,-4.428056852698634,nan,-6.693168495265053
V EY T,3,-2.284248324669188,-2.284248324669188,-2.2842539943587443,-2.2842539943587443,-1.1785324158929371,-5.107043190627989,-0.5424251471484358,-3.7506490469908083,-1.8577174370198524,-9.023851964085392,0.5839554975263137,-4.192600041151067,nan,-6.4555739898505315
V IY N,3,-2.0449807354607503,-2.0449807354607503,-2.0449864051503064,-2.0449864051503064,-1.9364585704388202,-5.842560142226948,-1.0956062726770033,-3.9797403384870043,-1.9459101490553135,-9.170455438277267,0.4080578861182692,-4.416420564171149,nan,-6.680074086703991
W EY S,3,-2.425603608774329,-2.425603608774329,-2.425609278463885,-2.425609278463885,-1.8461665546371095,-6.07773477535526,-0.953281756746809,-4.165521562200868,-2.4389969484839225,-9.549945059982171,0.3535836653041506,-4.599532500953181,nan,-6.8616041016462495
CH AH CH,3,-2.1542440758598644,-2.1542440758598644,-2.1542497455494205,-2.1542497455494205,-1.6979121127064893,-6.633754730577627,-1.1117322945567993,-5.879130471907425,-5.236441962829949,-12.114894417443708,-0.0050570665021766326,-6.6054955952089305,nan,-8.864373505177088
CH AH JH,3,-2.1243407956769222,-2.1243407956769222,-2.1243464653664783,-2.1243464653664783,-1.6286471764723789,-5.8494173119530855,-0.9612921301885547,-5.340716891622605,-5.236441962829949,-12.114894417443708,0.20653971605795965,-6.121733149791767,nan,-8.381575193665753
CH AH SH,3,-2.0799406002842096,-2.0799406002842096,-2.0799462699737656,-2.0799462699737656,-1.6933831366121628,-6.5610835402802685,-1.381848926288031,-5.751297100397539,-5.236441962829949,-12.114894417443708,0.09504130393580804,-6.440963579978474,nan,-8.700222742015246
CH AH Z,3,-2.099508185319344,-2.099508185319344,-2.0995138550089,-2.0995138550089,-1.6596172821856887,-6.134045946917976,-0.5495278305233626,-4.972678189033558,-3.8501476017100584,-10.728600056323817,0.17645060666263973,-5.552404261209844,nan,-7.812919547014344
CH AY B,3,-3.202572964994242,-3.202572964994242,-3.202578634683798,-3.202578634683798,-2.9677912275662734,-7.520340308037866,-2.4567815679793394,-6.214554307244421,-4.07753744390572,-12.114894417443708,-0.011307948438296023,-6.71450114504409,nan,-8.973089728681886
CH AY DH,3,-3.8902963091577676,-3.8902963091577676,-3.8903019788473236,-3.8903019788473236,-3.571603079374448,-8.594855045126915,-2.156746510781707,-6.7028165241554385,-4.07753744390572,-12.114894417443708,-0.6430278947268782,-7.100494149739434,nan,-9.357764067120977
CH AY Z,3,-3.4631538533934547,-3.4631538533934547,-3.4631595230830112,-3.4631595230830112,-1.8783570586063012,-6.168157781424839,-0.5833228188685141,-4.980476881519377,-2.691243082785829,-10.728600056323817,0.5638659139793929,-5.396497654680321,nan,-7.657139692066415
CH ER G,3,-3.0424834238993257,-3.0424834238993257,-3.0424890935888818,-3.0424890935888818,-1.5364343067835942,-6.561083540280268,-1.4018915623630646,-5.920171021777692,-4.77912349311153,-12.114894417443708,-0.11317984509735785,-6.728645652430255,nan,-8.987194334863428
CH ER JH,3,-3.102343426039661,-3.102343426039661,-3.1023490957292172,-3.1023490957292172,-1.4962413227362712,-6.4298913300089175,-0.9193345169872618,-5.558771373429344,-4.77912349311153,-12.114894417443708,0.08374441532056809,-6.243795515067525,nan,-8.503436300805516
CH ER TH,3,-3.2259939001057094,-3.2259939001057094,-3.2259995697952655,-3.2259995697952655,-1.5501991603484873,-6.608939561457904,-0.9090843402095116,-5.894989835147532,-4.77912349311153,-12.114894417443708,0.011724806988308661,-6.646632500769419,nan,-8.90540490185495
CH ER Z,3,-3.0376235790945945,-3.0376235790945945,-3.0376292487841505,-3.0376292487841505,-1.5147972044990152,-6.488980246378924,-0.516108646061818,-5.04439874822477,-3.169685580677429,-10.505456505009608,0.4741541456888585,-5.53325659179571,nan,-7.793788528763635
CH EY DH,3,-3.6630005027427903,-3.6630005027427903,-3.663006172432347,-3.663006172432347,-3.4569570728699905,-8.430551993835639,-2.1328098703068807,-6.68309201880766,-4.110873864173311,-12.114894417443708,-0.6532043887428725,-7.100494149739434,nan,-9.357764067120977
CH EY G,3,-3.3155391445459825,-3.3155391445459825,-3.3155448142355386,-3.3155448142355386,-3.316532815044073,-8.055858544394228,-2.2937997340374414,-6.280234474106576,-4.110873864173311,-12.114894417443708,-0.09140524823876159,-6.722963818962824,nan,-8.98152859732775
